;FLAVOR:Marlin
;TIME:2050
;Filament used: 3.39202m
;Layer height: 0.2
;MINX:89.4
;MINY:71.4
;MINZ:0.3
;MAXX:150.6
;MAXY:158.6
;MAXZ:14.9
;Generated with Cura_SteamEngine 4.6.1
M140 S60
M105
M190 S60
M104 S200
M105
M109 S200
M82 ;absolute extrusion mode
G21 ;metric values
G90 ;absolute positioning
M82 ;set extruder to absolute mode
M107 ;start with the fan off
G28 X0 Y0 ;move X/Y to min endstops
G28 Z0 ;move Z to min endstops
G1 Z15.0 F9000 ;move the platform down 15mm
G92 E0 ;zero the extruded length
G1 F200 E6 ;extrude 6 mm of feed stock
G92 E0 ;zero the extruded length again
G1 F9000
;Put printing message on LCD screen
M117 Printing...
G92 E0
G92 E0
G1 F1500 E-6.5
;LAYER_COUNT:74
;LAYER:0
M107
G0 F3600 X91.672 Y75.453 Z0.3
;TYPE:SKIRT
G1 F1500 E0
G1 F1800 X92.394 Y74.627 E0.10947
G1 X92.7 Y74.324 E0.15243
G1 X93.521 Y73.619 E0.26041
G1 X93.865 Y73.364 E0.30314
G1 X94.786 Y72.779 E0.41201
G1 X95.159 Y72.578 E0.45429
G1 X96.133 Y72.138 E0.56093
G1 X96.534 Y71.99 E0.60358
G1 X97.587 Y71.686 E0.71294
G1 X98.011 Y71.596 E0.75619
G1 X99.046 Y71.449 E0.8605
G1 X100.008 Y71.4 E0.95661
G1 X139.991 Y71.4 E4.94613
G1 X141.014 Y71.456 E5.04836
G1 X142.101 Y71.618 E5.15802
G1 X142.525 Y71.713 E5.20137
G1 X143.64 Y72.055 E5.31774
G1 X144.073 Y72.225 E5.36416
G1 X144.962 Y72.641 E5.4621
G1 X145.298 Y72.826 E5.50037
G1 X146.212 Y73.419 E5.60908
G1 X146.555 Y73.678 E5.65197
G1 X147.376 Y74.396 E5.76079
G1 X147.677 Y74.7 E5.80348
G1 X148.381 Y75.521 E5.91139
G1 X148.636 Y75.865 E5.95412
G1 X149.221 Y76.786 E6.06299
G1 X149.422 Y77.159 E6.10527
G1 X149.862 Y78.133 E6.21191
G1 X150.01 Y78.534 E6.25456
G1 X150.315 Y79.591 E6.36433
G1 X150.405 Y80.016 E6.40768
G1 X150.552 Y81.06 E6.51288
G1 X150.596 Y81.961 E6.60289
G1 X150.6 Y107.99 E9.20007
G1 X150.578 Y108.566 E9.25759
G1 X150.544 Y109.014 E9.30242
G1 X150.383 Y110.095 E9.41147
G1 X150.289 Y110.516 E9.45451
G1 X150.081 Y111.267 E9.53227
G1 X149.776 Y112.071 E9.61807
G1 X149.359 Y112.962 E9.71623
G1 X149.174 Y113.298 E9.7545
G1 X148.585 Y114.206 E9.86249
G1 X148.328 Y114.547 E9.9051
G1 X147.933 Y114.999 E9.96499
G1 X148.379 Y115.518 E10.03327
G1 X148.635 Y115.863 E10.07614
G1 X149.222 Y116.787 E10.18537
G1 X149.423 Y117.16 E10.22765
G1 X149.869 Y118.151 E10.33608
G1 X150.017 Y118.555 E10.37901
G1 X150.317 Y119.597 E10.48721
G1 X150.406 Y120.018 E10.53014
G1 X150.55 Y121.045 E10.63362
G1 X150.6 Y122.007 E10.72974
G1 X150.6 Y147.734 E13.29679
G1 X150.562 Y148.744 E13.39764
G1 X150.488 Y149.52 E13.47542
G1 X150.299 Y150.469 E13.57197
G1 X149.97 Y151.578 E13.68739
G1 X149.82 Y151.971 E13.72937
G1 X149.376 Y152.93 E13.83482
G1 X149.166 Y153.311 E13.87822
G1 X148.568 Y154.231 E13.98771
G1 X148.318 Y154.561 E14.02902
G1 X147.599 Y155.381 E14.13784
G1 X147.293 Y155.683 E14.18074
G1 X146.497 Y156.367 E14.28546
G1 X146.151 Y156.625 E14.32852
G1 X145.213 Y157.222 E14.43947
G1 X144.84 Y157.423 E14.48174
G1 X143.849 Y157.869 E14.59018
G1 X143.445 Y158.017 E14.63311
G1 X142.405 Y158.316 E14.74108
G1 X141.98 Y158.406 E14.78443
G1 X140.826 Y158.559 E14.90059
G1 X140.302 Y158.588 E14.95295
G1 X100.152 Y158.6 E18.95913
G1 X99.215 Y158.562 E19.05271
G1 X98.439 Y158.483 E19.13053
G1 X97.487 Y158.289 E19.22748
G1 X96.435 Y157.974 E19.33705
G1 X96.042 Y157.825 E19.37899
G1 X95.05 Y157.365 E19.4881
G1 X94.675 Y157.157 E19.53088
G1 X93.778 Y156.574 E19.63763
G1 X93.442 Y156.32 E19.67966
G1 X92.624 Y155.604 E19.78813
G1 X92.323 Y155.3 E19.83082
G1 X91.619 Y154.479 E19.93873
G1 X91.361 Y154.131 E19.98195
G1 X90.772 Y153.204 E20.09154
G1 X90.572 Y152.832 E20.13369
G1 X90.128 Y151.842 E20.24195
G1 X89.98 Y151.437 E20.28497
G1 X89.681 Y150.394 E20.39324
G1 X89.593 Y149.976 E20.43586
G1 X89.45 Y148.955 E20.53873
G1 X89.4 Y147.993 E20.63485
G1 X89.4 Y122.266 E23.2019
G1 X89.438 Y121.256 E23.30275
G1 X89.512 Y120.48 E23.38053
G1 X89.701 Y119.531 E23.47708
G1 X90.03 Y118.422 E23.5925
G1 X90.18 Y118.029 E23.63447
G1 X90.624 Y117.07 E23.73992
G1 X90.834 Y116.689 E23.78333
G1 X91.432 Y115.769 E23.89282
G1 X91.682 Y115.439 E23.93413
G1 X92.066 Y115 E23.99232
G1 X91.617 Y114.476 E24.06118
G1 X91.36 Y114.129 E24.10426
G1 X90.773 Y113.205 E24.21349
G1 X90.573 Y112.833 E24.25563
G1 X90.135 Y111.86 E24.3621
G1 X89.987 Y111.458 E24.40485
G1 X89.683 Y110.404 E24.5143
G1 X89.594 Y109.983 E24.55724
G1 X89.449 Y108.955 E24.66083
G1 X89.4 Y107.993 E24.75694
G1 X89.4 Y82.009 E27.34964
G1 X89.422 Y81.434 E27.40705
G1 X89.456 Y80.986 E27.45188
G1 X89.617 Y79.905 E27.56093
G1 X89.711 Y79.484 E27.60398
G1 X89.919 Y78.733 E27.68173
G1 X90.224 Y77.929 E27.76753
G1 X90.641 Y77.038 E27.86569
G1 X90.826 Y76.702 E27.90397
G1 X91.415 Y75.794 E28.01196
G1 X91.672 Y75.453 E28.05456
G0 F3600 X92.311 Y75.934
G1 F1800 X92.956 Y75.195 E28.15244
G1 X93.262 Y74.892 E28.19541
G1 X93.998 Y74.261 E28.29214
G1 X94.342 Y74.006 E28.33487
G1 X95.165 Y73.483 E28.43216
G1 X95.538 Y73.282 E28.47444
G1 X96.41 Y72.889 E28.56988
G1 X96.811 Y72.741 E28.61253
G1 X97.753 Y72.468 E28.71039
G1 X98.177 Y72.378 E28.75364
G1 X99.103 Y72.247 E28.84696
G1 X100.008 Y72.2 E28.93738
G1 X139.991 Y72.2 E32.9269
G1 X140.954 Y72.253 E33.02313
G1 X141.926 Y72.399 E33.12121
G1 X142.35 Y72.494 E33.16456
G1 X143.348 Y72.799 E33.26869
G1 X143.781 Y72.969 E33.31511
G1 X144.576 Y73.342 E33.40273
G1 X144.912 Y73.527 E33.441
G1 X145.73 Y74.057 E33.53826
G1 X146.073 Y74.316 E33.58114
G1 X146.807 Y74.959 E33.67851
G1 X147.108 Y75.263 E33.7212
G1 X147.739 Y75.998 E33.81785
G1 X147.994 Y76.342 E33.86058
G1 X148.517 Y77.165 E33.95788
G1 X148.718 Y77.538 E34.00016
G1 X149.111 Y78.41 E34.09559
G1 X149.259 Y78.811 E34.13824
G1 X149.532 Y79.756 E34.23639
G1 X149.622 Y80.181 E34.27974
G1 X149.753 Y81.116 E34.37394
G1 X149.796 Y81.961 E34.45837
G1 X149.8 Y107.99 E37.05555
G1 X149.781 Y108.506 E37.10707
G1 X149.747 Y108.954 E37.1519
G1 X149.603 Y109.921 E37.24946
G1 X149.509 Y110.342 E37.2925
G1 X149.203 Y111.343 E37.39694
G1 X149.032 Y111.779 E37.44367
G1 X148.658 Y112.576 E37.53152
G1 X148.473 Y112.912 E37.56979
G1 X147.946 Y113.725 E37.66646
G1 X147.689 Y114.066 E37.70907
G1 X147.044 Y114.805 E37.80694
G1 X146.848 Y114.999 E37.83446
G1 X147.108 Y115.262 E37.87136
G1 X147.737 Y115.995 E37.96774
G1 X147.993 Y116.34 E38.0106
G1 X148.518 Y117.166 E38.10826
G1 X148.719 Y117.539 E38.15054
G1 X149.118 Y118.426 E38.24759
G1 X149.266 Y118.83 E38.29052
G1 X149.534 Y119.763 E38.38738
G1 X149.623 Y120.184 E38.43031
G1 X149.752 Y121.102 E38.52281
G1 X149.8 Y122.007 E38.61324
G1 X149.8 Y147.734 E41.18029
G1 X149.763 Y148.708 E41.27754
G1 X149.69 Y149.442 E41.35115
G1 X149.517 Y150.301 E41.43858
G1 X149.223 Y151.293 E41.54182
G1 X149.073 Y151.686 E41.58379
G1 X148.675 Y152.543 E41.67807
G1 X148.465 Y152.924 E41.72148
G1 X147.93 Y153.748 E41.81951
G1 X147.68 Y154.078 E41.86082
G1 X147.037 Y154.812 E41.95819
G1 X146.731 Y155.114 E42.00108
G1 X146.019 Y155.725 E42.0947
G1 X145.673 Y155.983 E42.13777
G1 X144.834 Y156.518 E42.23705
G1 X144.461 Y156.719 E42.27933
G1 X143.574 Y157.118 E42.37638
G1 X143.17 Y157.266 E42.41931
G1 X142.24 Y157.533 E42.51585
G1 X141.815 Y157.623 E42.5592
G1 X140.782 Y157.761 E42.66319
G1 X140.258 Y157.79 E42.71556
G1 X100.152 Y157.8 E46.71735
G1 X99.255 Y157.763 E46.80693
G1 X98.522 Y157.686 E46.88047
G1 X97.66 Y157.507 E46.96831
G1 X96.718 Y157.226 E47.0664
G1 X96.325 Y157.077 E47.10834
G1 X95.438 Y156.666 E47.20588
G1 X95.063 Y156.458 E47.24867
G1 X94.26 Y155.935 E47.34429
G1 X93.924 Y155.681 E47.38632
G1 X93.193 Y155.041 E47.48326
G1 X92.892 Y154.737 E47.52595
G1 X92.261 Y154.003 E47.62253
G1 X92.003 Y153.655 E47.66576
G1 X91.477 Y152.825 E47.7638
G1 X91.277 Y152.453 E47.80595
G1 X90.879 Y151.567 E47.90286
G1 X90.731 Y151.162 E47.94589
G1 X90.464 Y150.229 E48.04272
G1 X90.376 Y149.811 E48.08534
G1 X90.248 Y148.898 E48.17733
G1 X90.2 Y147.993 E48.26776
G1 X90.2 Y122.266 E50.83481
G1 X90.237 Y121.292 E50.93207
G1 X90.31 Y120.558 E51.00567
G1 X90.483 Y119.699 E51.0931
G1 X90.777 Y118.707 E51.19634
G1 X90.927 Y118.314 E51.23831
G1 X91.325 Y117.457 E51.33259
G1 X91.535 Y117.076 E51.376
G1 X92.07 Y116.252 E51.47403
G1 X92.32 Y115.922 E51.51534
G1 X92.955 Y115.196 E51.61158
G1 X93.153 Y115 E51.63938
G1 X92.892 Y114.737 E51.67635
G1 X92.26 Y114 E51.77323
G1 X92.003 Y113.653 E51.81631
G1 X91.478 Y112.826 E51.91405
G1 X91.278 Y112.454 E51.9562
G1 X90.886 Y111.583 E52.0515
G1 X90.738 Y111.181 E52.09424
G1 X90.466 Y110.238 E52.19217
G1 X90.377 Y109.817 E52.23511
G1 X90.247 Y108.898 E52.32772
G1 X90.2 Y107.993 E52.41814
G1 X90.2 Y82.009 E55.01084
G1 X90.219 Y81.494 E55.06226
G1 X90.253 Y81.046 E55.10709
G1 X90.397 Y80.079 E55.20464
G1 X90.491 Y79.658 E55.24768
G1 X90.797 Y78.657 E55.35213
G1 X90.968 Y78.221 E55.39886
G1 X91.342 Y77.424 E55.4867
G1 X91.527 Y77.088 E55.52497
G1 X92.054 Y76.275 E55.62165
G1 X92.311 Y75.934 E55.66425
G0 F3600 X92.949 Y76.416
G1 F1800 X93.519 Y75.764 E55.75067
G1 X93.825 Y75.461 E55.79364
G1 X94.474 Y74.904 E55.87897
G1 X94.818 Y74.649 E55.9217
G1 X95.545 Y74.187 E56.00765
G1 X95.918 Y73.986 E56.04993
G1 X96.687 Y73.639 E56.13411
G1 X97.088 Y73.491 E56.17676
G1 X97.919 Y73.251 E56.26306
G1 X98.343 Y73.161 E56.30631
G1 X99.161 Y73.045 E56.38875
G1 X100.008 Y73 E56.47338
G1 X139.991 Y73 E60.4629
G1 X140.893 Y73.051 E60.55305
G1 X141.751 Y73.179 E60.63961
G1 X142.175 Y73.274 E60.68296
G1 X143.056 Y73.544 E60.77491
G1 X143.489 Y73.714 E60.82132
G1 X144.19 Y74.043 E60.89859
G1 X144.526 Y74.228 E60.93686
G1 X145.248 Y74.696 E61.02271
G1 X145.591 Y74.955 E61.0656
G1 X146.239 Y75.521 E61.15145
G1 X146.54 Y75.825 E61.19413
G1 X147.096 Y76.474 E61.27941
G1 X147.351 Y76.818 E61.32213
G1 X147.813 Y77.545 E61.40808
G1 X148.014 Y77.918 E61.45036
G1 X148.361 Y78.687 E61.53454
G1 X148.509 Y79.088 E61.57719
G1 X148.75 Y79.922 E61.66381
G1 X148.84 Y80.347 E61.70716
G1 X148.955 Y81.172 E61.79027
G1 X148.996 Y81.961 E61.86911
G1 X149 Y107.99 E64.46629
G1 X148.949 Y108.893 E64.55654
G1 X148.822 Y109.746 E64.64259
G1 X148.728 Y110.167 E64.68563
G1 X148.458 Y111.051 E64.77786
G1 X148.287 Y111.487 E64.82459
G1 X147.957 Y112.19 E64.90208
G1 X147.772 Y112.526 E64.94035
G1 X147.308 Y113.243 E65.02557
G1 X147.051 Y113.584 E65.06817
G1 X146.481 Y114.236 E65.15459
G1 X146.175 Y114.539 E65.19755
G1 X145.641 Y114.997 E65.26775
G1 X146.238 Y115.52 E65.34694
G1 X146.54 Y115.825 E65.38977
G1 X147.094 Y116.472 E65.47476
G1 X147.35 Y116.817 E65.51763
G1 X147.814 Y117.546 E65.60385
G1 X148.015 Y117.919 E65.64613
G1 X148.367 Y118.701 E65.7317
G1 X148.515 Y119.105 E65.77463
G1 X148.751 Y119.928 E65.86006
G1 X148.84 Y120.349 E65.903
G1 X148.955 Y121.159 E65.98463
G1 X149 Y122.007 E66.06936
G1 X149 Y147.734 E68.63641
G1 X148.964 Y148.672 E68.73008
G1 X148.835 Y149.668 E68.83029
G1 X148.735 Y150.132 E68.87765
G1 X148.476 Y151.008 E68.9688
G1 X148.326 Y151.401 E69.01077
G1 X147.975 Y152.157 E69.09394
G1 X147.765 Y152.538 E69.13735
G1 X147.293 Y153.265 E69.22383
G1 X147.043 Y153.595 E69.26514
G1 X146.475 Y154.242 E69.35105
G1 X146.169 Y154.544 E69.39395
G1 X145.541 Y155.084 E69.47659
G1 X145.195 Y155.342 E69.51965
G1 X144.454 Y155.814 E69.60732
G1 X144.081 Y156.015 E69.6496
G1 X143.299 Y156.367 E69.73516
G1 X142.895 Y156.515 E69.7781
G1 X142.074 Y156.751 E69.86333
G1 X141.649 Y156.841 E69.90668
G1 X140.738 Y156.962 E69.99838
G1 X140.214 Y156.991 E70.05074
G1 X100.152 Y157 E74.04815
G1 X99.296 Y156.964 E74.13363
G1 X98.303 Y156.83 E74.23361
G1 X97.833 Y156.726 E74.28164
G1 X97.002 Y156.478 E74.36818
G1 X96.609 Y156.329 E74.41011
G1 X95.826 Y155.966 E74.49623
G1 X95.451 Y155.758 E74.53902
G1 X94.743 Y155.297 E74.62332
G1 X94.407 Y155.043 E74.66534
G1 X93.761 Y154.479 E74.75091
G1 X93.46 Y154.175 E74.7936
G1 X92.904 Y153.526 E74.87887
G1 X92.646 Y153.178 E74.9221
G1 X92.181 Y152.446 E75.00863
G1 X91.981 Y152.074 E75.05077
G1 X91.63 Y151.292 E75.1363
G1 X91.482 Y150.887 E75.17932
G1 X91.247 Y150.064 E75.26472
G1 X91.159 Y149.646 E75.30735
G1 X91.045 Y148.841 E75.38847
G1 X91 Y147.993 E75.4732
G1 X91 Y122.266 E78.04025
G1 X91.036 Y121.328 E78.13392
G1 X91.165 Y120.332 E78.23413
G1 X91.265 Y119.868 E78.28149
G1 X91.524 Y118.992 E78.37264
G1 X91.674 Y118.599 E78.41461
G1 X92.025 Y117.843 E78.49778
G1 X92.235 Y117.462 E78.54119
G1 X92.707 Y116.735 E78.62768
G1 X92.957 Y116.405 E78.66898
G1 X93.518 Y115.765 E78.75391
G1 X93.825 Y115.461 E78.79701
G1 X94.36 Y115.002 E78.86735
G1 X93.761 Y114.479 E78.9467
G1 X93.46 Y114.175 E78.98938
G1 X92.902 Y113.524 E79.07494
G1 X92.645 Y113.177 E79.11802
G1 X92.182 Y112.447 E79.20428
G1 X91.982 Y112.075 E79.24642
G1 X91.636 Y111.307 E79.33047
G1 X91.488 Y110.905 E79.37321
G1 X91.249 Y110.073 E79.45959
G1 X91.16 Y109.652 E79.50252
G1 X91.045 Y108.841 E79.58425
G1 X91 Y107.993 E79.66899
G1 X91 Y82.009 E82.26168
G1 X91.051 Y81.107 E82.35183
G1 X91.178 Y80.254 E82.43788
G1 X91.272 Y79.833 E82.48092
G1 X91.542 Y78.949 E82.57315
G1 X91.713 Y78.513 E82.61988
G1 X92.043 Y77.81 E82.69737
G1 X92.228 Y77.474 E82.73564
G1 X92.692 Y76.757 E82.82086
G1 X92.949 Y76.416 E82.86346
G0 F3600 X93.588 Y76.897
G1 F1800 X94.082 Y76.332 E82.93835
G1 X94.388 Y76.029 E82.98132
G1 X94.95 Y75.547 E83.05519
G1 X95.294 Y75.292 E83.09792
G1 X95.924 Y74.891 E83.17244
G1 X96.297 Y74.69 E83.21471
G1 X96.964 Y74.39 E83.28769
G1 X97.365 Y74.242 E83.33034
G1 X98.085 Y74.033 E83.40515
G1 X98.509 Y73.943 E83.4484
G1 X99.218 Y73.843 E83.51984
G1 X100.008 Y73.8 E83.59878
G1 X139.991 Y73.8 E87.5883
G1 X140.833 Y73.849 E87.67246
G1 X141.576 Y73.96 E87.74742
G1 X142 Y74.055 E87.79078
G1 X142.763 Y74.289 E87.87041
G1 X143.196 Y74.459 E87.91682
G1 X143.804 Y74.744 E87.98383
G1 X144.14 Y74.929 E88.0221
G1 X144.766 Y75.334 E88.09649
G1 X145.109 Y75.593 E88.13938
G1 X145.67 Y76.084 E88.21377
G1 X145.971 Y76.388 E88.25645
G1 X146.453 Y76.95 E88.33033
G1 X146.708 Y77.294 E88.37306
G1 X147.109 Y77.924 E88.44757
G1 X147.31 Y78.297 E88.48985
G1 X147.61 Y78.964 E88.56282
G1 X147.758 Y79.365 E88.60548
G1 X147.967 Y80.088 E88.68057
G1 X148.057 Y80.513 E88.72392
G1 X148.157 Y81.227 E88.79586
G1 X148.196 Y81.961 E88.8692
G1 X148.2 Y107.99 E91.46638
G1 X148.151 Y108.833 E91.55064
G1 X148.041 Y109.572 E91.62519
G1 X147.947 Y109.993 E91.66823
G1 X147.713 Y110.759 E91.74815
G1 X147.542 Y111.195 E91.79488
G1 X147.256 Y111.804 E91.86201
G1 X147.071 Y112.14 E91.90029
G1 X146.669 Y112.762 E91.97418
G1 X146.412 Y113.103 E92.01679
G1 X145.918 Y113.668 E92.09168
G1 X145.612 Y113.971 E92.13464
G1 X145.05 Y114.453 E92.20852
G1 X144.706 Y114.708 E92.25125
G1 X144.249 Y114.999 E92.30531
G1 X144.786 Y115.348 E92.36921
G1 X145.118 Y115.6 E92.4108
G1 X145.669 Y116.083 E92.48391
G1 X145.971 Y116.388 E92.52674
G1 X146.452 Y116.948 E92.6004
G1 X146.708 Y117.293 E92.64326
G1 X147.11 Y117.925 E92.718
G1 X147.311 Y118.298 E92.76028
G1 X147.616 Y118.976 E92.83446
G1 X147.764 Y119.38 E92.87739
G1 X147.969 Y120.093 E92.95142
G1 X148.058 Y120.514 E92.99435
G1 X148.157 Y121.217 E93.06519
G1 X148.2 Y122.007 E93.14413
G1 X148.2 Y147.734 E95.71118
G1 X148.165 Y148.637 E95.80135
G1 X148.053 Y149.5 E95.88819
G1 X147.953 Y149.964 E95.93555
G1 X147.728 Y150.722 E96.01444
G1 X147.578 Y151.115 E96.05642
G1 X147.274 Y151.771 E96.12856
G1 X147.064 Y152.152 E96.17197
G1 X146.655 Y152.782 E96.24691
G1 X146.405 Y153.112 E96.28822
G1 X145.913 Y153.673 E96.36268
G1 X145.607 Y153.975 E96.40558
G1 X145.062 Y154.443 E96.47726
G1 X144.716 Y154.701 E96.52032
G1 X144.075 Y155.11 E96.59619
G1 X143.702 Y155.311 E96.63847
G1 X143.024 Y155.616 E96.71265
G1 X142.62 Y155.764 E96.75558
G1 X141.908 Y155.968 E96.82948
G1 X141.483 Y156.058 E96.87283
G1 X140.693 Y156.163 E96.95235
G1 X140.169 Y156.192 E97.00471
G1 X100.152 Y156.2 E100.99763
G1 X99.336 Y156.165 E101.07912
G1 X98.476 Y156.049 E101.16571
G1 X98.006 Y155.945 E101.21374
G1 X97.286 Y155.73 E101.28872
G1 X96.893 Y155.581 E101.33066
G1 X96.214 Y155.266 E101.40534
G1 X95.839 Y155.058 E101.44813
G1 X95.225 Y154.659 E101.5212
G1 X94.889 Y154.405 E101.56322
G1 X94.33 Y153.916 E101.63733
G1 X94.029 Y153.612 E101.68002
G1 X93.547 Y153.05 E101.75389
G1 X93.289 Y152.702 E101.79712
G1 X92.886 Y152.067 E101.87216
G1 X92.686 Y151.695 E101.9143
G1 X92.382 Y151.018 E101.98835
G1 X92.234 Y150.613 E102.03138
G1 X92.03 Y149.899 E102.10547
