;FLAVOR:Marlin
;TIME:8028
;Filament used: 14.2359m
;Layer height: 0.2
;MINX:44.374
;MINY:63.874
;MINZ:0.3
;MAXX:195.626
;MAXY:206.126
;MAXZ:5.9
;Generated with Cura_SteamEngine 4.6.1
M140 S60
M105
M190 S60
M104 S200
M105
M109 S200
M82 ;absolute extrusion mode
G21 ;metric values
G90 ;absolute positioning
M82 ;set extruder to absolute mode
M107 ;start with the fan off
G28 X0 Y0 ;move X/Y to min endstops
G28 Z0 ;move Z to min endstops
G1 Z15.0 F9000 ;move the platform down 15mm
G92 E0 ;zero the extruded length
G1 F200 E6 ;extrude 6 mm of feed stock
G92 E0 ;zero the extruded length again
G1 F9000
;Put printing message on LCD screen
M117 Printing...
G92 E0
G92 E0
G1 F1500 E-6.5
;LAYER_COUNT:29
;LAYER:0
M107
G0 F3600 X48.043 Y65.119 Z0.3
;TYPE:SKIRT
G1 F1500 E0
G1 F1800 X48.716 Y64.725 E0.07781
G1 X49.426 Y64.403 E0.1556
G1 X50.165 Y64.155 E0.23338
G1 X50.925 Y63.984 E0.31111
G1 X51.699 Y63.892 E0.38888
G1 X52.209 Y63.875 E0.4398
G1 X91.792 Y63.874 E4.38941
G1 X92.57 Y63.914 E4.46714
G1 X93.341 Y64.033 E4.54498
G1 X94.095 Y64.231 E4.62277
G1 X94.824 Y64.505 E4.70048
G1 X95.522 Y64.852 E4.77825
G1 X95.997 Y65.153 E4.83436
G1 X96.716 Y64.725 E4.91786
G1 X97.426 Y64.403 E4.99564
G1 X98.165 Y64.155 E5.07342
G1 X98.925 Y63.984 E5.15115
G1 X99.699 Y63.892 E5.22893
G1 X100.209 Y63.875 E5.27984
G1 X139.792 Y63.874 E9.22945
G1 X140.57 Y63.914 E9.30718
G1 X141.341 Y64.033 E9.38502
G1 X142.095 Y64.231 E9.46281
G1 X142.824 Y64.505 E9.54052
G1 X143.522 Y64.852 E9.6183
G1 X143.997 Y65.153 E9.67441
G1 X144.716 Y64.725 E9.7579
G1 X145.426 Y64.403 E9.83569
G1 X146.165 Y64.155 E9.91347
G1 X146.925 Y63.984 E9.99119
G1 X147.699 Y63.892 E10.06897
G1 X148.209 Y63.875 E10.11988
G1 X187.792 Y63.874 E14.06949
G1 X188.57 Y63.914 E14.14722
G1 X189.341 Y64.033 E14.22507
G1 X190.095 Y64.231 E14.30285
G1 X190.824 Y64.505 E14.38056
G1 X191.522 Y64.852 E14.45834
G1 X192.181 Y65.269 E14.53615
G1 X192.793 Y65.751 E14.61388
G1 X193.166 Y66.1 E14.66485
G1 X193.922 Y66.913 E14.77563
G1 X194.382 Y67.542 E14.85338
G1 X194.776 Y68.215 E14.93119
G1 X195.098 Y68.925 E15.00898
G1 X195.346 Y69.664 E15.08676
G1 X195.517 Y70.424 E15.16449
G1 X195.609 Y71.198 E15.24226
G1 X195.626 Y71.708 E15.29318
G1 X195.625 Y106.291 E18.74389
G1 X195.585 Y107.07 E18.82172
G1 X195.465 Y107.84 E18.89948
G1 X195.268 Y108.594 E18.97724
G1 X194.994 Y109.324 E19.05504
G1 X194.646 Y110.022 E19.13286
G1 X194.229 Y110.68 E19.21059
G1 X193.747 Y111.293 E19.2884
G1 X193.399 Y111.665 E19.33923
G1 X193.056 Y111.997 E19.38686
G1 X193.4 Y112.334 E19.43491
G1 X193.922 Y112.913 E19.5127
G1 X194.382 Y113.542 E19.59045
G1 X194.776 Y114.215 E19.66826
G1 X195.098 Y114.925 E19.74605
G1 X195.346 Y115.664 E19.82383
G1 X195.517 Y116.424 E19.90156
G1 X195.609 Y117.198 E19.97933
G1 X195.626 Y117.708 E20.03025
G1 X195.625 Y152.291 E23.48096
G1 X195.585 Y153.07 E23.55879
G1 X195.465 Y153.84 E23.63655
G1 X195.268 Y154.594 E23.71431
G1 X194.994 Y155.324 E23.79211
G1 X194.646 Y156.022 E23.86993
G1 X194.229 Y156.68 E23.94766
G1 X193.747 Y157.293 E24.02547
G1 X193.399 Y157.665 E24.0763
G1 X193.056 Y157.997 E24.12393
G1 X193.4 Y158.334 E24.17198
G1 X193.922 Y158.913 E24.24976
G1 X194.382 Y159.542 E24.32752
G1 X194.776 Y160.215 E24.40533
G1 X195.098 Y160.925 E24.48312
G1 X195.346 Y161.664 E24.5609
G1 X195.517 Y162.424 E24.63863
G1 X195.609 Y163.198 E24.7164
G1 X195.626 Y163.708 E24.76732
G1 X195.625 Y198.291 E28.21803
G1 X195.585 Y199.07 E28.29586
G1 X195.465 Y199.84 E28.37362
G1 X195.268 Y200.594 E28.45138
G1 X194.994 Y201.324 E28.52918
G1 X194.646 Y202.022 E28.607
G1 X194.229 Y202.68 E28.68473
G1 X193.747 Y203.293 E28.76254
G1 X193.399 Y203.665 E28.81337
G1 X192.586 Y204.421 E28.92414
G1 X191.957 Y204.881 E29.0019
G1 X191.284 Y205.275 E29.07971
G1 X190.574 Y205.597 E29.1575
G1 X189.835 Y205.845 E29.23528
G1 X189.075 Y206.016 E29.31301
G1 X188.301 Y206.108 E29.39078
G1 X187.791 Y206.125 E29.4417
G1 X148.208 Y206.126 E33.3913
G1 X147.43 Y206.086 E33.46904
G1 X146.659 Y205.967 E33.54688
G1 X145.905 Y205.769 E33.62466
G1 X145.176 Y205.495 E33.70237
G1 X144.478 Y205.148 E33.78015
G1 X144.003 Y204.847 E33.83626
G1 X143.284 Y205.275 E33.91975
G1 X142.574 Y205.597 E33.99754
G1 X141.835 Y205.845 E34.07532
G1 X141.075 Y206.016 E34.15305
G1 X140.301 Y206.108 E34.23082
G1 X139.791 Y206.125 E34.28174
G1 X100.208 Y206.126 E38.23135
G1 X99.43 Y206.086 E38.30908
G1 X98.659 Y205.967 E38.38692
G1 X97.905 Y205.769 E38.4647
G1 X97.176 Y205.495 E38.54241
G1 X96.478 Y205.148 E38.62019
G1 X96.003 Y204.847 E38.6763
G1 X95.284 Y205.275 E38.75979
G1 X94.574 Y205.597 E38.83758
G1 X93.835 Y205.845 E38.91536
G1 X93.075 Y206.016 E38.99309
G1 X92.301 Y206.108 E39.07086
G1 X91.791 Y206.125 E39.12178
G1 X52.208 Y206.126 E43.07139
G1 X51.43 Y206.086 E43.14912
G1 X50.659 Y205.967 E43.22696
G1 X49.905 Y205.769 E43.30475
G1 X49.176 Y205.495 E43.38245
G1 X48.478 Y205.148 E43.46023
G1 X47.819 Y204.731 E43.53805
G1 X47.207 Y204.249 E43.61578
G1 X46.834 Y203.9 E43.66675
G1 X46.078 Y203.087 E43.77752
G1 X45.618 Y202.458 E43.85528
G1 X45.224 Y201.785 E43.93309
G1 X44.902 Y201.075 E44.01088
G1 X44.654 Y200.336 E44.08866
G1 X44.483 Y199.576 E44.16639
G1 X44.391 Y198.802 E44.24416
G1 X44.374 Y198.292 E44.29508
G1 X44.375 Y163.709 E47.74578
G1 X44.415 Y162.93 E47.82361
G1 X44.535 Y162.16 E47.90137
G1 X44.732 Y161.406 E47.97913
G1 X45.006 Y160.676 E48.05693
G1 X45.354 Y159.978 E48.13476
G1 X45.771 Y159.32 E48.21249
G1 X46.253 Y158.707 E48.2903
G1 X46.601 Y158.335 E48.34112
G1 X46.944 Y158.003 E48.38875
G1 X46.6 Y157.666 E48.43681
G1 X46.078 Y157.087 E48.51459
G1 X45.618 Y156.458 E48.59235
G1 X45.224 Y155.785 E48.67016
G1 X44.902 Y155.075 E48.74795
G1 X44.654 Y154.336 E48.82573
G1 X44.483 Y153.576 E48.90346
G1 X44.391 Y152.802 E48.98123
G1 X44.374 Y152.292 E49.03215
G1 X44.375 Y117.709 E52.48285
G1 X44.415 Y116.93 E52.56068
G1 X44.535 Y116.16 E52.63844
G1 X44.732 Y115.406 E52.7162
G1 X45.006 Y114.676 E52.794
G1 X45.354 Y113.978 E52.87183
G1 X45.771 Y113.32 E52.94956
G1 X46.253 Y112.707 E53.02737
G1 X46.601 Y112.335 E53.07819
G1 X46.944 Y112.003 E53.12582
G1 X46.6 Y111.666 E53.17388
G1 X46.078 Y111.087 E53.25166
G1 X45.618 Y110.458 E53.32942
G1 X45.224 Y109.785 E53.40723
G1 X44.902 Y109.075 E53.48502
G1 X44.654 Y108.336 E53.5628
G1 X44.483 Y107.576 E53.64053
G1 X44.391 Y106.802 E53.7183
G1 X44.374 Y106.292 E53.76922
G1 X44.375 Y71.709 E57.21992
G1 X44.415 Y70.93 E57.29775
G1 X44.535 Y70.16 E57.37551
G1 X44.732 Y69.406 E57.45327
G1 X45.006 Y68.676 E57.53107
G1 X45.354 Y67.978 E57.6089
G1 X45.771 Y67.32 E57.68663
G1 X46.253 Y66.707 E57.76443
G1 X46.601 Y66.335 E57.81526
G1 X47.414 Y65.579 E57.92604
G1 X48.043 Y65.119 E58.00379
G0 F3600 X48.548 Y65.744
G1 F1800 X49.19 Y65.382 E58.07733
G1 X49.868 Y65.091 E58.15095
G1 X50.573 Y64.875 E58.22452
G1 X51.297 Y64.736 E58.29809
G1 X52.209 Y64.675 E58.38929
G1 X91.792 Y64.674 E62.3389
G1 X92.528 Y64.714 E62.41244
G1 X93.256 Y64.833 E62.48605
G1 X93.966 Y65.031 E62.55959
G1 X94.651 Y65.304 E62.63317
G1 X95.302 Y65.65 E62.70673
G1 X95.912 Y66.064 E62.78029
G1 X95.998 Y66.139 E62.79168
G1 X96.548 Y65.744 E62.85925
G1 X97.19 Y65.382 E62.93279
G1 X97.868 Y65.091 E63.00641
G1 X98.573 Y64.875 E63.07998
G1 X99.297 Y64.736 E63.15354
G1 X100.209 Y64.675 E63.24474
G1 X139.792 Y64.674 E67.19435
G1 X140.528 Y64.714 E67.2679
G1 X141.256 Y64.833 E67.3415
G1 X141.966 Y65.031 E67.41505
G1 X142.651 Y65.304 E67.48863
G1 X143.302 Y65.65 E67.56219
G1 X143.912 Y66.064 E67.63575
G1 X143.998 Y66.139 E67.64713
G1 X144.548 Y65.744 E67.7147
G1 X145.19 Y65.382 E67.78824
G1 X145.868 Y65.091 E67.86186
G1 X146.573 Y64.875 E67.93543
G1 X147.297 Y64.736 E68.00899
G1 X148.209 Y64.675 E68.1002
G1 X187.792 Y64.674 E72.0498
G1 X188.528 Y64.714 E72.12335
G1 X189.256 Y64.833 E72.19695
G1 X189.966 Y65.031 E72.2705
G1 X190.651 Y65.304 E72.34408
G1 X191.302 Y65.65 E72.41764
G1 X191.912 Y66.064 E72.4912
G1 X192.6 Y66.666 E72.58242
G1 X193.327 Y67.449 E72.68903
G1 X193.757 Y68.047 E72.76252
G1 X194.119 Y68.689 E72.83607
G1 X194.41 Y69.367 E72.90968
G1 X194.626 Y70.072 E72.98326
G1 X194.765 Y70.796 E73.05682
G1 X194.826 Y71.708 E73.14802
G1 X194.825 Y106.291 E76.59873
G1 X194.785 Y107.027 E76.67227
G1 X194.666 Y107.755 E76.74588
G1 X194.468 Y108.465 E76.81942
G1 X194.195 Y109.15 E76.893
G1 X193.849 Y109.801 E76.96656
G1 X193.435 Y110.411 E77.04012
G1 X192.833 Y111.099 E77.13134
G1 X192.05 Y111.826 E77.23795
G1 X191.813 Y111.997 E77.26712
G1 X191.912 Y112.064 E77.27904
G1 X192.6 Y112.666 E77.37026
G1 X193.327 Y113.449 E77.47687
G1 X193.757 Y114.047 E77.55037
G1 X194.119 Y114.689 E77.62391
G1 X194.41 Y115.367 E77.69753
G1 X194.626 Y116.072 E77.7711
G1 X194.765 Y116.796 E77.84466
G1 X194.826 Y117.708 E77.93586
G1 X194.825 Y152.291 E81.38657
G1 X194.785 Y153.027 E81.46012
G1 X194.666 Y153.755 E81.53372
G1 X194.468 Y154.465 E81.60727
G1 X194.195 Y155.15 E81.68084
G1 X193.849 Y155.801 E81.75441
G1 X193.435 Y156.411 E81.82797
G1 X192.833 Y157.099 E81.91919
G1 X192.05 Y157.826 E82.0258
G1 X191.813 Y157.997 E82.05496
G1 X191.912 Y158.064 E82.06689
G1 X192.6 Y158.666 E82.1581
G1 X193.327 Y159.449 E82.26472
G1 X193.757 Y160.047 E82.33821
G1 X194.119 Y160.689 E82.41175
G1 X194.41 Y161.367 E82.48537
G1 X194.626 Y162.072 E82.55894
G1 X194.765 Y162.796 E82.6325
G1 X194.826 Y163.708 E82.72371
G1 X194.825 Y198.291 E86.17441
G1 X194.785 Y199.027 E86.24796
G1 X194.666 Y199.755 E86.32156
G1 X194.468 Y200.465 E86.39511
G1 X194.195 Y201.15 E86.46869
G1 X193.849 Y201.801 E86.54225
G1 X193.435 Y202.411 E86.61581
G1 X192.833 Y203.099 E86.70703
G1 X192.05 Y203.826 E86.81364
G1 X191.452 Y204.256 E86.88713
G1 X190.81 Y204.618 E86.96067
G1 X190.132 Y204.909 E87.03429
G1 X189.427 Y205.125 E87.10787
G1 X188.703 Y205.264 E87.18143
G1 X187.791 Y205.325 E87.27263
G1 X148.208 Y205.326 E91.22224
G1 X147.472 Y205.286 E91.29578
G1 X146.744 Y205.167 E91.36939
G1 X146.034 Y204.969 E91.44293
G1 X145.349 Y204.696 E91.51651
G1 X144.698 Y204.35 E91.59007
G1 X144.088 Y203.936 E91.66363
G1 X144.002 Y203.861 E91.67502
G1 X143.452 Y204.256 E91.74259
G1 X142.81 Y204.618 E91.81613
G1 X142.132 Y204.909 E91.88975
G1 X141.427 Y205.125 E91.96332
G1 X140.703 Y205.264 E92.03688
G1 X139.791 Y205.325 E92.12808
G1 X100.208 Y205.326 E96.07769
G1 X99.472 Y205.286 E96.15124
G1 X98.744 Y205.167 E96.22484
G1 X98.034 Y204.969 E96.29839
G1 X97.349 Y204.696 E96.37197
G1 X96.698 Y204.35 E96.44553
G1 X96.088 Y203.936 E96.51909
G1 X96.002 Y203.861 E96.53047
G1 X95.452 Y204.256 E96.59804
G1 X94.81 Y204.618 E96.67158
G1 X94.132 Y204.909 E96.7452
G1 X93.427 Y205.125 E96.81877
G1 X92.703 Y205.264 E96.89233
G1 X91.791 Y205.325 E96.98354
G1 X52.208 Y205.326 E100.93314
G1 X51.472 Y205.286 E101.00669
G1 X50.744 Y205.167 E101.08029
G1 X50.034 Y204.969 E101.15384
G1 X49.349 Y204.696 E101.22742
G1 X48.698 Y204.35 E101.30098
G1 X48.088 Y203.936 E101.37454
G1 X47.4 Y203.334 E101.46576
G1 X46.673 Y202.551 E101.57237
G1 X46.243 Y201.953 E101.64587
G1 X45.881 Y201.311 E101.71941
G1 X45.59 Y200.633 E101.79303
G1 X45.374 Y199.928 E101.8666
G1 X45.235 Y199.204 E101.94016
G1 X45.174 Y198.292 E102.03136
G1 X45.175 Y163.709 E105.48207
G1 X45.215 Y162.973 E105.55561
G1 X45.334 Y162.245 E105.62922
G1 X45.532 Y161.535 E105.70277
G1 X45.805 Y160.85 E105.77634
G1 X46.151 Y160.199 E105.8499
G1 X46.565 Y159.589 E105.92347
G1 X47.167 Y158.901 E106.01468
G1 X47.95 Y158.174 E106.1213
G1 X48.187 Y158.003 E106.15046
G1 X48.088 Y157.936 E106.16238
G1 X47.4 Y157.334 E106.2536
G1 X46.673 Y156.551 E106.36021
G1 X46.243 Y155.953 E106.43371
G1 X45.881 Y155.311 E106.50725
G1 X45.59 Y154.633 E106.58087
G1 X45.374 Y153.928 E106.65444
G1 X45.235 Y153.204 E106.728
G1 X45.174 Y152.292 E106.8192
G1 X45.175 Y117.709 E110.26991
G1 X45.215 Y116.973 E110.34346
G1 X45.334 Y116.245 E110.41706
G1 X45.532 Y115.535 E110.49061
G1 X45.805 Y114.85 E110.56419
G1 X46.151 Y114.199 E110.63775
G1 X46.565 Y113.589 E110.71131
G1 X47.167 Y112.901 E110.80253
G1 X47.95 Y112.174 E110.90914
G1 X48.187 Y112.003 E110.9383
G1 X48.088 Y111.936 E110.95023
G1 X47.4 Y111.334 E111.04145
G1 X46.673 Y110.551 E111.14806
G1 X46.243 Y109.953 E111.22155
G1 X45.881 Y109.311 E111.29509
G1 X45.59 Y108.633 E111.36871
G1 X45.374 Y107.928 E111.44228
G1 X45.235 Y107.204 E111.51584
G1 X45.174 Y106.292 E111.60705
G1 X45.175 Y71.709 E115.05775
G1 X45.215 Y70.973 E115.1313
G1 X45.334 Y70.245 E115.2049
G1 X45.532 Y69.535 E115.27845
G1 X45.805 Y68.85 E115.35203
G1 X46.151 Y68.199 E115.42559
G1 X46.565 Y67.589 E115.49915
G1 X47.167 Y66.901 E115.59037
G1 X47.95 Y66.174 E115.69698
G1 X48.548 Y65.744 E115.77047
G0 F3600 X49.05 Y66.374
G1 F1800 X49.659 Y66.044 E115.83959
G1 X50.302 Y65.786 E115.90872
G1 X50.97 Y65.604 E115.9778
G1 X51.655 Y65.501 E116.04692
G1 X52.209 Y65.475 E116.10226
G1 X91.792 Y65.474 E120.05187
G1 X92.483 Y65.514 E120.12093
G1 X93.165 Y65.633 E120.19001
G1 X93.829 Y65.83 E120.25912
G1 X94.466 Y66.103 E120.32827
G1 X95.067 Y66.447 E120.39736
G1 X95.625 Y66.858 E120.46652
G1 X96.001 Y67.2 E120.51723
G1 X96.483 Y66.772 E120.58155
G1 X97.05 Y66.374 E120.65067
G1 X97.659 Y66.044 E120.71979
G1 X98.302 Y65.786 E120.78892
G1 X98.97 Y65.604 E120.858
G1 X99.655 Y65.501 E120.92712
G1 X100.209 Y65.475 E120.98246
G1 X139.792 Y65.474 E124.93206
G1 X140.483 Y65.514 E125.00113
G1 X141.165 Y65.633 E125.07021
G1 X141.829 Y65.83 E125.13931
G1 X142.466 Y66.103 E125.20847
G1 X143.067 Y66.447 E125.27756
G1 X143.625 Y66.858 E125.34671
G1 X144.001 Y67.2 E125.39743
G1 X144.483 Y66.772 E125.46175
G1 X145.05 Y66.374 E125.53087
G1 X145.659 Y66.044 E125.59998
G1 X146.302 Y65.786 E125.66911
G1 X146.97 Y65.604 E125.7382
G1 X147.655 Y65.501 E125.80732
G1 X148.209 Y65.475 E125.86265
G1 X187.792 Y65.474 E129.81226
G1 X188.483 Y65.514 E129.88133
G1 X189.165 Y65.633 E129.9504
G1 X189.829 Y65.83 E130.01951
G1 X190.466 Y66.103 E130.08866
G1 X191.067 Y66.447 E130.15776
G1 X191.625 Y66.858 E130.22691
G1 X192.035 Y67.231 E130.28222
G1 X192.269 Y67.465 E130.31524
G1 X192.729 Y67.982 E130.38429
G1 X193.127 Y68.549 E130.45341
G1 X193.457 Y69.158 E130.52252
G1 X193.715 Y69.801 E130.59165
G1 X193.897 Y70.469 E130.66074
G1 X194 Y71.154 E130.72986
G1 X194.026 Y71.708 E130.78519
G1 X194.025 Y106.291 E134.2359
G1 X193.985 Y106.983 E134.30506
G1 X193.866 Y107.665 E134.37414
G1 X193.668 Y108.329 E134.44328
G1 X193.396 Y108.965 E134.5123
G1 X193.052 Y109.566 E134.5814
G1 X192.641 Y110.124 E134.65055
G1 X192.268 Y110.534 E134.70585
G1 X192.034 Y110.768 E134.73887
G1 X191.517 Y111.228 E134.80792
G1 X190.95 Y111.626 E134.87704
G1 X190.341 Y111.956 E134.94616
G1 X190.228 Y112.001 E134.9583
G1 X190.466 Y112.103 E134.98413
G1 X191.067 Y112.447 E135.05323
G1 X191.625 Y112.858 E135.12238
G1 X192.035 Y113.231 E135.17769
G1 X192.269 Y113.465 E135.21071
G1 X192.729 Y113.982 E135.27976
G1 X193.127 Y114.549 E135.34888
G1 X193.457 Y115.158 E135.41799
G1 X193.715 Y115.801 E135.48712
G1 X193.897 Y116.469 E135.55621
G1 X194 Y117.154 E135.62532
G1 X194.026 Y117.708 E135.68066
G1 X194.025 Y152.291 E139.13137
G1 X193.985 Y152.983 E139.20053
G1 X193.866 Y153.665 E139.26961
G1 X193.668 Y154.329 E139.33875
G1 X193.396 Y154.965 E139.40777
G1 X193.052 Y155.566 E139.47686
G1 X192.641 Y156.124 E139.54601
G1 X192.268 Y156.534 E139.60132
G1 X192.034 Y156.768 E139.63434
G1 X191.517 Y157.228 E139.70339
G1 X190.95 Y157.626 E139.77251
G1 X190.341 Y157.956 E139.84163
G1 X190.228 Y158.001 E139.85376
G1 X190.466 Y158.103 E139.8796
G1 X191.067 Y158.447 E139.9487
G1 X191.625 Y158.858 E140.01785
G1 X192.035 Y159.231 E140.07315
G1 X192.269 Y159.465 E140.10617
G1 X192.729 Y159.982 E140.17522
G1 X193.127 Y160.549 E140.24435
G1 X193.457 Y161.158 E140.31346
G1 X193.715 Y161.801 E140.38259
G1 X193.897 Y162.469 E140.45167
G1 X194 Y163.154 E140.52079
G1 X194.026 Y163.708 E140.57613
G1 X194.025 Y198.291 E144.02684
G1 X193.985 Y198.983 E144.096
G1 X193.866 Y199.665 E144.16508
G1 X193.668 Y200.329 E144.23422
G1 X193.396 Y200.965 E144.30324
G1 X193.052 Y201.566 E144.37233
G1 X192.641 Y202.124 E144.44148
G1 X192.268 Y202.534 E144.49679
G1 X192.034 Y202.768 E144.52981
G1 X191.517 Y203.228 E144.59886
G1 X190.95 Y203.626 E144.66798
G1 X190.341 Y203.956 E144.73709
G1 X189.698 Y204.214 E144.80623
