;FLAVOR:Marlin
;TIME:2323
;Filament used: 4.08879m
;Layer height: 0.2
;MINX:91.384
;MINY:108.884
;MINZ:0.3
;MAXX:148.616
;MAXY:161.116
;MAXZ:19.9
;Generated with Cura_SteamEngine 4.6.1
M140 S60
M105
M190 S60
M104 S200
M105
M109 S200
M82 ;absolute extrusion mode
G21 ;metric values
G90 ;absolute positioning
M82 ;set extruder to absolute mode
M107 ;start with the fan off
G28 X0 Y0 ;move X/Y to min endstops
G28 Z0 ;move Z to min endstops
G1 Z15.0 F9000 ;move the platform down 15mm
G92 E0 ;zero the extruded length
G1 F200 E6 ;extrude 6 mm of feed stock
G92 E0 ;zero the extruded length again
G1 F9000
;Put printing message on LCD screen
M117 Printing...
G92 E0
G92 E0
G1 F1500 E-6.5
;LAYER_COUNT:99
;LAYER:0
M107
G0 F3600 X94.079 Y110.991 Z0.3
;TYPE:SKIRT
G1 F1500 E0
G1 F1800 X94.677 Y110.491 E0.07778
G1 X95.323 Y110.056 E0.15549
G1 X96.011 Y109.688 E0.23334
G1 X96.711 Y109.401 E0.30883
G1 X97.656 Y109.109 E0.40752
G1 X98.422 Y108.965 E0.48529
G1 X99.438 Y108.896 E0.5869
G1 X122.924 Y108.884 E2.93034
G1 X140.48 Y108.885 E4.68209
G1 X141.259 Y108.925 E4.75992
G1 X142.194 Y109.081 E4.8545
G1 X143.159 Y109.345 E4.95433
G1 X143.883 Y109.635 E5.03215
G1 X144.573 Y109.998 E5.10995
G1 X145.222 Y110.43 E5.18774
G1 X145.711 Y110.824 E5.2504
G1 X146.507 Y111.577 E5.35973
G1 X147.007 Y112.175 E5.43751
G1 X147.443 Y112.821 E5.51527
G1 X147.811 Y113.509 E5.59313
G1 X148.099 Y114.211 E5.66884
G1 X148.391 Y115.156 E5.76753
G1 X148.535 Y115.922 E5.8453
G1 X148.604 Y116.938 E5.94691
G1 X148.616 Y137.566 E8.00518
G1 X148.615 Y152.98 E9.5432
G1 X148.575 Y153.759 E9.62103
G1 X148.425 Y154.669 E9.71305
G1 X148.164 Y155.634 E9.8128
G1 X147.876 Y156.358 E9.89055
G1 X147.516 Y157.05 E9.96838
G1 X147.087 Y157.7 E10.04609
G1 X146.675 Y158.211 E10.11159
G1 X145.921 Y159.009 E10.22113
G1 X145.323 Y159.509 E10.29891
G1 X144.677 Y159.944 E10.37662
G1 X143.989 Y160.312 E10.45447
G1 X143.289 Y160.599 E10.52996
G1 X142.344 Y160.891 E10.62865
G1 X141.578 Y161.035 E10.70642
G1 X140.562 Y161.104 E10.80803
G1 X117.076 Y161.116 E13.15148
G1 X99.52 Y161.115 E14.90322
G1 X98.741 Y161.075 E14.98105
G1 X97.806 Y160.919 E15.07564
G1 X96.841 Y160.655 E15.17546
G1 X96.117 Y160.365 E15.25328
G1 X95.427 Y160.002 E15.33108
G1 X94.778 Y159.57 E15.40887
G1 X94.289 Y159.176 E15.47153
G1 X93.493 Y158.423 E15.58086
G1 X92.993 Y157.825 E15.65864
G1 X92.557 Y157.179 E15.73641
G1 X92.189 Y156.491 E15.81426
G1 X91.901 Y155.789 E15.88997
G1 X91.609 Y154.844 E15.98866
G1 X91.465 Y154.078 E16.06643
G1 X91.396 Y153.062 E16.16804
G1 X91.384 Y132.434 E18.22631
G1 X91.385 Y117.02 E19.76433
G1 X91.425 Y116.241 E19.84216
G1 X91.575 Y115.331 E19.93418
G1 X91.836 Y114.366 E20.03393
G1 X92.124 Y113.642 E20.11168
G1 X92.484 Y112.95 E20.18951
G1 X92.913 Y112.3 E20.26722
G1 X93.325 Y111.789 E20.33272
G1 X94.079 Y110.991 E20.44226
G0 F3600 X94.652 Y111.551
G1 F1800 X95.222 Y111.083 E20.51585
G1 X95.839 Y110.68 E20.58939
G1 X96.496 Y110.346 E20.66293
G1 X96.977 Y110.155 E20.71457
G1 X97.883 Y109.877 E20.80913
G1 X98.609 Y109.747 E20.88272
G1 X99.439 Y109.696 E20.96569
G1 X122.925 Y109.684 E23.30914
G1 X140.48 Y109.685 E25.06078
G1 X141.217 Y109.725 E25.13443
G1 X142.014 Y109.86 E25.21509
G1 X142.938 Y110.115 E25.31073
G1 X143.62 Y110.396 E25.38433
G1 X144.267 Y110.748 E25.45782
G1 X144.873 Y111.169 E25.53145
G1 X145.421 Y111.634 E25.60316
G1 X145.948 Y112.15 E25.67676
G1 X146.416 Y112.72 E25.75034
G1 X146.819 Y113.337 E25.82388
G1 X147.153 Y113.994 E25.89742
G1 X147.345 Y114.477 E25.94928
G1 X147.623 Y115.383 E26.04384
G1 X147.753 Y116.109 E26.11743
G1 X147.804 Y116.938 E26.20031
G1 X147.816 Y137.566 E28.25858
G1 X147.815 Y152.98 E29.79659
G1 X147.775 Y153.717 E29.87024
G1 X147.645 Y154.491 E29.94855
G1 X147.393 Y155.415 E30.04412
G1 X147.115 Y156.098 E30.1177
G1 X146.765 Y156.746 E30.19118
G1 X146.346 Y157.353 E30.26478
G1 X145.864 Y157.922 E30.33919
G1 X145.348 Y158.449 E30.41278
G1 X144.778 Y158.917 E30.48637
G1 X144.161 Y159.32 E30.5599
G1 X143.504 Y159.654 E30.63344
G1 X143.023 Y159.845 E30.68508
G1 X142.117 Y160.123 E30.77964
G1 X141.391 Y160.253 E30.85324
G1 X140.561 Y160.304 E30.93621
G1 X117.075 Y160.316 E33.27965
G1 X99.52 Y160.315 E35.0313
G1 X98.783 Y160.275 E35.10494
G1 X97.986 Y160.14 E35.1856
G1 X97.062 Y159.885 E35.28125
G1 X96.38 Y159.604 E35.35485
G1 X95.733 Y159.252 E35.42834
G1 X95.127 Y158.831 E35.50197
G1 X94.579 Y158.366 E35.57368
G1 X94.052 Y157.85 E35.64727
G1 X93.584 Y157.28 E35.72086
G1 X93.181 Y156.663 E35.79439
G1 X92.847 Y156.006 E35.86793
G1 X92.655 Y155.523 E35.9198
G1 X92.377 Y154.617 E36.01436
G1 X92.247 Y153.891 E36.08795
G1 X92.196 Y153.062 E36.17082
G1 X92.184 Y132.434 E38.2291
G1 X92.185 Y117.02 E39.76711
G1 X92.225 Y116.283 E39.84076
G1 X92.355 Y115.509 E39.91907
G1 X92.607 Y114.585 E40.01463
G1 X92.885 Y113.902 E40.08821
G1 X93.235 Y113.254 E40.1617
G1 X93.654 Y112.647 E40.23529
G1 X94.136 Y112.078 E40.3097
G1 X94.652 Y111.551 E40.38329
G0 F3600 X95.223 Y112.113
G1 F1800 X95.763 Y111.679 E40.45242
G1 X96.349 Y111.31 E40.52152
G1 X97.244 Y110.909 E40.61938
G1 X98.107 Y110.646 E40.7094
G1 X98.79 Y110.532 E40.77849
G1 X99.439 Y110.496 E40.84335
G1 X122.925 Y110.484 E43.18679
G1 X140.48 Y110.485 E44.93843
G1 X141.172 Y110.525 E45.0076
G1 X141.833 Y110.64 E45.07454
G1 X142.714 Y110.884 E45.16576
G1 X143.351 Y111.155 E45.23483
G1 X143.954 Y111.496 E45.30395
G1 X144.655 Y112.027 E45.3917
G1 X144.893 Y112.236 E45.42331
G1 X145.386 Y112.722 E45.49238
G1 X145.82 Y113.262 E45.56151
G1 X146.189 Y113.848 E45.63061
G1 X146.591 Y114.744 E45.7286
G1 X146.854 Y115.607 E45.81862
G1 X146.968 Y116.29 E45.88771
G1 X147.004 Y116.939 E45.95257
G1 X147.016 Y137.567 E48.01084
G1 X147.015 Y152.98 E49.54875
G1 X146.975 Y153.672 E49.61792
G1 X146.865 Y154.313 E49.68281
G1 X146.623 Y155.193 E49.77388
G1 X146.355 Y155.832 E49.84302
G1 X146.016 Y156.436 E49.91213
G1 X145.473 Y157.155 E50.00203
G1 X144.777 Y157.887 E50.10281
G1 X144.237 Y158.321 E50.17194
G1 X143.651 Y158.69 E50.24104
G1 X142.756 Y159.091 E50.3389
G1 X141.893 Y159.354 E50.42892
G1 X141.21 Y159.468 E50.49801
G1 X140.561 Y159.504 E50.56287
G1 X117.075 Y159.516 E52.90631
G1 X99.52 Y159.515 E54.65796
G1 X98.828 Y159.475 E54.72712
G1 X98.167 Y159.36 E54.79406
G1 X97.286 Y159.116 E54.88528
G1 X96.649 Y158.845 E54.95435
G1 X96.046 Y158.504 E55.02347
G1 X95.345 Y157.973 E55.11122
G1 X95.107 Y157.764 E55.14283
G1 X94.614 Y157.278 E55.2119
G1 X94.18 Y156.738 E55.28103
G1 X93.811 Y156.152 E55.35013
G1 X93.409 Y155.256 E55.44812
G1 X93.146 Y154.393 E55.53814
G1 X93.032 Y153.71 E55.60723
G1 X92.996 Y153.061 E55.67209
G1 X92.984 Y132.433 E57.73036
G1 X92.985 Y117.02 E59.26827
G1 X93.025 Y116.328 E59.33744
G1 X93.135 Y115.687 E59.40233
G1 X93.377 Y114.807 E59.4934
G1 X93.645 Y114.168 E59.56254
G1 X93.984 Y113.564 E59.63165
G1 X94.527 Y112.845 E59.72155
G1 X95.223 Y112.113 E59.82234
G0 F3600 X95.792 Y112.677
G1 F1800 X96.3 Y112.28 E59.88667
G1 X96.853 Y111.948 E59.95103
G1 X97.511 Y111.663 E60.02258
G1 X98.329 Y111.417 E60.10781
G1 X98.966 Y111.318 E60.17213
G1 X99.439 Y111.296 E60.21938
G1 X122.925 Y111.284 E62.56282
G1 X140.48 Y111.285 E64.31446
G1 X141.124 Y111.325 E64.37885
G1 X141.653 Y111.419 E64.43246
G1 X142.487 Y111.653 E64.51889
G1 X143.077 Y111.912 E64.58318
G1 X143.631 Y112.242 E64.64752
G1 X144.127 Y112.628 E64.71024
G1 X144.365 Y112.837 E64.74184
G1 X144.822 Y113.291 E64.80612
G1 X145.22 Y113.799 E64.87051
G1 X145.551 Y114.352 E64.93482
G1 X145.837 Y115.011 E65.0065
G1 X146.083 Y115.829 E65.09173
G1 X146.182 Y116.466 E65.15605
G1 X146.204 Y116.939 E65.2033
G1 X146.216 Y137.567 E67.26157
G1 X146.215 Y152.98 E68.79949
G1 X146.175 Y153.624 E68.86387
G1 X146.085 Y154.135 E68.91564
G1 X145.854 Y154.969 E69.00199
G1 X145.597 Y155.56 E69.06629
G1 X145.269 Y156.115 E69.13062
G1 X144.872 Y156.627 E69.19527
G1 X144.662 Y156.866 E69.22701
G1 X144.208 Y157.323 E69.29129
G1 X143.7 Y157.72 E69.35562
G1 X143.147 Y158.052 E69.41998
G1 X142.489 Y158.337 E69.49153
G1 X141.671 Y158.583 E69.57676
G1 X141.034 Y158.682 E69.64108
G1 X140.561 Y158.704 E69.68833
G1 X117.075 Y158.716 E72.03177
G1 X99.52 Y158.715 E73.78342
G1 X98.876 Y158.675 E73.8478
G1 X98.347 Y158.581 E73.90141
G1 X97.513 Y158.347 E73.98784
G1 X96.923 Y158.088 E74.05213
G1 X96.369 Y157.758 E74.11648
G1 X95.873 Y157.372 E74.17919
G1 X95.635 Y157.163 E74.21079
G1 X95.178 Y156.709 E74.27507
G1 X94.78 Y156.201 E74.33946
G1 X94.449 Y155.648 E74.40377
G1 X94.163 Y154.989 E74.47545
G1 X93.917 Y154.171 E74.56068
G1 X93.818 Y153.534 E74.625
G1 X93.796 Y153.061 E74.67225
G1 X93.784 Y132.433 E76.73052
G1 X93.785 Y117.02 E78.26844
G1 X93.825 Y116.376 E78.33282
G1 X93.915 Y115.865 E78.38459
G1 X94.146 Y115.031 E78.47094
G1 X94.403 Y114.44 E78.53525
G1 X94.731 Y113.885 E78.59957
G1 X95.128 Y113.373 E78.66422
G1 X95.338 Y113.134 E78.69597
G1 X95.792 Y112.677 E78.76024
G0 F3600 X96.359 Y113.244
G1 F1800 X96.832 Y112.886 E78.81943
G1 X97.349 Y112.595 E78.87863
G1 X97.975 Y112.348 E78.94578
G1 X98.546 Y112.188 E79.00495
G1 X99.134 Y112.107 E79.06417
G1 X122.926 Y112.084 E81.43815
G1 X140.48 Y112.085 E83.18969
G1 X141.072 Y112.125 E83.2489
G1 X141.688 Y112.248 E83.31158
G1 X142.256 Y112.421 E83.37082
G1 X142.795 Y112.668 E83.42998
G1 X143.296 Y112.985 E83.48914
G1 X143.837 Y113.438 E83.55954
G1 X144.255 Y113.858 E83.61867
G1 X144.613 Y114.331 E83.67786
G1 X144.904 Y114.848 E83.73706
G1 X145.152 Y115.475 E83.80434
G1 X145.312 Y116.046 E83.8635
G1 X145.393 Y116.634 E83.92273
G1 X145.416 Y137.567 E86.01143
G1 X145.415 Y152.98 E87.54935
G1 X145.375 Y153.572 E87.60855
G1 X145.256 Y154.173 E87.66969
G1 X145.086 Y154.741 E87.72885
G1 X144.84 Y155.281 E87.78805
G1 X144.525 Y155.783 E87.84719
G1 X144.061 Y156.338 E87.91937
G1 X143.641 Y156.756 E87.9785
G1 X143.168 Y157.114 E88.03769
G1 X142.651 Y157.405 E88.09688
G1 X142.025 Y157.652 E88.16403
G1 X141.454 Y157.812 E88.2232
G1 X140.866 Y157.893 E88.28243
G1 X117.074 Y157.916 E90.6564
G1 X99.52 Y157.915 E92.40795
G1 X98.928 Y157.875 E92.46715
G1 X98.312 Y157.752 E92.52983
G1 X97.744 Y157.579 E92.58908
G1 X97.205 Y157.332 E92.64824
G1 X96.704 Y157.015 E92.70739
G1 X96.163 Y156.562 E92.7778
G1 X95.745 Y156.142 E92.83693
G1 X95.387 Y155.669 E92.89612
G1 X95.096 Y155.152 E92.95531
G1 X94.848 Y154.525 E93.02259
G1 X94.688 Y153.954 E93.08176
G1 X94.607 Y153.366 E93.14098
G1 X94.584 Y132.433 E95.22969
G1 X94.585 Y117.02 E96.7676
G1 X94.625 Y116.428 E96.82681
G1 X94.744 Y115.827 E96.88794
G1 X94.914 Y115.259 E96.9471
G1 X95.16 Y114.719 E97.00631
G1 X95.475 Y114.217 E97.06544
G1 X95.939 Y113.662 E97.13763
G1 X96.359 Y113.244 E97.19675
G0 F3600 X96.923 Y113.814
G1 F1800 X97.357 Y113.5 E97.2502
G1 X98.044 Y113.172 E97.32616
G1 X98.76 Y112.961 E97.40064
G1 X99.44 Y112.896 E97.4688
G1 X122.926 Y112.884 E99.81225
G1 X140.48 Y112.885 E101.56379
G1 X141.015 Y112.925 E101.61732
G1 X141.508 Y113.028 E101.66758
G1 X142.02 Y113.187 E101.72107
G1 X142.503 Y113.421 E101.77462
G1 X143.071 Y113.83 E101.84446
G1 X143.309 Y114.039 E101.87607
G1 X143.685 Y114.422 E101.92962
G1 X143.999 Y114.856 E101.98307
G1 X144.328 Y115.544 E102.05917
G1 X144.539 Y116.26 E102.13365
G1 X144.604 Y116.94 E102.20181
G1 X144.616 Y137.568 E104.26008
G1 X144.615 Y152.98 E105.79789
G1 X144.575 Y153.515 E105.85142
G1 X144.476 Y153.995 E105.90033
G1 X144.318 Y154.508 E105.95389
G1 X144.086 Y154.991 E106.00735
G1 X143.67 Y155.571 E106.07857
G1 X143.46 Y155.81 E106.11032
G1 X143.077 Y156.186 E106.16387
G1 X142.643 Y156.5 E106.21732
G1 X141.956 Y156.828 E106.29328
G1 X141.24 Y157.039 E106.36776
G1 X140.56 Y157.104 E106.43592
G1 X117.074 Y157.116 E108.77937
G1 X99.52 Y157.115 E110.53091
G1 X98.985 Y157.075 E110.58444
G1 X98.492 Y156.972 E110.6347
G1 X97.98 Y156.813 E110.68819
G1 X97.497 Y156.579 E110.74174
G1 X96.929 Y156.17 E110.81158
G1 X96.691 Y155.961 E110.84319
G1 X96.315 Y155.578 E110.89674
G1 X96.001 Y155.144 E110.95019
G1 X95.672 Y154.456 E111.02628
G1 X95.461 Y153.74 E111.10077
G1 X95.396 Y153.06 E111.16893
G1 X95.384 Y132.432 E113.2272
G1 X95.385 Y117.02 E114.76501
G1 X95.425 Y116.485 E114.81854
G1 X95.524 Y116.005 E114.86745
G1 X95.682 Y115.492 E114.92101
G1 X95.914 Y115.009 E114.97447
G1 X96.33 Y114.429 E115.04569
G1 X96.54 Y114.19 E115.07744
G1 X96.923 Y113.814 E115.13099
G0 F3600 X97.482 Y114.39
G1 F1800 X97.873 Y114.125 E115.17812
G1 X98.311 Y113.926 E115.22612
G1 X98.966 Y113.737 E115.29415
G1 X99.441 Y113.696 E115.34172
G1 X122.927 Y113.684 E117.68516
G1 X140.48 Y113.685 E119.43661
G1 X141.111 Y113.757 E119.49998
G1 X141.327 Y113.807 E119.5221
G1 X141.777 Y113.952 E119.56927
G1 X142.197 Y114.171 E119.61654
G1 X142.544 Y114.431 E119.6598
G1 X142.782 Y114.64 E119.69141
G1 X143.109 Y114.981 E119.73855
G1 X143.375 Y115.372 E119.78573
G1 X143.574 Y115.811 E119.83383
G1 X143.763 Y116.466 E119.90185
G1 X143.804 Y116.94 E119.94932
G1 X143.816 Y137.568 E122.00759
G1 X143.815 Y152.98 E123.54541
G1 X143.745 Y153.602 E123.60786
G1 X143.696 Y153.817 E123.62987
G1 X143.552 Y154.268 E123.67711
G1 X143.335 Y154.688 E123.72428
G1 X143.069 Y155.043 E123.76854
G1 X142.859 Y155.282 E123.80028
G1 X142.518 Y155.61 E123.84749
G1 X142.127 Y155.875 E123.89462
G1 X141.689 Y156.074 E123.94263
G1 X141.034 Y156.263 E124.01065
G1 X140.559 Y156.304 E124.05822
G1 X117.073 Y156.316 E126.40167
G1 X99.52 Y156.315 E128.15311
G1 X98.889 Y156.243 E128.21648
G1 X98.673 Y156.193 E128.2386
G1 X98.223 Y156.048 E128.28578
G1 X97.803 Y155.829 E128.33304
G1 X97.456 Y155.569 E128.37631
G1 X97.218 Y155.36 E128.40791
G1 X96.891 Y155.019 E128.45505
G1 X96.625 Y154.628 E128.50224
G1 X96.426 Y154.189 E128.55033
G1 X96.237 Y153.534 E128.61835
G1 X96.196 Y153.06 E128.66583
G1 X96.184 Y132.432 E130.7241
G1 X96.185 Y117.02 E132.26191
G1 X96.255 Y116.398 E132.32437
G1 X96.304 Y116.183 E132.34637
G1 X96.448 Y115.732 E132.39361
G1 X96.665 Y115.312 E132.44078
G1 X96.931 Y114.957 E132.48504
G1 X97.141 Y114.718 E132.51679
G1 X97.482 Y114.39 E132.564
G0 F3600 X98.034 Y114.974
G1 F1800 X98.375 Y114.765 E132.60391
G1 X98.775 Y114.61 E132.64671
G1 X99.163 Y114.515 E132.68657
G1 X99.441 Y114.496 E132.71437
G1 X122.927 Y114.484 E135.05782
G1 X140.48 Y114.485 E136.80926
G1 X140.931 Y114.537 E136.85456
G1 X141.147 Y114.587 E136.87668
G1 X141.525 Y114.715 E136.9165
G1 X142.016 Y115.032 E136.97482
G1 X142.254 Y115.241 E137.00642
G1 X142.526 Y115.533 E137.04624
G1 X142.735 Y115.874 E137.08615
G1 X142.89 Y116.275 E137.12905
G1 X142.985 Y116.663 E137.1689
G1 X143.004 Y116.941 E137.19671
G1 X143.016 Y137.569 E139.25498
G1 X143.015 Y152.98 E140.79269
G1 X142.965 Y153.424 E140.83728
G1 X142.916 Y153.639 E140.85928
G1 X142.789 Y154.018 E140.89916
G1 X142.468 Y154.515 E140.9582
G1 X142.258 Y154.754 E140.98994
G1 X141.966 Y155.026 E141.02976
G1 X141.625 Y155.235 E141.06967
G1 X141.225 Y155.39 E141.11247
G1 X140.837 Y155.485 E141.15233
G1 X140.559 Y155.504 E141.18014
G1 X117.073 Y155.516 E143.52358
G1 X99.52 Y155.515 E145.27502
G1 X99.069 Y155.463 E145.32032
G1 X98.853 Y155.413 E145.34245
G1 X98.475 Y155.285 E145.38227
G1 X97.984 Y154.968 E145.44058
G1 X97.746 Y154.759 E145.47219
G1 X97.474 Y154.467 E145.512
G1 X97.265 Y154.126 E145.55191
G1 X97.11 Y153.725 E145.59481
G1 X97.015 Y153.337 E145.63467
G1 X96.996 Y153.059 E145.66247
G1 X96.984 Y132.431 E147.72074
G1 X96.985 Y117.02 E149.25846
G1 X97.035 Y116.576 E149.30304
G1 X97.084 Y116.361 E149.32504
G1 X97.211 Y115.982 E149.36493
G1 X97.532 Y115.485 E149.42396
G1 X97.742 Y115.246 E149.45571
G1 X98.034 Y114.974 E149.49553
G0 F3600 X98.343 Y115.774
G1 F1800 X98.575 Y115.57 E149.52635
G1 X98.844 Y115.435 E149.55638
G1 X99.042 Y115.365 E149.57734
G1 X99.441 Y115.296 E149.61774
G1 X122.927 Y115.284 E151.96118
G1 X140.48 Y115.285 E153.71263
G1 X140.751 Y115.316 E153.73985
G1 X140.967 Y115.366 E153.76197
G1 X141.256 Y115.474 E153.79275
G1 X141.488 Y115.633 E153.82082
G1 X141.726 Y115.842 E153.85242
G1 X141.93 Y116.075 E153.88332
G1 X142.065 Y116.344 E153.91335
G1 X142.135 Y116.542 E153.93431
G1 X142.204 Y116.941 E153.97471
G1 X142.216 Y137.569 E156.03298
G1 X142.215 Y152.979 E157.5706
G1 X142.185 Y153.247 E157.59751
G1 X142.136 Y153.462 E157.61951
G1 X142.029 Y153.752 E157.65035
G1 X141.867 Y153.987 E157.67883
