;FLAVOR:Marlin
;TIME:6238
;Filament used: 10.0151m
;Layer height: 0.2
;MINX:44.374
;MINY:63.874
;MINZ:0.3
;MAXX:147.626
;MAXY:206.116
;MAXZ:19.9
;Generated with Cura_SteamEngine 4.6.1
M140 S60
M105
M190 S60
M104 S200
M105
M109 S200
M82 ;absolute extrusion mode
G21 ;metric values
G90 ;absolute positioning
M82 ;set extruder to absolute mode
M107 ;start with the fan off
G28 X0 Y0 ;move X/Y to min endstops
G28 Z0 ;move Z to min endstops
G1 Z15.0 F9000 ;move the platform down 15mm
G92 E0 ;zero the extruded length
G1 F200 E6 ;extrude 6 mm of feed stock
G92 E0 ;zero the extruded length again
G1 F9000
;Put printing message on LCD screen
M117 Printing...
G92 E0
G92 E0
G1 F1500 E-6.5
;LAYER_COUNT:99
;LAYER:0
M107
G0 F3600 X93.771 Y67.32 Z0.3
;TYPE:SKIRT
G1 F1500 E0
G1 F1800 X94.253 Y66.707 E0.07781
G1 X94.601 Y66.335 E0.12864
G1 X95.414 Y65.579 E0.23941
G1 X96.043 Y65.119 E0.31717
G1 X96.716 Y64.725 E0.39498
G1 X97.426 Y64.403 E0.47277
G1 X98.165 Y64.155 E0.55055
G1 X98.925 Y63.984 E0.62828
G1 X99.699 Y63.892 E0.70605
G1 X100.209 Y63.875 E0.75697
G1 X139.792 Y63.874 E4.70657
G1 X140.57 Y63.914 E4.78431
G1 X141.341 Y64.033 E4.86215
G1 X142.095 Y64.231 E4.93993
G1 X142.824 Y64.505 E5.01764
G1 X143.522 Y64.852 E5.09542
G1 X144.181 Y65.269 E5.17323
G1 X144.793 Y65.751 E5.25096
G1 X145.166 Y66.1 E5.30193
G1 X145.922 Y66.913 E5.41271
G1 X146.382 Y67.542 E5.49046
G1 X146.776 Y68.215 E5.56828
G1 X147.098 Y68.925 E5.64607
G1 X147.346 Y69.664 E5.72384
G1 X147.517 Y70.424 E5.80157
G1 X147.609 Y71.198 E5.87935
G1 X147.626 Y71.708 E5.93026
G1 X147.625 Y106.291 E9.38097
G1 X147.585 Y107.07 E9.4588
G1 X147.465 Y107.84 E9.53656
G1 X147.268 Y108.594 E9.61432
G1 X146.994 Y109.324 E9.69212
G1 X146.646 Y110.022 E9.76994
G1 X146.229 Y110.68 E9.84767
G1 X145.747 Y111.293 E9.92548
G1 X145.399 Y111.665 E9.97631
G1 X144.993 Y112.054 E10.03241
G1 X145.492 Y112.549 E10.10255
G1 X146.064 Y113.258 E10.19344
G1 X146.562 Y114.027 E10.28486
G1 X146.911 Y114.723 E10.36255
G1 X147.187 Y115.452 E10.44033
G1 X147.378 Y116.141 E10.51167
G1 X147.532 Y116.905 E10.58943
G1 X147.615 Y118.026 E10.70159
G1 X147.615 Y151.973 E14.08884
G1 X147.575 Y152.751 E14.16657
G1 X147.395 Y153.79 E14.27179
G1 X147.122 Y154.731 E14.36955
G1 X146.822 Y155.45 E14.44729
G1 X146.348 Y156.297 E14.54414
G1 X145.759 Y157.133 E14.64618
G1 X145.24 Y157.714 E14.72391
G1 X144.939 Y158 E14.76534
G1 X145.492 Y158.549 E14.84309
G1 X146.064 Y159.258 E14.93399
G1 X146.562 Y160.027 E15.02541
G1 X146.911 Y160.723 E15.1031
G1 X147.187 Y161.452 E15.18087
G1 X147.378 Y162.141 E15.25222
G1 X147.532 Y162.905 E15.32998
G1 X147.615 Y164.026 E15.44214
G1 X147.615 Y197.973 E18.82939
G1 X147.575 Y198.751 E18.90712
G1 X147.395 Y199.79 E19.01233
G1 X147.122 Y200.731 E19.1101
G1 X146.822 Y201.45 E19.18784
G1 X146.348 Y202.297 E19.28468
G1 X145.759 Y203.133 E19.38672
G1 X145.24 Y203.714 E19.46446
G1 X144.665 Y204.24 E19.54222
G1 X144.242 Y204.564 E19.59538
G1 X143.473 Y205.062 E19.6868
G1 X142.777 Y205.411 E19.76449
G1 X142.048 Y205.687 E19.84227
G1 X141.359 Y205.878 E19.91361
G1 X140.595 Y206.032 E19.99137
G1 X139.474 Y206.115 E20.10353
G1 X100.49 Y206.116 E23.99337
G1 X99.712 Y206.076 E24.0711
G1 X98.941 Y205.957 E24.14895
G1 X98.187 Y205.759 E24.22673
G1 X97.626 Y205.556 E24.28626
G1 X96.625 Y205.105 E24.39581
G1 X95.957 Y204.705 E24.4735
G1 X95.333 Y204.237 E24.55133
G1 X94.589 Y203.527 E24.65394
G1 X93.985 Y202.808 E24.74764
G1 X93.553 Y202.159 E24.82543
G1 X93.19 Y201.469 E24.90323
G1 X92.863 Y200.64 E24.99215
G1 X92.557 Y199.575 E25.10271
G1 X92.432 Y198.806 E25.18045
G1 X92.385 Y197.966 E25.2644
G1 X92.384 Y164.025 E28.65104
G1 X92.424 Y163.247 E28.72878
G1 X92.543 Y162.476 E28.80662
G1 X92.64 Y162.068 E28.84846
G1 X92.301 Y162.108 E28.88252
G1 X91.791 Y162.125 E28.93344
G1 X52.208 Y162.126 E32.88305
G1 X51.43 Y162.086 E32.96078
G1 X50.659 Y161.967 E33.03862
G1 X49.905 Y161.769 E33.11641
G1 X49.176 Y161.495 E33.19411
G1 X48.478 Y161.148 E33.27189
G1 X47.819 Y160.731 E33.34971
G1 X47.207 Y160.249 E33.42744
G1 X46.834 Y159.9 E33.47841
G1 X46.078 Y159.087 E33.58918
G1 X45.618 Y158.458 E33.66693
G1 X45.224 Y157.785 E33.74475
G1 X44.902 Y157.075 E33.82254
G1 X44.654 Y156.336 E33.90032
G1 X44.483 Y155.576 E33.97805
G1 X44.391 Y154.802 E34.05582
G1 X44.374 Y154.292 E34.10674
G1 X44.375 Y119.709 E37.55744
G1 X44.415 Y118.93 E37.63527
G1 X44.535 Y118.16 E37.71303
G1 X44.732 Y117.406 E37.79079
G1 X45.006 Y116.676 E37.86859
G1 X45.354 Y115.978 E37.94642
G1 X45.771 Y115.32 E38.02415
G1 X46.253 Y114.707 E38.10195
G1 X46.601 Y114.335 E38.15278
G1 X47.414 Y113.579 E38.26356
G1 X48.043 Y113.119 E38.34131
G1 X48.716 Y112.725 E38.41913
G1 X49.426 Y112.403 E38.49691
G1 X50.165 Y112.155 E38.57469
G1 X50.925 Y111.984 E38.65242
G1 X51.699 Y111.892 E38.7302
G1 X52.209 Y111.875 E38.78111
G1 X91.792 Y111.874 E42.73072
G1 X92.57 Y111.914 E42.80845
G1 X93.341 Y112.033 E42.88629
G1 X94.095 Y112.231 E42.96408
G1 X94.624 Y112.43 E43.02047
G1 X94.999 Y112.055 E43.07339
G1 X94.6 Y111.666 E43.12899
G1 X94.078 Y111.087 E43.20678
G1 X93.618 Y110.458 E43.28453
G1 X93.224 Y109.785 E43.36235
G1 X92.902 Y109.075 E43.44014
G1 X92.654 Y108.336 E43.51791
G1 X92.483 Y107.576 E43.59564
G1 X92.391 Y106.802 E43.67342
G1 X92.374 Y106.292 E43.72433
G1 X92.375 Y71.709 E47.17504
G1 X92.415 Y70.93 E47.25287
G1 X92.535 Y70.16 E47.33063
G1 X92.732 Y69.406 E47.40839
G1 X93.006 Y68.676 E47.48619
G1 X93.354 Y67.978 E47.56401
G1 X93.771 Y67.32 E47.64174
G0 F3600 X94.565 Y67.589
G1 F1800 X95.167 Y66.901 E47.73296
G1 X95.95 Y66.174 E47.83957
G1 X96.548 Y65.744 E47.91307
G1 X97.19 Y65.382 E47.98661
G1 X97.868 Y65.091 E48.06023
G1 X98.573 Y64.875 E48.1338
G1 X99.297 Y64.736 E48.20736
G1 X100.209 Y64.675 E48.29856
G1 X139.792 Y64.674 E52.24817
G1 X140.528 Y64.714 E52.32172
G1 X141.256 Y64.833 E52.39532
G1 X141.966 Y65.031 E52.46887
G1 X142.651 Y65.304 E52.54245
G1 X143.302 Y65.65 E52.61601
G1 X143.912 Y66.064 E52.68957
G1 X144.6 Y66.666 E52.78079
G1 X145.327 Y67.449 E52.8874
G1 X145.757 Y68.047 E52.96089
G1 X146.119 Y68.689 E53.03443
G1 X146.41 Y69.367 E53.10805
G1 X146.626 Y70.072 E53.18162
G1 X146.765 Y70.796 E53.25518
G1 X146.826 Y71.708 E53.34639
G1 X146.825 Y106.291 E56.79709
G1 X146.785 Y107.027 E56.87064
G1 X146.666 Y107.755 E56.94424
G1 X146.468 Y108.465 E57.01779
G1 X146.195 Y109.15 E57.09137
G1 X145.849 Y109.801 E57.16493
G1 X145.435 Y110.411 E57.23849
G1 X144.833 Y111.099 E57.32971
G1 X144.05 Y111.826 E57.43632
G1 X143.716 Y112.066 E57.47736
G1 X143.927 Y112.206 E57.50263
G1 X144.494 Y112.677 E57.57618
G1 X145.007 Y113.207 E57.64978
G1 X145.412 Y113.722 E57.71515
G1 X145.885 Y114.456 E57.80228
G1 X146.21 Y115.118 E57.87586
G1 X146.539 Y116.09 E57.97825
G1 X146.746 Y117.063 E58.07751
G1 X146.815 Y118.026 E58.17385
G1 X146.815 Y151.973 E61.56109
G1 X146.775 Y152.709 E61.63464
G1 X146.618 Y153.598 E61.72472
G1 X146.355 Y154.499 E61.81837
G1 X146.065 Y155.177 E61.89195
G1 X145.676 Y155.862 E61.97055
G1 X145.111 Y156.662 E62.06828
G1 X144.615 Y157.208 E62.14188
G1 X143.778 Y157.912 E62.25101
G1 X143.634 Y158.012 E62.2685
G1 X143.927 Y158.206 E62.30357
G1 X144.494 Y158.677 E62.37712
G1 X145.007 Y159.207 E62.45072
G1 X145.412 Y159.722 E62.51609
G1 X145.885 Y160.456 E62.60322
G1 X146.21 Y161.118 E62.6768
G1 X146.539 Y162.09 E62.7792
G1 X146.746 Y163.063 E62.87845
G1 X146.815 Y164.026 E62.97479
G1 X146.815 Y197.973 E66.36203
G1 X146.775 Y198.709 E66.43558
G1 X146.618 Y199.598 E66.52566
G1 X146.355 Y200.499 E66.61931
G1 X146.065 Y201.177 E66.69289
G1 X145.676 Y201.862 E66.77149
G1 X145.111 Y202.662 E66.86922
G1 X144.615 Y203.208 E66.94282
G1 X143.778 Y203.912 E67.05195
G1 X143.044 Y204.385 E67.13908
G1 X142.382 Y204.71 E67.21267
G1 X141.41 Y205.039 E67.31506
G1 X140.437 Y205.246 E67.41432
G1 X139.474 Y205.315 E67.51065
G1 X100.49 Y205.316 E71.40049
G1 X99.754 Y205.276 E71.47404
G1 X99.026 Y205.157 E71.54764
G1 X98.316 Y204.959 E71.62119
G1 X97.633 Y204.695 E71.69425
G1 X96.966 Y204.38 E71.76786
G1 X96.337 Y203.996 E71.84139
G1 X95.753 Y203.545 E71.91501
G1 X95.179 Y202.987 E71.99489
G1 X94.603 Y202.299 E72.08442
G1 X94.2 Y201.682 E72.15796
G1 X93.866 Y201.024 E72.23159
G1 X93.624 Y200.391 E72.2992
G1 X93.331 Y199.367 E72.40548
G1 X93.218 Y198.638 E72.47909
G1 X93.185 Y197.966 E72.54622
G1 X93.184 Y164.025 E75.93287
G1 X93.224 Y163.289 E76.00642
G1 X93.412 Y162.281 E76.10873
G1 X93.708 Y161.319 E76.20916
G1 X93.854 Y160.994 E76.24471
G1 X93.427 Y161.125 E76.28928
G1 X92.703 Y161.264 E76.36284
G1 X91.791 Y161.325 E76.45404
G1 X52.208 Y161.326 E80.40365
G1 X51.472 Y161.286 E80.47719
G1 X50.744 Y161.167 E80.5508
G1 X50.034 Y160.969 E80.62434
G1 X49.349 Y160.696 E80.69792
G1 X48.698 Y160.35 E80.77148
G1 X48.088 Y159.936 E80.84504
G1 X47.4 Y159.334 E80.93626
G1 X46.673 Y158.551 E81.04287
G1 X46.243 Y157.953 E81.11637
G1 X45.881 Y157.311 E81.18991
G1 X45.59 Y156.633 E81.26353
G1 X45.374 Y155.928 E81.3371
G1 X45.235 Y155.204 E81.41066
G1 X45.174 Y154.292 E81.50186
G1 X45.175 Y119.709 E84.95257
G1 X45.215 Y118.973 E85.02612
G1 X45.334 Y118.245 E85.09972
G1 X45.532 Y117.535 E85.17327
G1 X45.805 Y116.85 E85.24685
G1 X46.151 Y116.199 E85.32041
G1 X46.565 Y115.589 E85.39397
G1 X47.167 Y114.901 E85.48519
G1 X47.95 Y114.174 E85.5918
G1 X48.548 Y113.744 E85.66529
G1 X49.19 Y113.382 E85.73883
G1 X49.868 Y113.091 E85.81245
G1 X50.573 Y112.875 E85.88602
G1 X51.297 Y112.736 E85.95958
G1 X52.209 Y112.675 E86.05079
G1 X91.792 Y112.674 E90.0004
G1 X92.528 Y112.714 E90.07394
G1 X93.256 Y112.833 E90.14755
G1 X93.966 Y113.031 E90.22109
G1 X94.651 Y113.304 E90.29467
G1 X94.838 Y113.404 E90.31583
G1 X95.12 Y113.06 E90.36021
G1 X95.647 Y112.543 E90.43388
G1 X96.226 Y112.087 E90.50742
G1 X96.269 Y112.059 E90.51254
G1 X96.088 Y111.936 E90.53437
G1 X95.4 Y111.334 E90.62559
G1 X94.673 Y110.551 E90.7322
G1 X94.243 Y109.953 E90.8057
G1 X93.881 Y109.311 E90.87924
G1 X93.59 Y108.633 E90.95286
G1 X93.374 Y107.928 E91.02643
G1 X93.235 Y107.204 E91.09999
G1 X93.174 Y106.292 E91.19119
G1 X93.175 Y71.709 E94.6419
G1 X93.215 Y70.973 E94.71544
G1 X93.334 Y70.245 E94.78905
G1 X93.532 Y69.535 E94.8626
G1 X93.805 Y68.85 E94.93617
G1 X94.151 Y68.199 E95.00974
G1 X94.565 Y67.589 E95.0833
G0 F3600 X94.948 Y68.434
G1 F1800 X95.359 Y67.876 E95.15245
G1 X95.732 Y67.466 E95.20775
G1 X95.966 Y67.232 E95.24077
G1 X96.483 Y66.772 E95.30982
G1 X97.05 Y66.374 E95.37894
G1 X97.659 Y66.044 E95.44806
G1 X98.302 Y65.786 E95.51719
G1 X98.97 Y65.604 E95.58627
G1 X99.655 Y65.501 E95.65539
G1 X100.209 Y65.475 E95.71073
G1 X139.792 Y65.474 E99.66034
G1 X140.483 Y65.514 E99.7294
G1 X141.165 Y65.633 E99.79848
G1 X141.829 Y65.83 E99.86759
G1 X142.466 Y66.103 E99.93674
G1 X143.067 Y66.447 E100.00584
G1 X143.625 Y66.858 E100.07499
G1 X144.035 Y67.231 E100.13029
G1 X144.269 Y67.465 E100.16331
G1 X144.729 Y67.982 E100.23236
G1 X145.127 Y68.549 E100.30148
G1 X145.457 Y69.158 E100.3706
G1 X145.715 Y69.801 E100.43973
G1 X145.897 Y70.469 E100.50881
G1 X146 Y71.154 E100.57793
G1 X146.026 Y71.708 E100.63327
G1 X146.025 Y106.291 E104.08398
G1 X145.985 Y106.983 E104.15314
G1 X145.866 Y107.665 E104.22222
G1 X145.668 Y108.329 E104.29135
G1 X145.396 Y108.965 E104.36037
G1 X145.052 Y109.566 E104.42947
G1 X144.641 Y110.124 E104.49862
G1 X144.268 Y110.534 E104.55393
G1 X144.034 Y110.768 E104.58695
G1 X143.517 Y111.228 E104.656
G1 X142.95 Y111.626 E104.72512
G1 X142.341 Y111.956 E104.79423
G1 X142.058 Y112.069 E104.82464
G1 X142.943 Y112.511 E104.92335
G1 X143.517 Y112.899 E104.99248
G1 X144.042 Y113.351 E105.0616
G1 X144.511 Y113.86 E105.13066
G1 X144.839 Y114.297 E105.18518
G1 X145.208 Y114.883 E105.25428
G1 X145.506 Y115.508 E105.32337
G1 X145.764 Y116.288 E105.40535
G1 X145.96 Y117.218 E105.50018
G1 X146.015 Y118.026 E105.58099
G1 X146.015 Y151.973 E108.96823
G1 X145.975 Y152.664 E109.0373
G1 X145.841 Y153.407 E109.11263
G1 X145.589 Y154.264 E109.20176
G1 X145.31 Y154.898 E109.27088
G1 X145.004 Y155.428 E109.33194
G1 X144.463 Y156.19 E109.42519
G1 X143.992 Y156.698 E109.49431
G1 X143.314 Y157.26 E109.58218
G1 X142.617 Y157.708 E109.66486
G1 X141.992 Y158.006 E109.73395
G1 X141.949 Y158.02 E109.73846
G1 X142.329 Y158.191 E109.78004
G1 X142.943 Y158.511 E109.84912
G1 X143.517 Y158.899 E109.91826
G1 X144.042 Y159.351 E109.98738
G1 X144.511 Y159.86 E110.05644
G1 X144.839 Y160.297 E110.11096
G1 X145.208 Y160.883 E110.18006
G1 X145.506 Y161.508 E110.24915
G1 X145.764 Y162.288 E110.33112
G1 X145.96 Y163.218 E110.42596
G1 X146.015 Y164.026 E110.50677
G1 X146.015 Y197.973 E113.89401
G1 X145.975 Y198.664 E113.96308
G1 X145.841 Y199.407 E114.03841
G1 X145.589 Y200.264 E114.12754
G1 X145.31 Y200.898 E114.19666
G1 X145.004 Y201.428 E114.25772
G1 X144.463 Y202.19 E114.35097
G1 X143.992 Y202.698 E114.42009
G1 X143.314 Y203.26 E114.50796
G1 X142.617 Y203.708 E114.59064
G1 X141.992 Y204.006 E114.65972
G1 X141.212 Y204.264 E114.7417
G1 X140.282 Y204.46 E114.83653
G1 X139.474 Y204.515 E114.91734
G1 X100.49 Y204.516 E118.80718
G1 X99.799 Y204.476 E118.87625
G1 X99.117 Y204.357 E118.94533
G1 X98.229 Y204.074 E119.03832
G1 X97.934 Y203.954 E119.0701
G1 X97.309 Y203.656 E119.13919
G1 X96.722 Y203.289 E119.20826
G1 X96.181 Y202.856 E119.27741
G1 X95.769 Y202.447 E119.33533
G1 X95.224 Y201.792 E119.42035
G1 X94.851 Y201.208 E119.4895
G1 X94.548 Y200.585 E119.55862
G1 X94.282 Y199.83 E119.63849
G1 X94.105 Y199.161 E119.70754
G1 X94.007 Y198.475 E119.77669
G1 X93.985 Y197.966 E119.82752
G1 X93.984 Y164.025 E123.21417
G1 X94.024 Y163.334 E123.28324
G1 X94.185 Y162.486 E123.36936
G1 X94.47 Y161.568 E123.46527
G1 X94.76 Y160.939 E123.53438
G1 X95.213 Y160.219 E123.61926
G1 X95.739 Y159.569 E123.70269
G1 X96.239 Y159.089 E123.77185
G1 X97.051 Y158.504 E123.87171
G1 X97.854 Y158.069 E123.96284
G1 X98.04 Y157.997 E123.98274
G1 X97.309 Y157.656 E124.06322
G1 X97.082 Y157.514 E124.08994
G1 X96.641 Y158.124 E124.16505
G1 X96.268 Y158.534 E124.22035
G1 X96.034 Y158.768 E124.25337
G1 X95.517 Y159.228 E124.32242
G1 X94.95 Y159.626 E124.39154
G1 X94.341 Y159.956 E124.46066
G1 X93.698 Y160.214 E124.52979
G1 X93.03 Y160.396 E124.59887
G1 X92.345 Y160.499 E124.66799
G1 X91.791 Y160.525 E124.72333
G1 X52.208 Y160.526 E128.67294
G1 X51.517 Y160.486 E128.742
G1 X50.835 Y160.367 E128.81108
G1 X50.171 Y160.17 E128.88019
G1 X49.534 Y159.897 E128.94934
G1 X48.933 Y159.553 E129.01844
G1 X48.375 Y159.142 E129.08759
G1 X47.965 Y158.769 E129.14289
G1 X47.731 Y158.535 E129.17591
G1 X47.271 Y158.018 E129.24496
G1 X46.873 Y157.451 E129.31408
G1 X46.543 Y156.842 E129.3832
G1 X46.285 Y156.199 E129.45233
G1 X46.103 Y155.531 E129.52141
G1 X46 Y154.846 E129.59053
G1 X45.974 Y154.292 E129.64587
G1 X45.975 Y119.709 E133.09658
G1 X46.015 Y119.017 E133.16574
G1 X46.134 Y118.335 E133.23482
G1 X46.332 Y117.671 E133.30395
G1 X46.604 Y117.035 E133.37297
G1 X46.948 Y116.434 E133.44207
G1 X47.359 Y115.876 E133.51122
G1 X47.732 Y115.466 E133.56653
G1 X47.966 Y115.232 E133.59955
G1 X48.483 Y114.772 E133.6686
G1 X49.05 Y114.374 E133.73772
G1 X49.659 Y114.044 E133.80683
G1 X50.302 Y113.786 E133.87597
G1 X50.97 Y113.604 E133.94505
G1 X51.655 Y113.501 E134.01417
G1 X52.209 Y113.475 E134.06951
G1 X91.792 Y113.474 E138.01911
G1 X92.483 Y113.514 E138.08818
G1 X93.165 Y113.633 E138.15726
G1 X93.829 Y113.83 E138.22636
G1 X94.466 Y114.103 E138.29552
G1 X95.067 Y114.447 E138.36461
G1 X95.298 Y114.103 E138.40596
G1 X95.739 Y113.569 E138.47506
G1 X96.239 Y113.089 E138.54422
G1 X97.051 Y112.504 E138.64408
G1 X97.854 Y112.069 E138.7352
G1 X97.897 Y112.053 E138.73978
G1 X97.534 Y111.897 E138.7792
G1 X96.933 Y111.553 E138.8483
G1 X96.375 Y111.142 E138.91745
G1 X95.965 Y110.769 E138.97276
G1 X95.731 Y110.535 E139.00578
G1 X95.271 Y110.018 E139.07483
G1 X94.873 Y109.451 E139.14395
G1 X94.543 Y108.842 E139.21306
G1 X94.285 Y108.199 E139.28219
G1 X94.103 Y107.531 E139.35128
G1 X94 Y106.846 E139.4204
G1 X93.974 Y106.292 E139.47573
G1 X93.975 Y71.709 E142.92644
G1 X94.015 Y71.017 E142.9956
G1 X94.134 Y70.335 E143.06468
G1 X94.332 Y69.671 E143.13382
G1 X94.604 Y69.035 E143.20284
G1 X94.948 Y68.434 E143.27194
G0 F3600 X95.744 Y68.686
G1 F1800 X96.298 Y68.032 E143.35746
G1 X96.532 Y67.798 E143.39048
