;FLAVOR:Marlin
;TIME:6700
;Filament used: 10.2291m
;Layer height: 0.2
;MINX:92.384
;MINY:63.885
;MINZ:0.3
;MAXX:147.615
;MAXY:206.116
;MAXZ:19.9
;Generated with Cura_SteamEngine 4.6.1
M140 S60
M105
M190 S60
M104 S200
M105
M109 S200
M82 ;absolute extrusion mode
G21 ;metric values
G90 ;absolute positioning
M82 ;set extruder to absolute mode
M107 ;start with the fan off
G28 X0 Y0 ;move X/Y to min endstops
G28 Z0 ;move Z to min endstops
G1 Z15.0 F9000 ;move the platform down 15mm
G92 E0 ;zero the extruded length
G1 F200 E6 ;extrude 6 mm of feed stock
G92 E0 ;zero the extruded length again
G1 F9000
;Put printing message on LCD screen
M117 Printing...
G92 E0
G92 E0
G1 F1500 E-6.5
;LAYER_COUNT:99
;LAYER:0
M107
G0 F3600 X94.008 Y67.157 Z0.3
;TYPE:SKIRT
G1 F1500 E0
G1 F1800 X94.5 Y66.553 E0.07773
G1 X95.052 Y66.002 E0.15555
G1 X95.657 Y65.511 E0.2333
G1 X96.228 Y65.132 E0.30168
G1 X97.106 Y64.652 E0.40153
G1 X97.828 Y64.358 E0.47931
G1 X98.467 Y64.166 E0.54589
G1 X99.43 Y63.964 E0.64407
G1 X100.526 Y63.885 E0.75371
G1 X139.471 Y63.885 E4.63966
G1 X140.249 Y63.925 E4.71739
G1 X141.02 Y64.044 E4.79523
G1 X141.774 Y64.242 E4.87302
G1 X142.583 Y64.551 E4.95943
G1 X142.984 Y64.731 E5.00329
G1 X143.678 Y65.087 E5.08111
G1 X144.332 Y65.511 E5.15888
G1 X144.939 Y66 E5.23666
G1 X145.492 Y66.549 E5.31441
G1 X146.064 Y67.258 E5.40531
G1 X146.562 Y68.027 E5.49672
G1 X146.911 Y68.723 E5.57441
G1 X147.187 Y69.452 E5.65219
G1 X147.378 Y70.141 E5.72353
G1 X147.532 Y70.905 E5.8013
G1 X147.615 Y72.026 E5.91346
G1 X147.615 Y105.973 E9.3007
G1 X147.575 Y106.751 E9.37844
G1 X147.395 Y107.79 E9.48365
G1 X147.122 Y108.731 E9.58142
G1 X146.822 Y109.45 E9.65915
G1 X146.348 Y110.297 E9.756
G1 X145.759 Y111.133 E9.85804
G1 X145.24 Y111.714 E9.93578
G1 X144.939 Y112 E9.97721
G1 X145.492 Y112.549 E10.05496
G1 X146.064 Y113.258 E10.14585
G1 X146.562 Y114.027 E10.23727
G1 X146.911 Y114.723 E10.31496
G1 X147.187 Y115.452 E10.39274
G1 X147.378 Y116.141 E10.46408
G1 X147.532 Y116.905 E10.54184
G1 X147.615 Y118.026 E10.654
G1 X147.615 Y151.973 E14.04125
G1 X147.575 Y152.751 E14.11898
G1 X147.395 Y153.79 E14.2242
G1 X147.122 Y154.731 E14.32196
G1 X146.822 Y155.45 E14.3997
G1 X146.348 Y156.297 E14.49655
G1 X145.759 Y157.133 E14.59859
G1 X145.24 Y157.714 E14.67632
G1 X144.939 Y158 E14.71775
G1 X145.492 Y158.549 E14.7955
G1 X146.064 Y159.258 E14.8864
G1 X146.562 Y160.027 E14.97782
G1 X146.911 Y160.723 E15.05551
G1 X147.187 Y161.452 E15.13328
G1 X147.378 Y162.141 E15.20463
G1 X147.532 Y162.905 E15.28239
G1 X147.615 Y164.026 E15.39455
G1 X147.615 Y197.973 E18.7818
G1 X147.575 Y198.751 E18.85953
G1 X147.395 Y199.79 E18.96474
G1 X147.122 Y200.731 E19.06251
G1 X146.822 Y201.45 E19.14025
G1 X146.348 Y202.297 E19.23709
G1 X145.759 Y203.133 E19.33913
G1 X145.24 Y203.714 E19.41687
G1 X144.665 Y204.24 E19.49463
G1 X144.242 Y204.564 E19.54779
G1 X143.473 Y205.062 E19.63921
G1 X142.777 Y205.411 E19.7169
G1 X142.048 Y205.687 E19.79468
G1 X141.359 Y205.878 E19.86602
G1 X140.595 Y206.032 E19.94378
G1 X139.474 Y206.115 E20.05594
G1 X100.49 Y206.116 E23.94578
G1 X99.712 Y206.076 E24.02351
G1 X98.941 Y205.957 E24.10136
G1 X98.187 Y205.759 E24.17914
G1 X97.626 Y205.556 E24.23867
G1 X96.625 Y205.105 E24.34822
G1 X95.957 Y204.705 E24.42591
G1 X95.333 Y204.237 E24.50374
G1 X94.589 Y203.527 E24.60635
G1 X93.985 Y202.808 E24.70005
G1 X93.553 Y202.159 E24.77784
G1 X93.19 Y201.469 E24.85564
G1 X92.863 Y200.64 E24.94456
G1 X92.557 Y199.575 E25.05512
G1 X92.432 Y198.806 E25.13286
G1 X92.385 Y197.966 E25.21681
G1 X92.384 Y164.025 E28.60345
G1 X92.424 Y163.247 E28.68119
G1 X92.543 Y162.476 E28.75903
G1 X92.707 Y161.816 E28.82689
G1 X92.946 Y161.073 E28.90476
G1 X93.259 Y160.36 E28.98246
G1 X93.643 Y159.682 E29.06021
G1 X94.008 Y159.157 E29.12401
G1 X94.5 Y158.553 E29.20174
G1 X95.052 Y158.002 E29.27956
G1 X95.071 Y157.987 E29.28198
G1 X94.589 Y157.527 E29.34846
G1 X93.985 Y156.808 E29.44216
G1 X93.553 Y156.159 E29.51995
G1 X93.19 Y155.469 E29.59774
G1 X92.863 Y154.64 E29.68666
G1 X92.557 Y153.575 E29.79723
G1 X92.432 Y152.806 E29.87497
G1 X92.385 Y151.966 E29.95891
G1 X92.384 Y118.025 E33.34556
G1 X92.424 Y117.247 E33.42329
G1 X92.543 Y116.476 E33.50113
G1 X92.707 Y115.816 E33.56899
G1 X92.946 Y115.073 E33.64687
G1 X93.259 Y114.36 E33.72457
G1 X93.643 Y113.682 E33.80231
G1 X94.008 Y113.157 E33.86612
G1 X94.5 Y112.553 E33.94385
G1 X95.052 Y112.002 E34.02167
G1 X95.071 Y111.987 E34.02409
G1 X94.589 Y111.527 E34.09057
G1 X93.985 Y110.808 E34.18426
G1 X93.553 Y110.159 E34.26206
G1 X93.19 Y109.469 E34.33985
G1 X92.863 Y108.64 E34.42877
G1 X92.557 Y107.575 E34.53934
G1 X92.432 Y106.806 E34.61707
G1 X92.385 Y105.966 E34.70102
G1 X92.384 Y72.025 E38.08767
G1 X92.424 Y71.247 E38.1654
G1 X92.543 Y70.476 E38.24324
G1 X92.707 Y69.816 E38.3111
G1 X92.946 Y69.073 E38.38898
G1 X93.259 Y68.36 E38.46667
G1 X93.643 Y67.682 E38.54442
G1 X94.008 Y67.157 E38.60822
G0 F3600 X94.568 Y67.746
G1 F1800 X95.12 Y67.06 E38.69608
G1 X95.647 Y66.543 E38.76974
G1 X96.226 Y66.087 E38.84328
G1 X96.829 Y65.704 E38.91456
G1 X97.481 Y65.36 E38.98812
G1 X98.167 Y65.088 E39.06175
G1 X98.663 Y64.942 E39.11334
G1 X99.585 Y64.75 E39.20731
G1 X100.526 Y64.685 E39.30143
G1 X139.471 Y64.685 E43.18738
G1 X140.207 Y64.725 E43.26092
G1 X140.935 Y64.844 E43.33453
G1 X141.645 Y65.042 E43.40808
G1 X142.256 Y65.281 E43.47354
G1 X142.657 Y65.461 E43.5174
G1 X143.312 Y65.799 E43.59094
G1 X143.927 Y66.206 E43.66453
G1 X144.494 Y66.677 E43.73808
G1 X145.007 Y67.207 E43.81168
G1 X145.412 Y67.722 E43.87705
G1 X145.885 Y68.456 E43.96418
G1 X146.21 Y69.118 E44.03776
G1 X146.539 Y70.09 E44.14016
G1 X146.746 Y71.063 E44.23941
G1 X146.815 Y72.026 E44.33575
G1 X146.815 Y105.973 E47.723
G1 X146.775 Y106.709 E47.79654
G1 X146.618 Y107.598 E47.88662
G1 X146.355 Y108.499 E47.98027
G1 X146.065 Y109.177 E48.05385
G1 X145.676 Y109.862 E48.13245
G1 X145.111 Y110.662 E48.23018
G1 X144.615 Y111.208 E48.30378
G1 X143.778 Y111.912 E48.41291
G1 X143.634 Y112.012 E48.43041
G1 X143.927 Y112.206 E48.46547
G1 X144.494 Y112.677 E48.53902
G1 X145.007 Y113.207 E48.61262
G1 X145.412 Y113.722 E48.67799
G1 X145.885 Y114.456 E48.76512
G1 X146.21 Y115.118 E48.83871
G1 X146.539 Y116.09 E48.9411
G1 X146.746 Y117.063 E49.04036
G1 X146.815 Y118.026 E49.13669
G1 X146.815 Y151.973 E52.52394
G1 X146.775 Y152.709 E52.59748
G1 X146.618 Y153.598 E52.68756
G1 X146.355 Y154.499 E52.78121
G1 X146.065 Y155.177 E52.85479
G1 X145.676 Y155.862 E52.9334
G1 X145.111 Y156.662 E53.03112
G1 X144.615 Y157.208 E53.10472
G1 X143.778 Y157.912 E53.21385
G1 X143.634 Y158.012 E53.23135
G1 X143.927 Y158.206 E53.26641
G1 X144.494 Y158.677 E53.33996
G1 X145.007 Y159.207 E53.41356
G1 X145.412 Y159.722 E53.47893
G1 X145.885 Y160.456 E53.56606
G1 X146.21 Y161.118 E53.63965
G1 X146.539 Y162.09 E53.74204
G1 X146.746 Y163.063 E53.8413
G1 X146.815 Y164.026 E53.93763
G1 X146.815 Y197.973 E57.32488
G1 X146.775 Y198.709 E57.39842
G1 X146.618 Y199.598 E57.4885
G1 X146.355 Y200.499 E57.58216
G1 X146.065 Y201.177 E57.65574
G1 X145.676 Y201.862 E57.73434
G1 X145.111 Y202.662 E57.83206
G1 X144.615 Y203.208 E57.90567
G1 X143.778 Y203.912 E58.0148
G1 X143.044 Y204.385 E58.10192
G1 X142.382 Y204.71 E58.17551
G1 X141.41 Y205.039 E58.2779
G1 X140.437 Y205.246 E58.37716
G1 X139.474 Y205.315 E58.4735
G1 X100.49 Y205.316 E62.36333
G1 X99.754 Y205.276 E62.43688
G1 X99.026 Y205.157 E62.51049
G1 X98.316 Y204.959 E62.58403
G1 X97.633 Y204.695 E62.6571
G1 X96.966 Y204.38 E62.7307
G1 X96.337 Y203.996 E62.80423
G1 X95.753 Y203.545 E62.87786
G1 X95.179 Y202.987 E62.95773
G1 X94.603 Y202.299 E63.04727
G1 X94.2 Y201.682 E63.1208
G1 X93.866 Y201.024 E63.19443
G1 X93.624 Y200.391 E63.26205
G1 X93.331 Y199.367 E63.36832
G1 X93.218 Y198.638 E63.44193
G1 X93.185 Y197.966 E63.50906
G1 X93.184 Y164.025 E66.89571
G1 X93.224 Y163.289 E66.96926
G1 X93.412 Y162.281 E67.07157
G1 X93.708 Y161.319 E67.172
G1 X94.01 Y160.647 E67.24551
G1 X94.568 Y159.746 E67.35126
G1 X95.12 Y159.06 E67.43912
G1 X95.647 Y158.543 E67.51278
G1 X96.226 Y158.087 E67.58632
G1 X96.352 Y158.005 E67.60132
G1 X95.753 Y157.545 E67.67668
G1 X95.179 Y156.987 E67.75656
G1 X94.603 Y156.299 E67.84609
G1 X94.2 Y155.682 E67.91962
G1 X93.866 Y155.024 E67.99325
G1 X93.624 Y154.391 E68.06087
G1 X93.331 Y153.367 E68.16715
G1 X93.218 Y152.638 E68.24075
G1 X93.185 Y151.966 E68.30789
G1 X93.184 Y118.025 E71.69453
G1 X93.224 Y117.289 E71.76808
G1 X93.412 Y116.281 E71.87039
G1 X93.708 Y115.319 E71.97082
G1 X94.01 Y114.647 E72.04434
G1 X94.568 Y113.746 E72.15008
G1 X95.12 Y113.06 E72.23794
G1 X95.647 Y112.543 E72.3116
G1 X96.226 Y112.087 E72.38514
G1 X96.352 Y112.005 E72.40014
G1 X95.753 Y111.545 E72.4755
G1 X95.179 Y110.987 E72.55538
G1 X94.603 Y110.299 E72.64491
G1 X94.2 Y109.682 E72.71844
G1 X93.866 Y109.024 E72.79207
G1 X93.624 Y108.391 E72.85969
G1 X93.331 Y107.367 E72.96597
G1 X93.218 Y106.638 E73.03958
G1 X93.185 Y105.966 E73.10671
G1 X93.184 Y72.025 E76.49336
G1 X93.224 Y71.289 E76.5669
G1 X93.412 Y70.281 E76.66922
G1 X93.708 Y69.319 E76.76965
G1 X94.01 Y68.647 E76.84316
G1 X94.568 Y67.746 E76.9489
G0 F3600 X95.213 Y68.219
G1 F1800 X95.739 Y67.569 E77.03234
G1 X96.239 Y67.089 E77.1015
G1 X97.051 Y66.504 E77.20136
G1 X97.854 Y66.069 E77.29248
G1 X98.501 Y65.82 E77.36165
G1 X99.057 Y65.668 E77.41917
G1 X99.737 Y65.537 E77.48827
G1 X100.526 Y65.485 E77.56716
G1 X139.471 Y65.485 E81.45311
G1 X140.162 Y65.525 E81.52218
G1 X140.845 Y65.644 E81.59135
G1 X141.508 Y65.842 E81.66039
G1 X142.329 Y66.191 E81.74941
G1 X142.943 Y66.511 E81.81849
G1 X143.517 Y66.899 E81.88763
G1 X144.042 Y67.351 E81.95675
G1 X144.511 Y67.86 E82.02581
G1 X144.839 Y68.297 E82.08033
G1 X145.208 Y68.883 E82.14943
G1 X145.506 Y69.508 E82.21852
G1 X145.764 Y70.288 E82.30049
G1 X145.96 Y71.218 E82.39533
G1 X146.015 Y72.026 E82.47614
G1 X146.015 Y105.973 E85.86338
G1 X145.975 Y106.664 E85.93245
G1 X145.841 Y107.407 E86.00778
G1 X145.589 Y108.264 E86.09691
G1 X145.31 Y108.898 E86.16603
G1 X145.004 Y109.428 E86.22709
G1 X144.463 Y110.19 E86.32034
G1 X143.992 Y110.698 E86.38946
G1 X143.314 Y111.26 E86.47733
G1 X142.617 Y111.708 E86.56001
G1 X141.992 Y112.006 E86.62909
G1 X141.949 Y112.02 E86.63361
G1 X142.329 Y112.191 E86.67519
G1 X142.943 Y112.511 E86.74427
G1 X143.517 Y112.899 E86.8134
G1 X144.042 Y113.351 E86.88253
G1 X144.511 Y113.86 E86.95159
G1 X144.839 Y114.297 E87.00611
G1 X145.208 Y114.883 E87.07521
G1 X145.506 Y115.508 E87.1443
G1 X145.764 Y116.288 E87.22627
G1 X145.96 Y117.218 E87.32111
G1 X146.015 Y118.026 E87.40191
G1 X146.015 Y151.973 E90.78916
G1 X145.975 Y152.664 E90.85822
G1 X145.841 Y153.407 E90.93356
G1 X145.589 Y154.264 E91.02269
G1 X145.31 Y154.898 E91.0918
G1 X145.004 Y155.428 E91.15287
G1 X144.463 Y156.19 E91.24612
G1 X143.992 Y156.698 E91.31524
G1 X143.314 Y157.26 E91.40311
G1 X142.617 Y157.708 E91.48578
G1 X141.992 Y158.006 E91.55487
G1 X141.949 Y158.02 E91.55938
G1 X142.329 Y158.191 E91.60096
G1 X142.943 Y158.511 E91.67005
G1 X143.517 Y158.899 E91.73918
G1 X144.042 Y159.351 E91.80831
G1 X144.511 Y159.86 E91.87737
G1 X144.839 Y160.297 E91.93189
G1 X145.208 Y160.883 E92.00098
G1 X145.506 Y161.508 E92.07007
G1 X145.764 Y162.288 E92.15205
G1 X145.96 Y163.218 E92.24688
G1 X146.015 Y164.026 E92.32769
G1 X146.015 Y197.973 E95.71494
G1 X145.975 Y198.664 E95.784
G1 X145.841 Y199.407 E95.85933
G1 X145.589 Y200.264 E95.94847
G1 X145.31 Y200.898 E96.01758
G1 X145.004 Y201.428 E96.07865
G1 X144.463 Y202.19 E96.17189
G1 X143.992 Y202.698 E96.24102
G1 X143.314 Y203.26 E96.32889
G1 X142.617 Y203.708 E96.41156
G1 X141.992 Y204.006 E96.48065
G1 X141.212 Y204.264 E96.56263
G1 X140.282 Y204.46 E96.65746
G1 X139.474 Y204.515 E96.73827
G1 X100.49 Y204.516 E100.62811
G1 X99.799 Y204.476 E100.69717
G1 X99.117 Y204.357 E100.76625
G1 X98.229 Y204.074 E100.85925
G1 X97.934 Y203.954 E100.89102
G1 X97.309 Y203.656 E100.96011
G1 X96.722 Y203.289 E101.02919
G1 X96.181 Y202.856 E101.09833
G1 X95.769 Y202.447 E101.15626
G1 X95.224 Y201.792 E101.24128
G1 X94.851 Y201.208 E101.31042
G1 X94.548 Y200.585 E101.37955
G1 X94.282 Y199.83 E101.45942
G1 X94.105 Y199.161 E101.52847
G1 X94.007 Y198.475 E101.59761
G1 X93.985 Y197.966 E101.64845
G1 X93.984 Y164.025 E105.0351
G1 X94.024 Y163.334 E105.10416
G1 X94.185 Y162.486 E105.19029
G1 X94.47 Y161.568 E105.2862
G1 X94.76 Y160.939 E105.35531
G1 X95.213 Y160.219 E105.44019
G1 X95.739 Y159.569 E105.52362
G1 X96.239 Y159.089 E105.59278
G1 X97.051 Y158.504 E105.69264
G1 X97.854 Y158.069 E105.78376
G1 X98.04 Y157.997 E105.80366
G1 X97.309 Y157.656 E105.88415
G1 X96.722 Y157.289 E105.95322
G1 X96.181 Y156.856 E106.02237
G1 X95.769 Y156.447 E106.08029
G1 X95.224 Y155.792 E106.16531
G1 X94.851 Y155.208 E106.23446
G1 X94.548 Y154.585 E106.30358
G1 X94.282 Y153.83 E106.38346
G1 X94.105 Y153.161 E106.45251
G1 X94.007 Y152.475 E106.52165
G1 X93.985 Y151.966 E106.57249
G1 X93.984 Y118.025 E109.95913
G1 X94.024 Y117.334 E110.0282
G1 X94.185 Y116.486 E110.11432
G1 X94.47 Y115.568 E110.21023
G1 X94.76 Y114.939 E110.27934
G1 X95.213 Y114.219 E110.36422
G1 X95.739 Y113.569 E110.44766
G1 X96.239 Y113.089 E110.51681
G1 X97.051 Y112.504 E110.61667
G1 X97.854 Y112.069 E110.7078
G1 X98.04 Y111.997 E110.7277
G1 X97.309 Y111.656 E110.80818
G1 X96.722 Y111.289 E110.87726
G1 X96.181 Y110.856 E110.9464
G1 X95.769 Y110.447 E111.00433
G1 X95.224 Y109.792 E111.08935
G1 X94.851 Y109.208 E111.15849
G1 X94.548 Y108.585 E111.22762
G1 X94.282 Y107.83 E111.30749
G1 X94.105 Y107.161 E111.37654
G1 X94.007 Y106.475 E111.44569
G1 X93.985 Y105.966 E111.49652
G1 X93.984 Y72.025 E114.88317
G1 X94.024 Y71.334 E114.95223
G1 X94.185 Y70.486 E115.03836
G1 X94.47 Y69.568 E115.13427
G1 X94.76 Y68.939 E115.20338
G1 X95.213 Y68.219 E115.28826
G0 F3600 X95.859 Y68.691
G1 F1800 X96.356 Y68.08 E115.36685
G1 X96.827 Y67.64 E115.43116
G1 X97.463 Y67.19 E115.5089
G1 X98.225 Y66.779 E115.59529
G1 X99.055 Y66.493 E115.68288
G1 X99.886 Y66.324 E115.7675
G1 X100.526 Y66.285 E115.83148
G1 X139.471 Y66.285 E119.71742
G1 X140.114 Y66.325 E119.78171
G1 X140.748 Y66.444 E119.84607
G1 X141.6 Y66.741 E119.9361
G1 X142.001 Y66.921 E119.97996
G1 X142.572 Y67.221 E120.04432
G1 X143.101 Y67.589 E120.10862
G1 X143.581 Y68.02 E120.17299
G1 X144.109 Y68.65 E120.25501
G1 X144.528 Y69.308 E120.33284
G1 X144.798 Y69.893 E120.39713
G1 X144.989 Y70.486 E120.4593
G1 X145.173 Y71.37 E120.54939
G1 X145.215 Y72.026 E120.61498
G1 X145.215 Y105.973 E124.00223
G1 X145.175 Y106.616 E124.06651
G1 X145.064 Y107.216 E124.1274
G1 X144.824 Y108.026 E124.21169
G1 X144.556 Y108.613 E124.27608
G1 X144.201 Y109.197 E124.34427
G1 X143.818 Y109.715 E124.40855
G1 X143.373 Y110.183 E124.47299
G1 X142.85 Y110.609 E124.54029
G1 X142.192 Y111.028 E124.61813
G1 X141.607 Y111.298 E124.68242
G1 X141.014 Y111.489 E124.74458
G1 X140.13 Y111.673 E124.83468
G1 X139.474 Y111.715 E124.90027
G1 X100.49 Y111.716 E128.79011
G1 X99.847 Y111.676 E128.85439
G1 X99.213 Y111.557 E128.91876
G1 X98.531 Y111.333 E128.99038
G1 X98.236 Y111.213 E129.02216
G1 X97.655 Y110.933 E129.08651
G1 X97.113 Y110.584 E129.15084
G1 X96.618 Y110.171 E129.21516
G1 X96.251 Y109.789 E129.26802
G1 X95.846 Y109.287 E129.33238
G1 X95.506 Y108.739 E129.39673
G1 X95.144 Y107.894 E129.48845
G1 X95.042 Y107.582 E129.5212
G1 X94.88 Y106.958 E129.58553
G1 X94.797 Y106.319 E129.64983
G1 X94.784 Y72.025 E133.0717
G1 X94.824 Y71.382 E133.13598
G1 X94.958 Y70.691 E133.20621
G1 X95.231 Y69.82 E133.29729
G1 X95.508 Y69.238 E133.3616
G1 X95.859 Y68.691 E133.42645
G0 F3600 X96.589 Y69.048
G1 F1800 X96.971 Y68.595 E133.48558
G1 X97.41 Y68.197 E133.54471
G1 X97.874 Y67.876 E133.601
G1 X98.592 Y67.492 E133.68225
G1 X99.251 Y67.269 E133.75167
G1 X100.032 Y67.113 E133.83113
G1 X100.526 Y67.085 E133.88051
G1 X139.471 Y67.085 E137.76645
G1 X140.063 Y67.125 E137.82566
G1 X140.643 Y67.244 E137.88474
G1 X141.273 Y67.471 E137.95155
G1 X141.674 Y67.651 E137.99541
G1 X142.197 Y67.93 E138.05456
G1 X142.678 Y68.276 E138.11368
G1 X143.109 Y68.684 E138.1729
G1 X143.457 Y69.114 E138.22809
G1 X143.846 Y69.73 E138.30079
G1 X144.086 Y70.272 E138.35993
G1 X144.278 Y70.935 E138.42881
G1 X144.386 Y71.518 E138.48797
G1 X144.415 Y72.026 E138.53874
