;FLAVOR:Marlin
;TIME:5353
;Filament used: 9.53652m
;Layer height: 0.2
;MINX:73.374
;MINY:63.874
;MINZ:0.3
;MAXX:176.626
;MAXY:206.126
;MAXZ:5.9
;Generated with Cura_SteamEngine 4.6.1
M140 S60
M105
M190 S60
M104 S200
M105
M109 S200
M82 ;absolute extrusion mode
G21 ;metric values
G90 ;absolute positioning
M82 ;set extruder to absolute mode
M107 ;start with the fan off
G28 X0 Y0 ;move X/Y to min endstops
G28 Z0 ;move Z to min endstops
G1 Z15.0 F9000 ;move the platform down 15mm
G92 E0 ;zero the extruded length
G1 F200 E6 ;extrude 6 mm of feed stock
G92 E0 ;zero the extruded length again
G1 F9000
;Put printing message on LCD screen
M117 Printing...
G92 E0
G92 E0
G1 F1500 E-6.5
;LAYER_COUNT:29
;LAYER:0
M107
G0 F3600 X75.253 Y66.707 Z0.3
;TYPE:SKIRT
G1 F1500 E0
G1 F1800 X75.601 Y66.335 E0.05083
G1 X76.414 Y65.579 E0.1616
G1 X77.043 Y65.119 E0.23936
G1 X77.716 Y64.725 E0.31717
G1 X78.426 Y64.403 E0.39496
G1 X79.165 Y64.155 E0.47274
G1 X79.925 Y63.984 E0.55047
G1 X80.699 Y63.892 E0.62824
G1 X81.209 Y63.875 E0.67916
G1 X120.792 Y63.874 E4.62877
G1 X121.57 Y63.914 E4.7065
G1 X122.341 Y64.033 E4.78434
G1 X123.095 Y64.231 E4.86212
G1 X123.824 Y64.505 E4.93983
G1 X124.522 Y64.852 E5.01761
G1 X124.997 Y65.153 E5.07372
G1 X125.716 Y64.725 E5.15721
G1 X126.426 Y64.403 E5.235
G1 X127.165 Y64.155 E5.31278
G1 X127.925 Y63.984 E5.39051
G1 X128.699 Y63.892 E5.46828
G1 X129.209 Y63.875 E5.5192
G1 X168.792 Y63.874 E9.46881
G1 X169.57 Y63.914 E9.54654
G1 X170.341 Y64.033 E9.62438
G1 X171.095 Y64.231 E9.70217
G1 X171.824 Y64.505 E9.77987
G1 X172.522 Y64.852 E9.85765
G1 X173.181 Y65.269 E9.93547
G1 X173.793 Y65.751 E10.0132
G1 X174.166 Y66.1 E10.06417
G1 X174.922 Y66.913 E10.17494
G1 X175.382 Y67.542 E10.2527
G1 X175.776 Y68.215 E10.33051
G1 X176.098 Y68.925 E10.4083
G1 X176.346 Y69.664 E10.48608
G1 X176.517 Y70.424 E10.56381
G1 X176.609 Y71.198 E10.64158
G1 X176.626 Y71.708 E10.6925
G1 X176.625 Y106.291 E14.1432
G1 X176.585 Y107.07 E14.22103
G1 X176.465 Y107.84 E14.29879
G1 X176.268 Y108.594 E14.37655
G1 X175.994 Y109.324 E14.45435
G1 X175.646 Y110.022 E14.53218
G1 X175.229 Y110.68 E14.60991
G1 X174.747 Y111.293 E14.68771
G1 X174.399 Y111.665 E14.73854
G1 X174.056 Y111.997 E14.78617
G1 X174.4 Y112.334 E14.83423
G1 X174.922 Y112.913 E14.91201
G1 X175.382 Y113.542 E14.98977
G1 X175.776 Y114.215 E15.06758
G1 X176.098 Y114.925 E15.14537
G1 X176.346 Y115.664 E15.22315
G1 X176.517 Y116.424 E15.30088
G1 X176.609 Y117.198 E15.37865
G1 X176.626 Y117.708 E15.42957
G1 X176.625 Y152.291 E18.88027
G1 X176.585 Y153.07 E18.9581
G1 X176.465 Y153.84 E19.03586
G1 X176.268 Y154.594 E19.11362
G1 X175.994 Y155.324 E19.19142
G1 X175.646 Y156.022 E19.26925
G1 X175.229 Y156.68 E19.34698
G1 X174.747 Y157.293 E19.42478
G1 X174.399 Y157.665 E19.47561
G1 X174.056 Y157.997 E19.52324
G1 X174.4 Y158.334 E19.57129
G1 X174.922 Y158.913 E19.64908
G1 X175.382 Y159.542 E19.72683
G1 X175.776 Y160.215 E19.80465
G1 X176.098 Y160.925 E19.88244
G1 X176.346 Y161.664 E19.96022
G1 X176.517 Y162.424 E20.03795
G1 X176.609 Y163.198 E20.11572
G1 X176.626 Y163.708 E20.16664
G1 X176.625 Y198.291 E23.61734
G1 X176.585 Y199.07 E23.69517
G1 X176.465 Y199.84 E23.77293
G1 X176.268 Y200.594 E23.85069
G1 X175.994 Y201.324 E23.92849
G1 X175.646 Y202.022 E24.00632
G1 X175.229 Y202.68 E24.08405
G1 X174.747 Y203.293 E24.16185
G1 X174.399 Y203.665 E24.21268
G1 X173.586 Y204.421 E24.32346
G1 X172.957 Y204.881 E24.40121
G1 X172.284 Y205.275 E24.47903
G1 X171.574 Y205.597 E24.55681
G1 X170.835 Y205.845 E24.63459
G1 X170.075 Y206.016 E24.71232
G1 X169.301 Y206.108 E24.7901
G1 X168.791 Y206.125 E24.84101
G1 X129.208 Y206.126 E28.79062
G1 X128.43 Y206.086 E28.86835
G1 X127.659 Y205.967 E28.94619
G1 X126.905 Y205.769 E29.02398
G1 X126.176 Y205.495 E29.10169
G1 X125.478 Y205.148 E29.17947
G1 X125.003 Y204.847 E29.23558
G1 X124.284 Y205.275 E29.31907
G1 X123.574 Y205.597 E29.39686
G1 X122.835 Y205.845 E29.47464
G1 X122.075 Y206.016 E29.55236
G1 X121.301 Y206.108 E29.63014
G1 X120.791 Y206.125 E29.68105
G1 X81.208 Y206.126 E33.63066
G1 X80.43 Y206.086 E33.70839
G1 X79.659 Y205.967 E33.78624
G1 X78.905 Y205.769 E33.86402
G1 X78.176 Y205.495 E33.94173
G1 X77.478 Y205.148 E34.01951
G1 X76.819 Y204.731 E34.09732
G1 X76.207 Y204.249 E34.17505
G1 X75.834 Y203.9 E34.22602
G1 X75.078 Y203.087 E34.3368
G1 X74.618 Y202.458 E34.41455
G1 X74.224 Y201.785 E34.49236
G1 X73.902 Y201.075 E34.57015
G1 X73.654 Y200.336 E34.64793
G1 X73.483 Y199.576 E34.72566
G1 X73.391 Y198.802 E34.80343
G1 X73.374 Y198.292 E34.85435
G1 X73.375 Y163.709 E38.30506
G1 X73.415 Y162.93 E38.38289
G1 X73.535 Y162.16 E38.46065
G1 X73.732 Y161.406 E38.53841
G1 X74.006 Y160.676 E38.61621
G1 X74.354 Y159.978 E38.69403
G1 X74.771 Y159.32 E38.77176
G1 X75.253 Y158.707 E38.84957
G1 X75.601 Y158.335 E38.9004
G1 X75.944 Y158.003 E38.94803
G1 X75.6 Y157.666 E38.99608
G1 X75.078 Y157.087 E39.07386
G1 X74.618 Y156.458 E39.15162
G1 X74.224 Y155.785 E39.22943
G1 X73.902 Y155.075 E39.30722
G1 X73.654 Y154.336 E39.385
G1 X73.483 Y153.576 E39.46273
G1 X73.391 Y152.802 E39.5405
G1 X73.374 Y152.292 E39.59142
G1 X73.375 Y117.709 E43.04213
G1 X73.415 Y116.93 E43.11996
G1 X73.535 Y116.16 E43.19772
G1 X73.732 Y115.406 E43.27548
G1 X74.006 Y114.676 E43.35328
G1 X74.354 Y113.978 E43.4311
G1 X74.771 Y113.32 E43.50883
G1 X75.253 Y112.707 E43.58664
G1 X75.601 Y112.335 E43.63747
G1 X75.944 Y112.003 E43.6851
G1 X75.6 Y111.666 E43.73315
G1 X75.078 Y111.087 E43.81093
G1 X74.618 Y110.458 E43.88869
G1 X74.224 Y109.785 E43.9665
G1 X73.902 Y109.075 E44.04429
G1 X73.654 Y108.336 E44.12207
G1 X73.483 Y107.576 E44.1998
G1 X73.391 Y106.802 E44.27757
G1 X73.374 Y106.292 E44.32849
G1 X73.375 Y71.709 E47.7792
G1 X73.415 Y70.93 E47.85703
G1 X73.535 Y70.16 E47.93479
G1 X73.732 Y69.406 E48.01255
G1 X74.006 Y68.676 E48.09035
G1 X74.354 Y67.978 E48.16817
G1 X74.771 Y67.32 E48.2459
G1 X75.253 Y66.707 E48.32371
G0 F3600 X76.167 Y66.901
G1 F1800 X76.95 Y66.174 E48.43032
G1 X77.548 Y65.744 E48.50381
G1 X78.19 Y65.382 E48.57735
G1 X78.868 Y65.091 E48.65097
G1 X79.573 Y64.875 E48.72455
G1 X80.297 Y64.736 E48.79811
G1 X81.209 Y64.675 E48.88931
G1 X120.792 Y64.674 E52.83892
G1 X121.528 Y64.714 E52.91246
G1 X122.256 Y64.833 E52.98607
G1 X122.966 Y65.031 E53.05962
G1 X123.651 Y65.304 E53.13319
G1 X124.302 Y65.65 E53.20676
G1 X124.912 Y66.064 E53.28032
G1 X124.999 Y66.138 E53.29171
G1 X125.548 Y65.744 E53.35914
G1 X126.19 Y65.382 E53.43268
G1 X126.868 Y65.091 E53.5063
G1 X127.573 Y64.875 E53.57987
G1 X128.297 Y64.736 E53.65343
G1 X129.209 Y64.675 E53.74463
G1 X168.792 Y64.674 E57.69424
G1 X169.528 Y64.714 E57.76779
G1 X170.256 Y64.833 E57.84139
G1 X170.966 Y65.031 E57.91494
G1 X171.651 Y65.304 E57.98852
G1 X172.302 Y65.65 E58.06208
G1 X172.912 Y66.064 E58.13564
G1 X173.6 Y66.666 E58.22686
G1 X174.327 Y67.449 E58.33347
G1 X174.757 Y68.047 E58.40696
G1 X175.119 Y68.689 E58.4805
G1 X175.41 Y69.367 E58.55412
G1 X175.626 Y70.072 E58.6277
G1 X175.765 Y70.796 E58.70126
G1 X175.826 Y71.708 E58.79246
G1 X175.825 Y106.291 E62.24317
G1 X175.785 Y107.027 E62.31671
G1 X175.666 Y107.755 E62.39032
G1 X175.468 Y108.465 E62.46386
G1 X175.195 Y109.15 E62.53744
G1 X174.849 Y109.801 E62.611
G1 X174.435 Y110.411 E62.68456
G1 X173.833 Y111.099 E62.77578
G1 X173.05 Y111.826 E62.88239
G1 X172.813 Y111.997 E62.91156
G1 X172.912 Y112.064 E62.92348
G1 X173.6 Y112.666 E63.0147
G1 X174.327 Y113.449 E63.12131
G1 X174.757 Y114.047 E63.19481
G1 X175.119 Y114.689 E63.26835
G1 X175.41 Y115.367 E63.34197
G1 X175.626 Y116.072 E63.41554
G1 X175.765 Y116.796 E63.4891
G1 X175.826 Y117.708 E63.5803
G1 X175.825 Y152.291 E67.03101
G1 X175.785 Y153.027 E67.10456
G1 X175.666 Y153.755 E67.17816
G1 X175.468 Y154.465 E67.25171
G1 X175.195 Y155.15 E67.32528
G1 X174.849 Y155.801 E67.39885
G1 X174.435 Y156.411 E67.47241
G1 X173.833 Y157.099 E67.56362
G1 X173.05 Y157.826 E67.67024
G1 X172.813 Y157.997 E67.6994
G1 X172.912 Y158.064 E67.71133
G1 X173.6 Y158.666 E67.80254
G1 X174.327 Y159.449 E67.90916
G1 X174.757 Y160.047 E67.98265
G1 X175.119 Y160.689 E68.05619
G1 X175.41 Y161.367 E68.12981
G1 X175.626 Y162.072 E68.20338
G1 X175.765 Y162.796 E68.27694
G1 X175.826 Y163.708 E68.36814
G1 X175.825 Y198.291 E71.81885
G1 X175.785 Y199.027 E71.8924
G1 X175.666 Y199.755 E71.966
G1 X175.468 Y200.465 E72.03955
G1 X175.195 Y201.15 E72.11313
G1 X174.849 Y201.801 E72.18669
G1 X174.435 Y202.411 E72.26025
G1 X173.833 Y203.099 E72.35147
G1 X173.05 Y203.826 E72.45808
G1 X172.452 Y204.256 E72.53157
G1 X171.81 Y204.618 E72.60511
G1 X171.132 Y204.909 E72.67873
G1 X170.427 Y205.125 E72.7523
G1 X169.703 Y205.264 E72.82587
G1 X168.791 Y205.325 E72.91707
G1 X129.208 Y205.326 E76.86668
G1 X128.472 Y205.286 E76.94022
G1 X127.744 Y205.167 E77.01383
G1 X127.034 Y204.969 E77.08737
G1 X126.349 Y204.696 E77.16095
G1 X125.698 Y204.35 E77.23451
G1 X125.088 Y203.936 E77.30807
G1 X125.002 Y203.861 E77.31946
G1 X124.452 Y204.256 E77.38703
G1 X123.81 Y204.618 E77.46057
G1 X123.132 Y204.909 E77.53419
G1 X122.427 Y205.125 E77.60776
G1 X121.703 Y205.264 E77.68132
G1 X120.791 Y205.325 E77.77252
G1 X81.208 Y205.326 E81.72213
G1 X80.472 Y205.286 E81.79568
G1 X79.744 Y205.167 E81.86928
G1 X79.034 Y204.969 E81.94283
G1 X78.349 Y204.696 E82.01641
G1 X77.698 Y204.35 E82.08997
G1 X77.088 Y203.936 E82.16353
G1 X76.4 Y203.334 E82.25475
G1 X75.673 Y202.551 E82.36136
G1 X75.243 Y201.953 E82.43485
G1 X74.881 Y201.311 E82.50839
G1 X74.59 Y200.633 E82.58201
G1 X74.374 Y199.928 E82.65558
G1 X74.235 Y199.204 E82.72914
G1 X74.174 Y198.292 E82.82035
G1 X74.175 Y163.709 E86.27105
G1 X74.215 Y162.973 E86.3446
G1 X74.334 Y162.245 E86.4182
G1 X74.532 Y161.535 E86.49175
G1 X74.805 Y160.85 E86.56533
G1 X75.151 Y160.199 E86.63889
G1 X75.565 Y159.589 E86.71245
G1 X76.167 Y158.901 E86.80367
G1 X76.95 Y158.174 E86.91028
G1 X77.187 Y158.003 E86.93944
G1 X77.088 Y157.936 E86.95137
G1 X76.4 Y157.334 E87.04259
G1 X75.673 Y156.551 E87.1492
G1 X75.243 Y155.953 E87.22269
G1 X74.881 Y155.311 E87.29623
G1 X74.59 Y154.633 E87.36985
G1 X74.374 Y153.928 E87.44343
G1 X74.235 Y153.204 E87.51699
G1 X74.174 Y152.292 E87.60819
G1 X74.175 Y117.709 E91.0589
G1 X74.215 Y116.973 E91.13244
G1 X74.334 Y116.245 E91.20605
G1 X74.532 Y115.535 E91.27959
G1 X74.805 Y114.85 E91.35317
G1 X75.151 Y114.199 E91.42673
G1 X75.565 Y113.589 E91.50029
G1 X76.167 Y112.901 E91.59151
G1 X76.95 Y112.174 E91.69812
G1 X77.187 Y112.003 E91.72728
G1 X77.088 Y111.936 E91.73921
G1 X76.4 Y111.334 E91.83043
G1 X75.673 Y110.551 E91.93704
G1 X75.243 Y109.953 E92.01054
G1 X74.881 Y109.311 E92.08408
G1 X74.59 Y108.633 E92.1577
G1 X74.374 Y107.928 E92.23127
G1 X74.235 Y107.204 E92.30483
G1 X74.174 Y106.292 E92.39603
G1 X74.175 Y71.709 E95.84674
G1 X74.215 Y70.973 E95.92028
G1 X74.334 Y70.245 E95.99389
G1 X74.532 Y69.535 E96.06744
G1 X74.805 Y68.85 E96.14101
G1 X75.151 Y68.199 E96.21458
G1 X75.565 Y67.589 E96.28814
G1 X76.167 Y66.901 E96.37935
G0 F3600 X76.359 Y67.876
G1 F1800 X76.732 Y67.466 E96.43466
G1 X76.966 Y67.232 E96.46768
G1 X77.483 Y66.772 E96.53673
G1 X78.05 Y66.374 E96.60585
G1 X78.659 Y66.044 E96.67497
G1 X79.302 Y65.786 E96.7441
G1 X79.97 Y65.604 E96.81318
G1 X80.655 Y65.501 E96.8823
G1 X81.209 Y65.475 E96.93764
G1 X120.792 Y65.474 E100.88725
G1 X121.483 Y65.514 E100.95631
G1 X122.165 Y65.633 E101.02539
G1 X122.829 Y65.83 E101.0945
G1 X123.466 Y66.103 E101.16365
G1 X124.067 Y66.447 E101.23274
G1 X124.625 Y66.858 E101.30189
G1 X124.997 Y67.205 E101.35265
G1 X125.483 Y66.772 E101.4176
G1 X126.05 Y66.374 E101.48673
G1 X126.659 Y66.044 E101.55584
G1 X127.302 Y65.786 E101.62497
G1 X127.97 Y65.604 E101.69405
G1 X128.655 Y65.501 E101.76317
G1 X129.209 Y65.475 E101.81851
G1 X168.792 Y65.474 E105.76812
G1 X169.483 Y65.514 E105.83718
G1 X170.165 Y65.633 E105.90626
G1 X170.829 Y65.83 E105.97537
G1 X171.466 Y66.103 E106.04452
G1 X172.067 Y66.447 E106.11362
G1 X172.625 Y66.858 E106.18277
G1 X173.035 Y67.231 E106.23807
G1 X173.269 Y67.465 E106.27109
G1 X173.729 Y67.982 E106.34014
G1 X174.127 Y68.549 E106.40927
G1 X174.457 Y69.158 E106.47838
G1 X174.715 Y69.801 E106.54751
G1 X174.897 Y70.469 E106.61659
G1 X175 Y71.154 E106.68571
G1 X175.026 Y71.708 E106.74105
G1 X175.025 Y106.291 E110.19176
G1 X174.985 Y106.983 E110.26092
G1 X174.866 Y107.665 E110.33
G1 X174.668 Y108.329 E110.39913
G1 X174.396 Y108.965 E110.46816
G1 X174.052 Y109.566 E110.53725
G1 X173.641 Y110.124 E110.6064
G1 X173.268 Y110.534 E110.66171
G1 X173.034 Y110.768 E110.69473
G1 X172.517 Y111.228 E110.76378
G1 X171.95 Y111.626 E110.8329
G1 X171.341 Y111.956 E110.90201
G1 X171.228 Y112.001 E110.91415
G1 X171.466 Y112.103 E110.93999
G1 X172.067 Y112.447 E111.00908
G1 X172.625 Y112.858 E111.07823
G1 X173.035 Y113.231 E111.13354
G1 X173.269 Y113.465 E111.16656
G1 X173.729 Y113.982 E111.23561
G1 X174.127 Y114.549 E111.30473
G1 X174.457 Y115.158 E111.37385
G1 X174.715 Y115.801 E111.44298
G1 X174.897 Y116.469 E111.51206
G1 X175 Y117.154 E111.58118
G1 X175.026 Y117.708 E111.63652
G1 X175.025 Y152.291 E115.08722
G1 X174.985 Y152.983 E115.15639
G1 X174.866 Y153.665 E115.22547
G1 X174.668 Y154.329 E115.2946
G1 X174.396 Y154.965 E115.36362
G1 X174.052 Y155.566 E115.43272
G1 X173.641 Y156.124 E115.50187
G1 X173.268 Y156.534 E115.55718
G1 X173.034 Y156.768 E115.5902
G1 X172.517 Y157.228 E115.65925
G1 X171.95 Y157.626 E115.72837
G1 X171.341 Y157.956 E115.79748
G1 X171.228 Y158.001 E115.80962
G1 X171.466 Y158.103 E115.83546
G1 X172.067 Y158.447 E115.90455
G1 X172.625 Y158.858 E115.9737
G1 X173.035 Y159.231 E116.02901
G1 X173.269 Y159.465 E116.06203
G1 X173.729 Y159.982 E116.13108
G1 X174.127 Y160.549 E116.2002
G1 X174.457 Y161.158 E116.26932
G1 X174.715 Y161.801 E116.33845
G1 X174.897 Y162.469 E116.40753
G1 X175 Y163.154 E116.47665
G1 X175.026 Y163.708 E116.53199
G1 X175.025 Y198.291 E119.98269
G1 X174.985 Y198.983 E120.05186
G1 X174.866 Y199.665 E120.12093
G1 X174.668 Y200.329 E120.19007
G1 X174.396 Y200.965 E120.25909
G1 X174.052 Y201.566 E120.32819
G1 X173.641 Y202.124 E120.39734
G1 X173.268 Y202.534 E120.45264
G1 X173.034 Y202.768 E120.48566
G1 X172.517 Y203.228 E120.55471
G1 X171.95 Y203.626 E120.62384
G1 X171.341 Y203.956 E120.69295
G1 X170.698 Y204.214 E120.76208
G1 X170.03 Y204.396 E120.83116
G1 X169.345 Y204.499 E120.90028
G1 X168.791 Y204.525 E120.95562
G1 X129.208 Y204.526 E124.90523
G1 X128.517 Y204.486 E124.97429
G1 X127.835 Y204.367 E125.04337
G1 X127.171 Y204.17 E125.11248
G1 X126.534 Y203.897 E125.18163
G1 X125.933 Y203.553 E125.25073
G1 X125.375 Y203.142 E125.31988
G1 X124.999 Y202.8 E125.37059
G1 X124.517 Y203.228 E125.43491
G1 X123.95 Y203.626 E125.50403
G1 X123.341 Y203.956 E125.57315
G1 X122.698 Y204.214 E125.64228
G1 X122.03 Y204.396 E125.71136
G1 X121.345 Y204.499 E125.78048
G1 X120.791 Y204.525 E125.83582
G1 X81.208 Y204.526 E129.78543
G1 X80.517 Y204.486 E129.85449
G1 X79.835 Y204.367 E129.92357
G1 X79.171 Y204.17 E129.99268
G1 X78.534 Y203.897 E130.06183
G1 X77.933 Y203.553 E130.13093
G1 X77.375 Y203.142 E130.20008
G1 X76.965 Y202.769 E130.25538
G1 X76.731 Y202.535 E130.2884
G1 X76.271 Y202.018 E130.35745
G1 X75.873 Y201.451 E130.42657
G1 X75.543 Y200.842 E130.49569
G1 X75.285 Y200.199 E130.56482
G1 X75.103 Y199.531 E130.6339
G1 X75 Y198.846 E130.70302
G1 X74.974 Y198.292 E130.75836
G1 X74.975 Y163.709 E134.20907
G1 X75.015 Y163.017 E134.27823
G1 X75.134 Y162.335 E134.34731
G1 X75.332 Y161.671 E134.41644
G1 X75.604 Y161.035 E134.48546
G1 X75.948 Y160.434 E134.55456
G1 X76.359 Y159.876 E134.62371
G1 X76.732 Y159.466 E134.67902
G1 X76.966 Y159.232 E134.71204
G1 X77.483 Y158.772 E134.78109
G1 X78.05 Y158.374 E134.85021
G1 X78.659 Y158.044 E134.91932
G1 X78.772 Y157.999 E134.93146
G1 X78.534 Y157.897 E134.9573
G1 X77.933 Y157.553 E135.02639
G1 X77.375 Y157.142 E135.09554
G1 X76.965 Y156.769 E135.15085
G1 X76.731 Y156.535 E135.18387
G1 X76.271 Y156.018 E135.25292
G1 X75.873 Y155.451 E135.32204
G1 X75.543 Y154.842 E135.39116
G1 X75.285 Y154.199 E135.46029
G1 X75.103 Y153.531 E135.52937
G1 X75 Y152.846 E135.59849
G1 X74.974 Y152.292 E135.65383
G1 X74.975 Y117.709 E139.10453
G1 X75.015 Y117.017 E139.1737
G1 X75.134 Y116.335 E139.24278
G1 X75.332 Y115.671 E139.31191
