;FLAVOR:Marlin
;TIME:3474
;Filament used: 5.02252m
;Layer height: 0.2
;MINX:86.747
;MINY:86.497
;MINZ:0.3
;MAXX:167.6
;MAXY:183.5
;MAXZ:14.9
;Generated with Cura_SteamEngine 4.6.1
M140 S60
M105
M190 S60
M104 S200
M105
M109 S200
M82 ;absolute extrusion mode
G21 ;metric values
G90 ;absolute positioning
M82 ;set extruder to absolute mode
M107 ;start with the fan off
G28 X0 Y0 ;move X/Y to min endstops
G28 Z0 ;move Z to min endstops
G1 Z15.0 F9000 ;move the platform down 15mm
G92 E0 ;zero the extruded length
G1 F200 E6 ;extrude 6 mm of feed stock
G92 E0 ;zero the extruded length again
G1 F9000
;Put printing message on LCD screen
M117 Printing...
G92 E0
G92 E0
G1 F1500 E-6.5
;LAYER_COUNT:74
;LAYER:0
M107
G0 F3600 X89.481 Y88.793 Z0.3
;TYPE:SKIRT
G1 F1500 E0
G1 F1800 X90.241 Y88.171 E0.09799
G1 X91.07 Y87.628 E0.19688
G1 X91.771 Y87.275 E0.27519
G1 X92.692 Y86.912 E0.37397
G1 X93.67 Y86.667 E0.47457
G1 X94.68 Y86.524 E0.57635
G1 X95.246 Y86.502 E0.63287
G1 X97.35 Y86.497 E0.84281
G1 X99.077 Y86.5 E1.01513
G1 X136.688 Y86.5 E4.76797
G1 X137.466 Y86.54 E4.8457
G1 X137.975 Y86.61 E4.89697
G1 X139.056 Y86.836 E5.00716
G1 X139.795 Y87.084 E5.08494
G1 X140.419 Y87.364 E5.15319
G1 X141.314 Y87.858 E5.25519
G1 X142.087 Y88.422 E5.35067
G1 X142.814 Y89.08 E5.44851
G1 X143.43 Y89.793 E5.54253
G1 X143.999 Y90.608 E5.6417
G1 X144.403 Y91.362 E5.72706
G1 X144.779 Y92.268 E5.82494
G1 X145.025 Y93.147 E5.91601
G1 X145.195 Y94.126 E6.01516
G1 X145.24 Y94.907 E6.09322
G1 X145.244 Y95.48 E6.15039
G1 X146.241 Y95.211 E6.25343
G1 X146.743 Y95.109 E6.30454
G1 X147.489 Y94.996 E6.37983
G1 X147.992 Y94.945 E6.43028
G1 X148.752 Y94.906 E6.50621
G1 X154.995 Y94.9 E7.12914
G1 X155.764 Y94.938 E7.20596
G1 X156.757 Y95.038 E7.30555
G1 X157.877 Y95.237 E7.41905
G1 X158.366 Y95.362 E7.46941
G1 X159.113 Y95.594 E7.54746
G1 X159.593 Y95.771 E7.59851
G1 X160.284 Y96.066 E7.67348
G1 X160.737 Y96.286 E7.72373
G1 X161.448 Y96.679 E7.80479
G1 X161.878 Y96.948 E7.85539
G1 X162.487 Y97.372 E7.92944
G1 X162.884 Y97.678 E7.97945
G1 X163.461 Y98.171 E8.05518
G1 X163.837 Y98.526 E8.10678
G1 X164.381 Y99.095 E8.18532
G1 X164.72 Y99.489 E8.23719
G1 X165.206 Y100.117 E8.31642
G1 X165.495 Y100.534 E8.36705
G1 X165.91 Y101.206 E8.44585
G1 X166.157 Y101.656 E8.49707
G1 X166.473 Y102.301 E8.56874
G1 X166.669 Y102.755 E8.61808
G1 X166.954 Y103.53 E8.70048
G1 X167.104 Y104.017 E8.75132
G1 X167.288 Y104.735 E8.82528
G1 X167.39 Y105.235 E8.8762
G1 X167.504 Y105.989 E8.95229
G1 X167.555 Y106.493 E9.00283
G1 X167.594 Y107.255 E9.07896
G1 X167.6 Y122.502 E10.60032
G1 X167.562 Y123.417 E10.69169
G1 X167.484 Y124.175 E10.76773
G1 X167.407 Y124.674 E10.81811
G1 X167.251 Y125.429 E10.89503
G1 X167.124 Y125.917 E10.94535
G1 X166.891 Y126.655 E11.02257
G1 X166.713 Y127.133 E11.07346
G1 X166.407 Y127.844 E11.1507
G1 X166.183 Y128.298 E11.20121
G1 X165.802 Y128.979 E11.27907
G1 X165.533 Y129.407 E11.32951
G1 X165.097 Y130.029 E11.40531
G1 X164.789 Y130.425 E11.45536
G1 X164.301 Y130.992 E11.53001
G1 X164.292 Y131.002 E11.53135
G1 X164.72 Y131.489 E11.59604
G1 X165.206 Y132.117 E11.67528
G1 X165.495 Y132.534 E11.7259
G1 X165.91 Y133.206 E11.80471
G1 X166.157 Y133.656 E11.85593
G1 X166.473 Y134.301 E11.9276
G1 X166.669 Y134.755 E11.97694
G1 X166.954 Y135.53 E12.05933
G1 X167.104 Y136.017 E12.11018
G1 X167.288 Y136.735 E12.18414
G1 X167.39 Y137.235 E12.23505
G1 X167.504 Y137.989 E12.31114
G1 X167.555 Y138.493 E12.36169
G1 X167.594 Y139.255 E12.43782
G1 X167.6 Y154.502 E13.95917
G1 X167.562 Y155.417 E14.05055
G1 X167.484 Y156.175 E14.12658
G1 X167.407 Y156.674 E14.17696
G1 X167.251 Y157.429 E14.25389
G1 X167.124 Y157.917 E14.3042
G1 X166.891 Y158.655 E14.38142
G1 X166.713 Y159.133 E14.43232
G1 X166.407 Y159.844 E14.50955
G1 X166.183 Y160.298 E14.56007
G1 X165.802 Y160.979 E14.63793
G1 X165.533 Y161.407 E14.68837
G1 X165.097 Y162.029 E14.76416
G1 X164.789 Y162.425 E14.81422
G1 X164.301 Y162.992 E14.88887
G1 X163.944 Y163.368 E14.9406
G1 X163.371 Y163.912 E15.01944
G1 X162.992 Y164.236 E15.06919
G1 X162.383 Y164.706 E15.14595
G1 X161.966 Y164.995 E15.19657
G1 X161.294 Y165.41 E15.27538
G1 X160.844 Y165.657 E15.3266
G1 X160.199 Y165.973 E15.39827
G1 X159.745 Y166.169 E15.44761
G1 X158.97 Y166.454 E15.53
G1 X158.483 Y166.604 E15.58085
G1 X157.759 Y166.789 E15.65541
G1 X157.257 Y166.891 E15.70652
G1 X156.511 Y167.004 E15.78181
G1 X156.008 Y167.055 E15.83226
G1 X155.248 Y167.094 E15.90819
G1 X149.004 Y167.1 E16.53122
G1 X148.085 Y167.062 E16.62299
G1 X147.325 Y166.984 E16.69923
G1 X146.826 Y166.907 E16.7496
G1 X146.071 Y166.751 E16.82653
G1 X145.583 Y166.624 E16.87685
G1 X145.249 Y166.519 E16.91178
G1 X145.249 Y174.932 E17.75123
G1 X145.189 Y175.886 E17.84661
G1 X145.02 Y176.906 E17.94977
G1 X144.804 Y177.655 E18.02756
G1 X144.574 Y178.254 E18.09158
G1 X144.246 Y178.962 E18.16944
G1 X143.669 Y179.888 E18.2783
G1 X143.055 Y180.663 E18.37696
G1 X142.413 Y181.298 E18.46706
G1 X141.647 Y181.917 E18.56533
G1 X140.899 Y182.385 E18.65337
G1 X140.001 Y182.832 E18.75346
G1 X139.268 Y183.098 E18.83126
G1 X138.5 Y183.289 E18.91023
G1 X138.135 Y183.36 E18.94733
G1 X137.363 Y183.47 E19.02514
G1 X136.683 Y183.5 E19.09306
G1 X95.217 Y183.493 E23.23055
G1 X94.438 Y183.453 E23.30838
G1 X93.369 Y183.265 E23.41669
G1 X92.34 Y182.965 E23.52363
G1 X91.622 Y182.662 E23.6014
G1 X91.041 Y182.352 E23.6671
G1 X90.381 Y181.938 E23.74484
G1 X89.626 Y181.333 E23.84138
G1 X88.919 Y180.633 E23.94065
G1 X88.364 Y179.933 E24.02979
G1 X87.833 Y179.105 E24.12794
G1 X87.415 Y178.228 E24.22487
G1 X87.081 Y177.285 E24.3247
G1 X86.898 Y176.482 E24.40687
G1 X86.768 Y175.486 E24.5071
G1 X86.751 Y174.978 E24.55781
G1 X86.751 Y147.066 E27.34289
G1 X86.815 Y146.079 E27.44158
G1 X86.989 Y145.061 E27.54462
G1 X87.328 Y143.991 E27.65662
G1 X87.746 Y143.053 E27.75909
G1 X88.336 Y142.105 E27.8705
G1 X88.951 Y141.33 E27.96922
G1 X89.59 Y140.699 E28.05883
G1 X90.356 Y140.081 E28.15703
G1 X91.101 Y139.615 E28.24471
G1 X91.999 Y139.168 E28.3448
G1 X92.732 Y138.902 E28.42261
G1 X93.496 Y138.712 E28.50116
G1 X93.86 Y138.641 E28.53817
G1 X94.632 Y138.531 E28.61598
G1 X95.315 Y138.5 E28.6842
G1 X107.903 Y138.5 E29.94023
G1 X107.791 Y138.095 E29.98216
G1 X107.614 Y137.283 E30.06509
G1 X107.528 Y136.752 E30.11876
G1 X107.442 Y135.971 E30.19716
G1 X107.412 Y135.446 E30.24963
G1 X107.411 Y134.61 E30.33305
G1 X107.439 Y134.081 E30.3859
G1 X107.522 Y133.293 E30.46497
G1 X107.606 Y132.763 E30.51851
G1 X107.776 Y131.967 E30.59973
G1 X107.902 Y131.5 E30.64799
G1 X95.312 Y131.5 E31.90422
G1 X94.534 Y131.46 E31.98196
G1 X93.748 Y131.344 E32.06123
G1 X92.987 Y131.175 E32.13902
G1 X91.892 Y130.78 E32.25517
G1 X91.009 Y130.34 E32.35361
G1 X90.085 Y129.709 E32.46525
G1 X89.28 Y129.017 E32.57117
G1 X88.752 Y128.444 E32.64892
G1 X88.34 Y127.899 E32.71709
G1 X87.796 Y127.039 E32.81863
G1 X87.317 Y125.976 E32.93496
G1 X86.996 Y124.97 E33.04033
G1 X86.846 Y124.205 E33.11812
G1 X86.77 Y123.215 E33.21719
G1 X86.747 Y121.117 E33.42654
G1 X86.75 Y119.447 E33.59317
G1 X86.75 Y95.064 E36.02612
G1 X86.79 Y94.286 E36.10385
G1 X86.886 Y93.604 E36.17257
G1 X87.046 Y92.841 E36.25036
G1 X87.284 Y92.099 E36.32811
G1 X87.583 Y91.4 E36.40397
G1 X87.94 Y90.707 E36.48176
G1 X88.365 Y90.054 E36.5595
G1 X88.786 Y89.527 E36.6268
G1 X89.481 Y88.793 E36.72766
G0 F3600 X90.055 Y89.351
G1 F1800 X90.707 Y88.822 E36.81144
G1 X91.501 Y88.303 E36.90609
G1 X92.093 Y88.007 E36.97213
G1 X92.976 Y87.662 E37.06672
G1 X93.813 Y87.454 E37.15278
G1 X94.782 Y87.319 E37.2504
G1 X95.248 Y87.302 E37.29693
G1 X97.352 Y87.297 E37.50687
G1 X99.076 Y87.3 E37.67889
G1 X136.688 Y87.3 E41.43183
G1 X137.424 Y87.34 E41.50538
G1 X138.16 Y87.453 E41.57968
G1 X138.879 Y87.617 E41.65326
G1 X139.575 Y87.858 E41.72675
G1 X140.06 Y88.079 E41.77993
G1 X140.917 Y88.554 E41.8777
G1 X141.575 Y89.037 E41.95915
G1 X142.27 Y89.668 E42.05281
G1 X142.793 Y90.278 E42.13299
G1 X143.337 Y91.059 E42.22796
G1 X143.677 Y91.699 E42.30027
G1 X144.036 Y92.567 E42.39399
G1 X144.243 Y93.316 E42.47153
G1 X144.404 Y94.253 E42.56639
G1 X144.44 Y94.912 E42.63225
G1 X144.451 Y96.618 E42.80248
G1 X145.265 Y96.31 E42.88932
G1 X145.752 Y96.16 E42.94016
G1 X146.4 Y95.995 E43.00688
G1 X146.902 Y95.893 E43.058
G1 X147.57 Y95.792 E43.12541
G1 X148.073 Y95.741 E43.17586
G1 X148.752 Y95.706 E43.2437
G1 X154.995 Y95.7 E43.86663
G1 X155.683 Y95.734 E43.93536
G1 X156.676 Y95.834 E44.03494
G1 X157.679 Y96.012 E44.13658
G1 X158.168 Y96.137 E44.18695
G1 X158.837 Y96.345 E44.25685
G1 X159.317 Y96.522 E44.3079
G1 X159.935 Y96.785 E44.37491
G1 X160.388 Y97.005 E44.42516
G1 X161.023 Y97.357 E44.49761
G1 X161.453 Y97.626 E44.54822
G1 X161.998 Y98.005 E44.61445
G1 X162.395 Y98.311 E44.66447
G1 X162.912 Y98.753 E44.73234
G1 X163.288 Y99.108 E44.78393
G1 X163.775 Y99.617 E44.85423
G1 X164.114 Y100.011 E44.90609
G1 X164.548 Y100.573 E44.97694
G1 X164.837 Y100.99 E45.02756
G1 X165.209 Y101.591 E45.09809
G1 X165.456 Y102.041 E45.14931
G1 X165.738 Y102.618 E45.21339
G1 X165.934 Y103.072 E45.26273
G1 X166.19 Y103.765 E45.33645
G1 X166.34 Y104.252 E45.38729
G1 X166.504 Y104.895 E45.45351
G1 X166.606 Y105.395 E45.50442
G1 X166.708 Y106.069 E45.57244
G1 X166.759 Y106.573 E45.62299
G1 X166.794 Y107.255 E45.69113
G1 X166.8 Y122.502 E47.21248
G1 X166.764 Y123.375 E47.29966
G1 X166.693 Y124.053 E47.36768
G1 X166.616 Y124.552 E47.41806
G1 X166.477 Y125.228 E47.48693
G1 X166.35 Y125.716 E47.53724
G1 X166.142 Y126.376 E47.60629
G1 X165.964 Y126.854 E47.65718
G1 X165.689 Y127.49 E47.72632
G1 X165.465 Y127.944 E47.77684
G1 X165.124 Y128.553 E47.84648
G1 X164.855 Y128.981 E47.89692
G1 X164.466 Y129.538 E47.96471
G1 X164.158 Y129.934 E48.01477
G1 X163.721 Y130.441 E48.08155
G1 X163.364 Y130.817 E48.13329
G1 X163.173 Y130.999 E48.15961
G1 X163.775 Y131.617 E48.2457
G1 X164.114 Y132.011 E48.29756
G1 X164.548 Y132.573 E48.36841
G1 X164.837 Y132.99 E48.41904
G1 X165.209 Y133.591 E48.48956
G1 X165.456 Y134.041 E48.54078
G1 X165.738 Y134.618 E48.60486
G1 X165.934 Y135.072 E48.65421
G1 X166.19 Y135.765 E48.72792
G1 X166.34 Y136.252 E48.77877
G1 X166.504 Y136.895 E48.84498
G1 X166.606 Y137.395 E48.8959
G1 X166.708 Y138.069 E48.96391
G1 X166.759 Y138.573 E49.01446
G1 X166.794 Y139.255 E49.0826
G1 X166.8 Y154.502 E50.60395
G1 X166.764 Y155.375 E50.69114
G1 X166.693 Y156.053 E50.75916
G1 X166.616 Y156.552 E50.80954
G1 X166.477 Y157.228 E50.8784
G1 X166.35 Y157.716 E50.92871
G1 X166.142 Y158.376 E50.99776
G1 X165.964 Y158.854 E51.04866
G1 X165.689 Y159.49 E51.11779
G1 X165.465 Y159.944 E51.16831
G1 X165.124 Y160.553 E51.23795
G1 X164.855 Y160.981 E51.28839
G1 X164.466 Y161.538 E51.35618
G1 X164.158 Y161.934 E51.40624
G1 X163.721 Y162.441 E51.47303
G1 X163.364 Y162.817 E51.52476
G1 X162.852 Y163.304 E51.59527
G1 X162.473 Y163.628 E51.64502
G1 X161.927 Y164.048 E51.71375
G1 X161.51 Y164.337 E51.76438
G1 X160.909 Y164.709 E51.8349
G1 X160.459 Y164.956 E51.88613
G1 X159.882 Y165.238 E51.95021
G1 X159.428 Y165.434 E51.99955
G1 X158.735 Y165.69 E52.07326
G1 X158.248 Y165.84 E52.12411
G1 X157.6 Y166.005 E52.19083
G1 X157.098 Y166.107 E52.24194
G1 X156.43 Y166.208 E52.30935
G1 X155.927 Y166.259 E52.3598
G1 X155.248 Y166.294 E52.42764
G1 X149.004 Y166.3 E53.05067
G1 X148.127 Y166.264 E53.13825
G1 X147.447 Y166.193 E53.20647
G1 X146.948 Y166.116 E53.25685
G1 X146.272 Y165.977 E53.32571
G1 X145.784 Y165.85 E53.37603
G1 X145.121 Y165.64 E53.44542
G1 X144.641 Y165.461 E53.49654
G1 X144.449 Y165.378 E53.51741
G1 X144.449 Y174.932 E54.47071
G1 X144.395 Y175.785 E54.556
G1 X144.231 Y176.764 E54.65504
G1 X143.925 Y177.725 E54.75567
G1 X143.52 Y178.624 E54.85406
G1 X143.022 Y179.418 E54.94758
G1 X142.433 Y180.158 E55.04195
G1 X141.886 Y180.696 E55.11851
G1 X141.151 Y181.288 E55.21267
G1 X140.515 Y181.684 E55.28743
G1 X139.653 Y182.111 E55.38342
G1 X138.958 Y182.356 E55.45695
G1 X138.347 Y182.504 E55.51967
G1 X137.982 Y182.575 E55.55678
G1 X137.252 Y182.676 E55.63031
G1 X136.683 Y182.7 E55.68714
G1 X95.217 Y182.693 E59.82463
G1 X94.481 Y182.653 E59.89818
G1 X93.563 Y182.489 E59.99123
G1 X92.576 Y182.2 E60.09384
G1 X91.619 Y181.759 E60.19899
G1 X90.808 Y181.26 E60.294
G1 X90.165 Y180.741 E60.37645
G1 X89.489 Y180.071 E60.47142
G1 X89.019 Y179.474 E60.54723
G1 X88.512 Y178.681 E60.64115
G1 X88.157 Y177.93 E60.72403
G1 X87.839 Y177.027 E60.81956
G1 X87.686 Y176.347 E60.8891
G1 X87.564 Y175.393 E60.98507
G1 X87.551 Y174.978 E61.0265
G1 X87.551 Y147.066 E63.81157
G1 X87.609 Y146.183 E63.89987
G1 X87.777 Y145.206 E63.99878
G1 X88.07 Y144.289 E64.09484
G1 X88.473 Y143.39 E64.19314
G1 X88.982 Y142.577 E64.28885
G1 X89.572 Y141.836 E64.38336
G1 X90.117 Y141.301 E64.45956
G1 X90.851 Y140.71 E64.55359
G1 X91.485 Y140.316 E64.62807
G1 X92.347 Y139.889 E64.72406
G1 X93.042 Y139.644 E64.79759
G1 X93.649 Y139.497 E64.85991
G1 X94.013 Y139.426 E64.89691
G1 X94.743 Y139.324 E64.97046
G1 X95.315 Y139.3 E65.02758
G1 X109.021 Y139.3 E66.39517
G1 X108.702 Y138.387 E66.49167
G1 X108.562 Y137.881 E66.54406
G1 X108.403 Y137.155 E66.61822
G1 X108.317 Y136.624 E66.67189
G1 X108.241 Y135.925 E66.74205
G1 X108.211 Y135.4 E66.79452
G1 X108.21 Y134.653 E66.86906
G1 X108.238 Y134.124 E66.92191
G1 X108.312 Y133.419 E66.99264
G1 X108.396 Y132.889 E67.04619
G1 X108.548 Y132.176 E67.11893
G1 X108.685 Y131.67 E67.17124
G1 X108.907 Y130.993 E67.24233
G1 X109.02 Y130.7 E67.27366
G1 X95.312 Y130.7 E68.64145
G1 X94.576 Y130.66 E68.715
G1 X93.88 Y130.555 E68.78523
G1 X93.161 Y130.393 E68.85877
G1 X92.22 Y130.051 E68.95867
G1 X91.376 Y129.627 E69.05292
G1 X90.584 Y129.083 E69.14879
G1 X89.812 Y128.417 E69.25052
G1 X89.317 Y127.871 E69.32406
G1 X88.999 Y127.445 E69.3771
G1 X88.479 Y126.62 E69.47441
G1 X88.069 Y125.704 E69.57455
G1 X87.762 Y124.738 E69.67569
G1 X87.627 Y124.013 E69.74927
G1 X87.57 Y123.207 E69.82989
G1 X87.547 Y121.109 E70.03925
G1 X87.55 Y119.449 E70.20488
G1 X87.55 Y95.064 E72.63803
G1 X87.632 Y94.008 E72.74371
G1 X87.83 Y93.007 E72.84553
G1 X88.196 Y91.987 E72.95366
G1 X88.651 Y91.075 E73.05535
G1 X89.06 Y90.461 E73.12897
G1 X89.389 Y90.053 E73.18126
G1 X90.055 Y89.351 E73.27782
G0 F3600 X90.628 Y89.911
G1 F1800 X91.172 Y89.473 E73.34751
G1 X91.93 Y88.98 E73.43773
G1 X92.416 Y88.739 E73.49186
G1 X93.258 Y88.412 E73.58199
G1 X93.956 Y88.241 E73.65369
G1 X94.88 Y88.114 E73.74676
G1 X97.354 Y88.097 E73.99362
G1 X99.075 Y88.1 E74.16534
G1 X136.688 Y88.1 E77.91838
G1 X137.704 Y88.187 E78.02013
G1 X138.024 Y88.242 E78.05253
G1 X138.699 Y88.398 E78.12165
G1 X139.351 Y88.631 E78.19074
G1 X139.918 Y88.902 E78.25345
G1 X140.518 Y89.248 E78.32255
G1 X141.063 Y89.652 E78.39025
G1 X141.724 Y90.254 E78.47946
G1 X142.156 Y90.762 E78.54599
G1 X142.673 Y91.507 E78.63648
G1 X142.952 Y92.036 E78.69615
G1 X143.292 Y92.863 E78.78537
G1 X143.461 Y93.484 E78.84959
G1 X143.612 Y94.377 E78.93996
G1 X143.64 Y94.917 E78.99391
G1 X143.653 Y96.925 E79.19427
G1 X143.651 Y97.896 E79.29116
G1 X144.435 Y97.496 E79.37898
G1 X144.889 Y97.3 E79.42832
G1 X145.501 Y97.075 E79.49339
G1 X145.988 Y96.925 E79.54423
G1 X146.559 Y96.779 E79.60304
G1 X147.061 Y96.677 E79.65415
G1 X147.651 Y96.588 E79.71369
G1 X148.154 Y96.537 E79.76414
G1 X148.753 Y96.506 E79.82398
G1 X154.996 Y96.5 E80.44691
G1 X155.603 Y96.53 E80.50755
G1 X156.596 Y96.63 E80.60714
G1 X157.481 Y96.787 E80.69682
G1 X157.97 Y96.912 E80.74718
G1 X158.56 Y97.096 E80.80885
G1 X159.04 Y97.273 E80.8599
G1 X159.585 Y97.505 E80.919
G1 X160.038 Y97.725 E80.96925
G1 X160.599 Y98.035 E81.0332
G1 X161.029 Y98.304 E81.08381
G1 X161.51 Y98.639 E81.1423
G1 X161.907 Y98.945 E81.19231
G1 X162.363 Y99.334 E81.25212
G1 X162.739 Y99.689 E81.30372
G1 X163.168 Y100.139 E81.36575
G1 X163.507 Y100.533 E81.41762
G1 X163.89 Y101.028 E81.48007
G1 X164.179 Y101.445 E81.53069
G1 X164.508 Y101.976 E81.59302
G1 X164.755 Y102.426 E81.64424
G1 X165.004 Y102.935 E81.70078
G1 X165.2 Y103.389 E81.75012
G1 X165.425 Y104.001 E81.81518
G1 X165.575 Y104.488 E81.86603
G1 X165.72 Y105.055 E81.92443
G1 X165.822 Y105.555 E81.97534
G1 X165.913 Y106.15 E82.0354
G1 X165.964 Y106.654 E82.08595
G1 X165.994 Y107.256 E82.14609
G1 X166 Y122.503 E83.66744
G1 X165.965 Y123.333 E83.75033
G1 X165.903 Y123.931 E83.81032
G1 X165.826 Y124.43 E83.8607
