;FLAVOR:Marlin
;TIME:2034
;Filament used: 3.38186m
;Layer height: 0.2
;MINX:89.4
;MINY:111.4
;MINZ:0.3
;MAXX:151.424
;MAXY:197.038
;MAXZ:14.9
;Generated with Cura_SteamEngine 4.6.1
M140 S80
M105
M190 S80
M104 S230
M105
M109 S230
M82 ;absolute extrusion mode
G21 ;metric values
G90 ;absolute positioning
M82 ;set extruder to absolute mode
M107 ;start with the fan off
G28 X0 Y0 ;move X/Y to min endstops
G28 Z0 ;move Z to min endstops
G1 Z15.0 F9000 ;move the platform down 15mm
G92 E0 ;zero the extruded length
G1 F200 E6 ;extrude 6 mm of feed stock
G92 E0 ;zero the extruded length again
G1 F9000
;Put printing message on LCD screen
M117 Printing...
G92 E0
G92 E0
G1 F1500 E-6.5
;LAYER_COUNT:74
;LAYER:0
M107
G0 F3600 X93.521 Y113.619 Z0.3
;TYPE:SKIRT
G1 F1500 E0
G1 F1800 X93.865 Y113.364 E0.04273
G1 X94.786 Y112.779 E0.1516
G1 X95.159 Y112.578 E0.19387
G1 X96.133 Y112.138 E0.30052
G1 X96.534 Y111.99 E0.34317
G1 X97.587 Y111.686 E0.45253
G1 X98.011 Y111.596 E0.49578
G1 X99.046 Y111.449 E0.60008
G1 X100.008 Y111.4 E0.6962
G1 X139.991 Y111.4 E4.68572
G1 X141.014 Y111.456 E4.78795
G1 X142.101 Y111.618 E4.89761
G1 X142.525 Y111.713 E4.94096
G1 X143.64 Y112.055 E5.05733
G1 X144.073 Y112.225 E5.10375
G1 X144.962 Y112.641 E5.20168
G1 X145.298 Y112.826 E5.23996
G1 X146.212 Y113.419 E5.34867
G1 X146.555 Y113.678 E5.39155
G1 X147.376 Y114.396 E5.50038
G1 X147.677 Y114.7 E5.54307
G1 X148.381 Y115.521 E5.65098
G1 X148.636 Y115.865 E5.69371
G1 X149.221 Y116.786 E5.80258
G1 X149.422 Y117.159 E5.84485
G1 X149.862 Y118.133 E5.9515
G1 X150.01 Y118.534 E5.99415
G1 X150.315 Y119.591 E6.10392
G1 X150.405 Y120.016 E6.14727
G1 X150.552 Y121.06 E6.25246
G1 X150.596 Y121.961 E6.34247
G1 X150.6 Y147.99 E8.93966
G1 X150.578 Y148.566 E8.99717
G1 X150.544 Y149.014 E9.042
G1 X150.383 Y150.095 E9.15106
G1 X150.289 Y150.516 E9.1941
G1 X150.081 Y151.267 E9.27185
G1 X149.776 Y152.071 E9.35766
G1 X149.359 Y152.962 E9.45581
G1 X149.174 Y153.298 E9.49409
G1 X148.943 Y153.654 E9.53643
G1 X149.203 Y153.956 E9.57619
G1 X149.459 Y154.301 E9.61906
G1 X150.046 Y155.225 E9.72829
G1 X150.247 Y155.598 E9.77057
G1 X150.693 Y156.589 E9.879
G1 X150.841 Y156.993 E9.92193
G1 X151.141 Y158.035 E10.03013
G1 X151.23 Y158.456 E10.07306
G1 X151.374 Y159.483 E10.17654
G1 X151.424 Y160.445 E10.27266
G1 X151.424 Y186.172 E12.83971
G1 X151.386 Y187.182 E12.94056
G1 X151.312 Y187.958 E13.01834
G1 X151.123 Y188.907 E13.11489
G1 X150.795 Y190.014 E13.23009
G1 X150.644 Y190.41 E13.27238
G1 X150.193 Y191.381 E13.37921
G1 X149.985 Y191.757 E13.42209
G1 X149.391 Y192.67 E13.53077
G1 X149.14 Y193.001 E13.57222
G1 X148.431 Y193.809 E13.67948
G1 X148.125 Y194.112 E13.72245
G1 X147.321 Y194.805 E13.82836
G1 X146.975 Y195.063 E13.87142
G1 X146.037 Y195.66 E13.98237
G1 X145.664 Y195.861 E14.02464
G1 X144.673 Y196.307 E14.13308
G1 X144.269 Y196.455 E14.17601
G1 X143.229 Y196.754 E14.28399
G1 X142.804 Y196.844 E14.32733
G1 X141.65 Y196.997 E14.44349
G1 X141.126 Y197.026 E14.49585
G1 X100.976 Y197.038 E18.50204
G1 X100.039 Y197 E18.59561
G1 X99.263 Y196.921 E18.67344
G1 X98.313 Y196.727 E18.77018
G1 X97.256 Y196.412 E18.88024
G1 X96.866 Y196.264 E18.92186
G1 X95.873 Y195.802 E19.03114
G1 X95.493 Y195.591 E19.07451
G1 X94.599 Y195.009 E19.18095
G1 X94.267 Y194.758 E19.22248
G1 X93.45 Y194.043 E19.33081
G1 X93.147 Y193.737 E19.37378
G1 X92.435 Y192.907 E19.48289
G1 X92.18 Y192.562 E19.5257
G1 X91.606 Y191.658 E19.63255
G1 X91.405 Y191.286 E19.67474
G1 X90.959 Y190.3 E19.78272
G1 X90.808 Y189.89 E19.82631
G1 X90.501 Y188.819 E19.93748
G1 X90.414 Y188.403 E19.97989
G1 X90.273 Y187.395 E20.08145
G1 X90.224 Y186.446 E20.17626
G1 X90.224 Y160.703 E22.74491
G1 X90.26 Y159.705 E22.84456
G1 X90.334 Y158.929 E22.92234
G1 X90.424 Y158.434 E22.97254
G1 X90.524 Y157.97 E23.0199
G1 X90.727 Y157.217 E23.09772
G1 X91.017 Y156.436 E23.18084
G1 X91.452 Y155.504 E23.28347
G1 X91.66 Y155.127 E23.32643
G1 X91.881 Y154.784 E23.36715
G1 X91.617 Y154.476 E23.40762
G1 X91.36 Y154.129 E23.45071
G1 X90.773 Y153.205 E23.55994
G1 X90.573 Y152.833 E23.60208
G1 X90.135 Y151.86 E23.70855
G1 X89.987 Y151.458 E23.75129
G1 X89.683 Y150.404 E23.86075
G1 X89.594 Y149.983 E23.90369
G1 X89.449 Y148.955 E24.00728
G1 X89.4 Y147.993 E24.10339
G1 X89.4 Y122.009 E26.69608
G1 X89.422 Y121.434 E26.7535
G1 X89.456 Y120.986 E26.79833
G1 X89.617 Y119.905 E26.90738
G1 X89.711 Y119.484 E26.95042
G1 X89.919 Y118.733 E27.02818
G1 X90.224 Y117.929 E27.11398
G1 X90.641 Y117.038 E27.21214
G1 X90.826 Y116.702 E27.25041
G1 X91.415 Y115.794 E27.35841
G1 X91.672 Y115.453 E27.40101
G1 X92.394 Y114.627 E27.51048
G1 X92.7 Y114.324 E27.55345
G1 X93.521 Y113.619 E27.66142
G0 F3600 X93.998 Y114.261
G1 F1800 X94.342 Y114.006 E27.70415
G1 X95.165 Y113.483 E27.80145
G1 X95.538 Y113.282 E27.84373
G1 X96.41 Y112.889 E27.93916
G1 X96.811 Y112.741 E27.98181
G1 X97.753 Y112.468 E28.07967
G1 X98.177 Y112.378 E28.12292
G1 X99.103 Y112.247 E28.21624
G1 X100.008 Y112.2 E28.30666
G1 X139.991 Y112.2 E32.29618
G1 X140.954 Y112.253 E32.39242
G1 X141.926 Y112.399 E32.49049
G1 X142.35 Y112.494 E32.53385
G1 X143.348 Y112.799 E32.63798
G1 X143.781 Y112.969 E32.68439
G1 X144.576 Y113.342 E32.77201
G1 X144.912 Y113.527 E32.81029
G1 X145.73 Y114.057 E32.90754
G1 X146.073 Y114.316 E32.95043
G1 X146.807 Y114.959 E33.04779
G1 X147.108 Y115.263 E33.09048
G1 X147.739 Y115.998 E33.18714
G1 X147.994 Y116.342 E33.22986
G1 X148.517 Y117.165 E33.32716
G1 X148.718 Y117.538 E33.36944
G1 X149.111 Y118.41 E33.46488
G1 X149.259 Y118.811 E33.50753
G1 X149.532 Y119.756 E33.60567
G1 X149.622 Y120.181 E33.64902
G1 X149.753 Y121.116 E33.74323
G1 X149.796 Y121.961 E33.82765
G1 X149.8 Y147.99 E36.42484
G1 X149.781 Y148.506 E36.47636
G1 X149.747 Y148.954 E36.52119
G1 X149.603 Y149.921 E36.61874
G1 X149.509 Y150.342 E36.66178
G1 X149.203 Y151.343 E36.76622
G1 X149.032 Y151.779 E36.81295
G1 X148.658 Y152.576 E36.9008
G1 X148.473 Y152.912 E36.93907
G1 X147.949 Y153.72 E37.03516
G1 X148.561 Y154.433 E37.12892
G1 X148.817 Y154.778 E37.17179
G1 X149.342 Y155.604 E37.26945
G1 X149.543 Y155.977 E37.31172
G1 X149.942 Y156.864 E37.40877
G1 X150.09 Y157.268 E37.4517
G1 X150.358 Y158.201 E37.54856
G1 X150.447 Y158.622 E37.5915
G1 X150.576 Y159.54 E37.684
G1 X150.624 Y160.445 E37.77442
G1 X150.624 Y186.172 E40.34147
G1 X150.587 Y187.146 E40.43873
G1 X150.514 Y187.88 E40.51233
G1 X150.341 Y188.739 E40.59976
G1 X150.048 Y189.729 E40.70278
G1 X149.897 Y190.125 E40.74507
G1 X149.493 Y190.994 E40.84069
G1 X149.285 Y191.37 E40.88357
G1 X148.753 Y192.187 E40.98085
G1 X148.502 Y192.518 E41.0223
G1 X147.869 Y193.241 E41.11818
G1 X147.563 Y193.544 E41.16115
G1 X146.843 Y194.163 E41.25589
G1 X146.497 Y194.421 E41.29896
G1 X145.658 Y194.956 E41.39824
G1 X145.285 Y195.157 E41.44052
G1 X144.398 Y195.556 E41.53757
G1 X143.994 Y195.704 E41.5805
G1 X143.064 Y195.971 E41.67704
G1 X142.639 Y196.061 E41.72039
G1 X141.606 Y196.199 E41.82438
G1 X141.082 Y196.228 E41.87674
G1 X100.976 Y196.238 E45.87854
G1 X100.079 Y196.201 E45.96812
G1 X99.346 Y196.124 E46.04166
G1 X98.486 Y195.946 E46.12929
G1 X97.539 Y195.664 E46.22788
G1 X97.149 Y195.516 E46.2695
G1 X96.261 Y195.103 E46.36722
G1 X95.881 Y194.892 E46.41059
G1 X95.081 Y194.371 E46.50585
G1 X94.749 Y194.12 E46.54738
G1 X94.018 Y193.481 E46.64426
G1 X93.715 Y193.175 E46.68723
G1 X93.079 Y192.432 E46.78482
G1 X92.824 Y192.087 E46.82762
G1 X92.309 Y191.278 E46.92331
G1 X92.108 Y190.906 E46.9655
G1 X91.71 Y190.023 E47.06215
G1 X91.559 Y189.613 E47.10574
G1 X91.284 Y188.655 E47.20519
G1 X91.197 Y188.239 E47.2476
G1 X91.071 Y187.337 E47.33848
G1 X91.024 Y186.446 E47.4275
G1 X91.024 Y160.703 E49.99615
G1 X91.059 Y159.74 E50.0923
G1 X91.131 Y159.006 E50.16589
G1 X91.306 Y158.138 E50.25424
G1 X91.61 Y157.12 E50.36025
G1 X91.763 Y156.724 E50.40261
G1 X92.152 Y155.89 E50.49444
G1 X92.36 Y155.513 E50.5374
G1 X92.875 Y154.717 E50.632
G1 X92.26 Y154 E50.72625
G1 X92.003 Y153.653 E50.76934
G1 X91.478 Y152.826 E50.86708
G1 X91.278 Y152.454 E50.90922
G1 X90.886 Y151.583 E51.00453
G1 X90.738 Y151.181 E51.04727
G1 X90.466 Y150.238 E51.1452
G1 X90.377 Y149.817 E51.18814
G1 X90.247 Y148.898 E51.28075
G1 X90.2 Y147.993 E51.37117
G1 X90.2 Y122.009 E53.96387
G1 X90.219 Y121.494 E54.01529
G1 X90.253 Y121.046 E54.06012
G1 X90.397 Y120.079 E54.15767
G1 X90.491 Y119.658 E54.20071
G1 X90.797 Y118.657 E54.30515
G1 X90.968 Y118.221 E54.35188
G1 X91.342 Y117.424 E54.43973
G1 X91.527 Y117.088 E54.478
G1 X92.054 Y116.275 E54.57468
G1 X92.311 Y115.934 E54.61728
G1 X92.956 Y115.195 E54.71516
G1 X93.262 Y114.892 E54.75812
G1 X93.998 Y114.261 E54.85486
G0 F3600 X94.474 Y114.904
G1 F1800 X94.818 Y114.649 E54.89758
G1 X95.545 Y114.187 E54.98353
G1 X95.918 Y113.986 E55.02581
G1 X96.687 Y113.639 E55.10999
G1 X97.088 Y113.491 E55.15264
G1 X97.919 Y113.251 E55.23895
G1 X98.343 Y113.161 E55.2822
G1 X99.161 Y113.045 E55.36464
G1 X100.008 Y113 E55.44927
G1 X139.991 Y113 E59.43879
G1 X140.893 Y113.051 E59.52893
G1 X141.751 Y113.179 E59.61549
G1 X142.175 Y113.274 E59.65885
G1 X143.056 Y113.544 E59.75079
G1 X143.489 Y113.714 E59.79721
G1 X144.19 Y114.043 E59.87447
G1 X144.526 Y114.228 E59.91275
G1 X145.248 Y114.696 E59.9986
G1 X145.591 Y114.955 E60.04148
G1 X146.239 Y115.521 E60.12733
G1 X146.54 Y115.825 E60.17002
G1 X147.096 Y116.474 E60.25529
G1 X147.351 Y116.818 E60.29802
G1 X147.813 Y117.545 E60.38397
G1 X148.014 Y117.918 E60.42625
G1 X148.361 Y118.687 E60.51043
G1 X148.509 Y119.088 E60.55308
G1 X148.75 Y119.922 E60.6397
G1 X148.84 Y120.347 E60.68305
G1 X148.955 Y121.172 E60.76616
G1 X148.996 Y121.961 E60.84499
G1 X149 Y147.99 E63.44218
G1 X148.949 Y148.893 E63.53242
G1 X148.822 Y149.746 E63.61847
G1 X148.728 Y150.167 E63.66152
G1 X148.458 Y151.051 E63.75374
G1 X148.287 Y151.487 E63.80047
G1 X147.957 Y152.19 E63.87796
G1 X147.772 Y152.526 E63.91624
G1 X147.308 Y153.243 E64.00145
G1 X146.87 Y153.791 E64.07145
G1 X147.363 Y154.263 E64.13955
G1 X147.918 Y154.91 E64.22461
G1 X148.174 Y155.255 E64.26748
G1 X148.638 Y155.984 E64.3537
G1 X148.839 Y156.357 E64.39598
G1 X149.191 Y157.139 E64.48155
G1 X149.339 Y157.543 E64.52448
G1 X149.575 Y158.366 E64.60991
G1 X149.664 Y158.787 E64.65284
G1 X149.779 Y159.597 E64.73447
G1 X149.824 Y160.445 E64.81921
G1 X149.824 Y186.172 E67.38626
G1 X149.788 Y187.11 E67.47992
G1 X149.659 Y188.106 E67.58013
G1 X149.559 Y188.57 E67.62749
G1 X149.3 Y189.444 E67.71845
G1 X149.149 Y189.84 E67.76074
G1 X148.793 Y190.606 E67.84502
G1 X148.585 Y190.982 E67.8879
G1 X148.116 Y191.703 E67.97372
G1 X147.865 Y192.034 E68.01517
G1 X147.306 Y192.672 E68.09981
G1 X147 Y192.975 E68.14278
G1 X146.365 Y193.522 E68.2264
G1 X146.019 Y193.78 E68.26947
G1 X145.278 Y194.252 E68.35713
G1 X144.905 Y194.453 E68.39941
G1 X144.123 Y194.805 E68.48498
G1 X143.719 Y194.953 E68.52791
G1 X142.898 Y195.189 E68.61315
G1 X142.473 Y195.279 E68.65649
G1 X141.562 Y195.4 E68.74819
G1 X141.038 Y195.429 E68.80056
G1 X100.976 Y195.438 E72.79796
G1 X100.12 Y195.402 E72.88345
G1 X99.129 Y195.269 E72.98322
G1 X98.658 Y195.165 E73.03134
G1 X97.823 Y194.916 E73.11829
G1 X97.433 Y194.768 E73.15991
G1 X96.649 Y194.404 E73.24616
G1 X96.269 Y194.193 E73.28953
G1 X95.564 Y193.733 E73.37352
G1 X95.232 Y193.482 E73.41505
G1 X94.587 Y192.918 E73.50054
G1 X94.284 Y192.612 E73.54351
G1 X93.722 Y191.956 E73.6297
G1 X93.467 Y191.611 E73.67251
G1 X93.013 Y190.897 E73.75694
G1 X92.812 Y190.525 E73.79913
G1 X92.461 Y189.747 E73.88429
G1 X92.31 Y189.337 E73.92789
G1 X92.067 Y188.491 E74.01571
G1 X91.98 Y188.075 E74.05812
G1 X91.869 Y187.28 E74.13822
G1 X91.824 Y186.446 E74.22155
G1 X91.824 Y160.703 E76.7902
G1 X91.859 Y159.775 E76.88286
G1 X91.988 Y158.771 E76.98387
G1 X92.088 Y158.307 E77.03123
G1 X92.356 Y157.409 E77.12474
G1 X92.509 Y157.013 E77.1671
G1 X92.853 Y156.277 E77.24816
G1 X93.061 Y155.9 E77.29112
G1 X93.516 Y155.196 E77.37476
G1 X93.954 Y154.647 E77.44484
G1 X93.46 Y154.175 E77.51301
G1 X92.902 Y153.524 E77.59857
G1 X92.645 Y153.177 E77.64165
G1 X92.182 Y152.447 E77.72791
G1 X91.982 Y152.075 E77.77005
G1 X91.636 Y151.307 E77.8541
G1 X91.488 Y150.905 E77.89684
G1 X91.249 Y150.073 E77.98322
G1 X91.16 Y149.652 E78.02615
G1 X91.045 Y148.841 E78.10789
G1 X91 Y147.993 E78.19262
G1 X91 Y122.009 E80.78531
G1 X91.051 Y121.107 E80.87546
G1 X91.178 Y120.254 E80.96151
G1 X91.272 Y119.833 E81.00455
G1 X91.542 Y118.949 E81.09678
G1 X91.713 Y118.513 E81.14351
G1 X92.043 Y117.81 E81.221
G1 X92.228 Y117.474 E81.25927
G1 X92.692 Y116.757 E81.34449
G1 X92.949 Y116.416 E81.38709
G1 X93.519 Y115.764 E81.47351
G1 X93.825 Y115.461 E81.51648
G1 X94.474 Y114.904 E81.60181
G0 F3600 X94.95 Y115.547
G1 F1800 X95.294 Y115.292 E81.64454
G1 X95.924 Y114.891 E81.71905
G1 X96.297 Y114.69 E81.76133
G1 X96.964 Y114.39 E81.83431
G1 X97.365 Y114.242 E81.87696
G1 X98.085 Y114.033 E81.95177
G1 X98.509 Y113.943 E81.99501
G1 X99.218 Y113.843 E82.06646
G1 X100.008 Y113.8 E82.1454
G1 X139.991 Y113.8 E86.13492
G1 X140.833 Y113.849 E86.21908
G1 X141.576 Y113.96 E86.29404
G1 X142 Y114.055 E86.3374
G1 X142.763 Y114.289 E86.41703
G1 X143.196 Y114.459 E86.46344
G1 X143.804 Y114.744 E86.53044
G1 X144.14 Y114.929 E86.56872
G1 X144.766 Y115.334 E86.64311
G1 X145.109 Y115.593 E86.686
G1 X145.67 Y116.084 E86.76039
G1 X145.971 Y116.388 E86.80307
G1 X146.453 Y116.95 E86.87695
G1 X146.708 Y117.294 E86.91967
G1 X147.109 Y117.924 E86.99419
G1 X147.31 Y118.297 E87.03647
G1 X147.61 Y118.964 E87.10944
G1 X147.758 Y119.365 E87.15209
G1 X147.967 Y120.088 E87.22719
G1 X148.057 Y120.513 E87.27054
G1 X148.157 Y121.227 E87.34247
G1 X148.196 Y121.961 E87.41582
G1 X148.2 Y147.99 E90.013
G1 X148.151 Y148.833 E90.09726
G1 X148.041 Y149.572 E90.17181
G1 X147.947 Y149.993 E90.21485
G1 X147.713 Y150.759 E90.29477
G1 X147.542 Y151.195 E90.3415
G1 X147.256 Y151.804 E90.40863
G1 X147.071 Y152.14 E90.4469
G1 X146.669 Y152.762 E90.5208
G1 X146.412 Y153.103 E90.56341
G1 X145.918 Y153.668 E90.63829
G1 X145.716 Y153.868 E90.66666
G1 X145.929 Y154.028 E90.69324
G1 X146.492 Y154.52 E90.76784
G1 X146.795 Y154.826 E90.81081
G1 X147.276 Y155.386 E90.88447
G1 X147.532 Y155.731 E90.92734
G1 X147.934 Y156.363 E91.00207
G1 X148.135 Y156.736 E91.04435
G1 X148.44 Y157.414 E91.11853
G1 X148.588 Y157.818 E91.16146
G1 X148.793 Y158.531 E91.23549
G1 X148.882 Y158.952 E91.27843
G1 X148.981 Y159.655 E91.34926
G1 X149.024 Y160.445 E91.42821
G1 X149.024 Y186.172 E93.99526
G1 X148.989 Y187.075 E94.08543
G1 X148.877 Y187.938 E94.17226
G1 X148.777 Y188.402 E94.21962
G1 X148.553 Y189.159 E94.29839
G1 X148.402 Y189.555 E94.34068
G1 X148.093 Y190.219 E94.41376
G1 X147.885 Y190.595 E94.45663
G1 X147.478 Y191.22 E94.53105
G1 X147.227 Y191.551 E94.5725
G1 X146.743 Y192.104 E94.64583
G1 X146.437 Y192.407 E94.6888
G1 X145.886 Y192.881 E94.76132
G1 X145.54 Y193.139 E94.80439
G1 X144.899 Y193.548 E94.88026
G1 X144.526 Y193.749 E94.92253
G1 X143.848 Y194.054 E94.99672
G1 X143.444 Y194.202 E95.03965
G1 X142.732 Y194.406 E95.11355
G1 X142.307 Y194.496 E95.1569
G1 X141.517 Y194.601 E95.23642
G1 X140.993 Y194.63 E95.28878
G1 X100.976 Y194.638 E99.28169
G1 X100.16 Y194.603 E99.36319
G1 X99.302 Y194.488 E99.44957
G1 X98.831 Y194.384 E99.49769
G1 X98.107 Y194.168 E99.57308
G1 X97.717 Y194.02 E99.6147
G1 X97.038 Y193.704 E99.68943
G1 X96.658 Y193.493 E99.7328
G1 X96.046 Y193.095 E99.80565
G1 X95.714 Y192.844 E99.84717
G1 X95.155 Y192.355 E99.92128
G1 X94.852 Y192.049 E99.96425
G1 X94.365 Y191.481 E100.03891
G1 X94.11 Y191.136 E100.08171
G1 X93.717 Y190.517 E100.15487
G1 X93.516 Y190.145 E100.19706
G1 X93.211 Y189.47 E100.27097
G1 X93.06 Y189.06 E100.31457
G1 X92.85 Y188.327 E100.39065
G1 X92.763 Y187.911 E100.43306
G1 X92.667 Y187.222 E100.50247
G1 X92.624 Y186.446 E100.58002
G1 X92.624 Y160.703 E103.14866
G1 X92.658 Y159.809 E103.23793
G1 X92.77 Y158.939 E103.32546
G1 X92.87 Y158.475 E103.37282
G1 X93.102 Y157.697 E103.45383
G1 X93.255 Y157.301 E103.49619
G1 X93.553 Y156.663 E103.56645
G1 X93.761 Y156.286 E103.60941
G1 X94.155 Y155.676 E103.68187
G1 X94.405 Y155.343 E103.72342
G1 X94.905 Y154.77 E103.7993
G1 X95.107 Y154.57 E103.82766
G1 X94.891 Y154.407 E103.85466
G1 X94.33 Y153.916 E103.92905
G1 X94.029 Y153.612 E103.97174
G1 X93.545 Y153.048 E104.04589
