;FLAVOR:Marlin
;TIME:20006
;Filament used: 30.4205m
;Layer height: 0.2
;MINX:44.384
;MINY:63.885
;MINZ:0.3
;MAXX:195.615
;MAXY:206.116
;MAXZ:19.9
;Generated with Cura_SteamEngine 4.6.1
M140 S60
M105
M190 S60
M104 S200
M105
M109 S200
M82 ;absolute extrusion mode
G21 ;metric values
G90 ;absolute positioning
M82 ;set extruder to absolute mode
M107 ;start with the fan off
G28 X0 Y0 ;move X/Y to min endstops
G28 Z0 ;move Z to min endstops
G1 Z15.0 F9000 ;move the platform down 15mm
G92 E0 ;zero the extruded length
G1 F200 E6 ;extrude 6 mm of feed stock
G92 E0 ;zero the extruded length again
G1 F9000
;Put printing message on LCD screen
M117 Printing...
G92 E0
G92 E0
G1 F1500 E-6.5
;LAYER_COUNT:99
;LAYER:0
M107
G0 F3600 X47.657 Y65.511 Z0.3
;TYPE:SKIRT
G1 F1500 E0
G1 F1800 X48.228 Y65.132 E0.06838
G1 X49.106 Y64.652 E0.16823
G1 X49.828 Y64.358 E0.24601
G1 X50.467 Y64.166 E0.31259
G1 X51.43 Y63.964 E0.41077
G1 X52.526 Y63.885 E0.52041
G1 X91.471 Y63.885 E4.40636
G1 X92.249 Y63.925 E4.48409
G1 X93.02 Y64.044 E4.56193
G1 X93.774 Y64.242 E4.63972
G1 X94.583 Y64.551 E4.72613
G1 X94.984 Y64.731 E4.76999
G1 X95.678 Y65.087 E4.84781
G1 X95.991 Y65.29 E4.88504
G1 X96.418 Y65.018 E4.93555
G1 X97.106 Y64.652 E5.01331
G1 X97.828 Y64.358 E5.0911
G1 X98.467 Y64.166 E5.15767
G1 X99.43 Y63.964 E5.25585
G1 X100.526 Y63.885 E5.3655
G1 X139.471 Y63.885 E9.25144
G1 X140.249 Y63.925 E9.32917
G1 X141.02 Y64.044 E9.40702
G1 X141.774 Y64.242 E9.4848
G1 X142.583 Y64.551 E9.57121
G1 X142.984 Y64.731 E9.61507
G1 X143.678 Y65.087 E9.6929
G1 X143.991 Y65.29 E9.73012
G1 X144.418 Y65.018 E9.78064
G1 X145.106 Y64.652 E9.8584
G1 X145.828 Y64.358 E9.93618
G1 X146.467 Y64.166 E10.00276
G1 X147.43 Y63.964 E10.10094
G1 X148.526 Y63.885 E10.21058
G1 X187.471 Y63.885 E14.09653
G1 X188.249 Y63.925 E14.17426
G1 X189.02 Y64.044 E14.2521
G1 X189.774 Y64.242 E14.32989
G1 X190.583 Y64.551 E14.4163
G1 X190.984 Y64.731 E14.46015
G1 X191.678 Y65.087 E14.53798
G1 X192.332 Y65.511 E14.61575
G1 X192.939 Y66 E14.69353
G1 X193.492 Y66.549 E14.77128
G1 X194.064 Y67.258 E14.86218
G1 X194.562 Y68.027 E14.95359
G1 X194.911 Y68.723 E15.03128
G1 X195.187 Y69.452 E15.10906
G1 X195.378 Y70.141 E15.1804
G1 X195.532 Y70.905 E15.25817
G1 X195.615 Y72.026 E15.37033
G1 X195.615 Y105.973 E18.75757
G1 X195.575 Y106.751 E18.8353
G1 X195.395 Y107.79 E18.94052
G1 X195.122 Y108.731 E19.03829
G1 X194.822 Y109.45 E19.11602
G1 X194.348 Y110.297 E19.21287
G1 X193.759 Y111.133 E19.31491
G1 X193.24 Y111.714 E19.39264
G1 X192.939 Y112 E19.43407
G1 X193.492 Y112.549 E19.51183
G1 X194.064 Y113.258 E19.60272
G1 X194.562 Y114.027 E19.69414
G1 X194.911 Y114.723 E19.77183
G1 X195.187 Y115.452 E19.84961
G1 X195.378 Y116.141 E19.92095
G1 X195.532 Y116.905 E19.99871
G1 X195.615 Y118.026 E20.11087
G1 X195.615 Y151.973 E23.49812
G1 X195.575 Y152.751 E23.57585
G1 X195.395 Y153.79 E23.68107
G1 X195.122 Y154.731 E23.77883
G1 X194.822 Y155.45 E23.85657
G1 X194.348 Y156.297 E23.95342
G1 X193.759 Y157.133 E24.05546
G1 X193.24 Y157.714 E24.13319
G1 X192.939 Y158 E24.17462
G1 X193.492 Y158.549 E24.25237
G1 X194.064 Y159.258 E24.34327
G1 X194.562 Y160.027 E24.43469
G1 X194.911 Y160.723 E24.51237
G1 X195.187 Y161.452 E24.59015
G1 X195.378 Y162.141 E24.66149
G1 X195.532 Y162.905 E24.73926
G1 X195.615 Y164.026 E24.85142
G1 X195.615 Y197.973 E28.23867
G1 X195.575 Y198.751 E28.3164
G1 X195.395 Y199.79 E28.42161
G1 X195.122 Y200.731 E28.51938
G1 X194.822 Y201.45 E28.59712
G1 X194.348 Y202.297 E28.69396
G1 X193.759 Y203.133 E28.796
G1 X193.24 Y203.714 E28.87374
G1 X192.665 Y204.24 E28.9515
G1 X192.242 Y204.564 E29.00466
G1 X191.473 Y205.062 E29.09608
G1 X190.777 Y205.411 E29.17377
G1 X190.048 Y205.687 E29.25155
G1 X189.359 Y205.878 E29.32289
G1 X188.595 Y206.032 E29.40065
G1 X187.474 Y206.115 E29.51281
G1 X148.49 Y206.116 E33.40265
G1 X147.712 Y206.076 E33.48038
G1 X146.941 Y205.957 E33.55822
G1 X146.187 Y205.759 E33.63601
G1 X145.626 Y205.556 E33.69554
G1 X144.625 Y205.105 E33.80509
G1 X143.996 Y204.729 E33.87821
G1 X143.473 Y205.062 E33.94007
G1 X142.777 Y205.411 E34.01776
G1 X142.048 Y205.687 E34.09554
G1 X141.359 Y205.878 E34.16688
G1 X140.595 Y206.032 E34.24465
G1 X139.474 Y206.115 E34.35681
G1 X100.49 Y206.116 E38.24665
G1 X99.712 Y206.076 E38.32438
G1 X98.941 Y205.957 E38.40222
G1 X98.187 Y205.759 E38.48001
G1 X97.626 Y205.556 E38.53954
G1 X96.625 Y205.105 E38.64909
G1 X95.996 Y204.729 E38.72221
G1 X95.473 Y205.062 E38.78407
G1 X94.777 Y205.411 E38.86176
G1 X94.048 Y205.687 E38.93954
G1 X93.359 Y205.878 E39.01088
G1 X92.595 Y206.032 E39.08865
G1 X91.474 Y206.115 E39.20081
G1 X52.49 Y206.116 E43.09064
G1 X51.712 Y206.076 E43.16838
G1 X50.941 Y205.957 E43.24622
G1 X50.187 Y205.759 E43.324
G1 X49.626 Y205.556 E43.38353
G1 X48.625 Y205.105 E43.49308
G1 X47.957 Y204.705 E43.57077
G1 X47.333 Y204.237 E43.6486
G1 X46.589 Y203.527 E43.75122
G1 X45.985 Y202.808 E43.84491
G1 X45.553 Y202.159 E43.9227
G1 X45.19 Y201.469 E44.0005
G1 X44.863 Y200.64 E44.08942
G1 X44.557 Y199.575 E44.19999
G1 X44.432 Y198.806 E44.27772
G1 X44.385 Y197.966 E44.36167
G1 X44.384 Y164.025 E47.74832
G1 X44.424 Y163.247 E47.82605
G1 X44.543 Y162.476 E47.90389
G1 X44.707 Y161.816 E47.97175
G1 X44.946 Y161.073 E48.04963
G1 X45.259 Y160.36 E48.12732
G1 X45.643 Y159.682 E48.20507
G1 X46.008 Y159.157 E48.26887
G1 X46.5 Y158.553 E48.3466
G1 X47.052 Y158.002 E48.42443
G1 X47.071 Y157.987 E48.42684
G1 X46.589 Y157.527 E48.49332
G1 X45.985 Y156.808 E48.58702
G1 X45.553 Y156.159 E48.66481
G1 X45.19 Y155.469 E48.74261
G1 X44.863 Y154.64 E48.83153
G1 X44.557 Y153.575 E48.94209
G1 X44.432 Y152.806 E49.01983
G1 X44.385 Y151.966 E49.10378
G1 X44.384 Y118.025 E52.49042
G1 X44.424 Y117.247 E52.56816
G1 X44.543 Y116.476 E52.646
G1 X44.707 Y115.816 E52.71385
G1 X44.946 Y115.073 E52.79173
G1 X45.259 Y114.36 E52.86943
G1 X45.643 Y113.682 E52.94718
G1 X46.008 Y113.157 E53.01098
G1 X46.5 Y112.553 E53.08871
G1 X47.052 Y112.002 E53.16653
G1 X47.071 Y111.987 E53.16895
G1 X46.589 Y111.527 E53.23543
G1 X45.985 Y110.808 E53.32913
G1 X45.553 Y110.159 E53.40692
G1 X45.19 Y109.469 E53.48471
G1 X44.863 Y108.64 E53.57363
G1 X44.557 Y107.575 E53.6842
G1 X44.432 Y106.806 E53.76194
G1 X44.385 Y105.966 E53.84588
G1 X44.384 Y72.025 E57.23253
G1 X44.424 Y71.247 E57.31026
G1 X44.543 Y70.476 E57.3881
G1 X44.707 Y69.816 E57.45596
G1 X44.946 Y69.073 E57.53384
G1 X45.259 Y68.36 E57.61154
G1 X45.643 Y67.682 E57.68928
G1 X46.008 Y67.157 E57.75308
G1 X46.5 Y66.553 E57.83082
G1 X47.052 Y66.002 E57.90864
G1 X47.657 Y65.511 E57.98638
G0 F3600 X48.226 Y66.087
G1 F1800 X48.829 Y65.704 E58.05766
G1 X49.481 Y65.36 E58.13122
G1 X50.167 Y65.088 E58.20485
G1 X50.663 Y64.942 E58.25644
G1 X51.585 Y64.75 E58.35042
G1 X52.526 Y64.685 E58.44453
G1 X91.471 Y64.685 E62.33048
G1 X92.207 Y64.725 E62.40403
G1 X92.935 Y64.844 E62.47763
G1 X93.645 Y65.042 E62.55118
G1 X94.256 Y65.281 E62.61664
G1 X94.657 Y65.461 E62.6605
G1 X95.312 Y65.799 E62.73405
G1 X95.927 Y66.206 E62.80763
G1 X95.999 Y66.266 E62.81698
G1 X96.226 Y66.087 E62.84583
G1 X96.829 Y65.704 E62.91711
G1 X97.481 Y65.36 E62.99066
G1 X98.167 Y65.088 E63.0643
G1 X98.663 Y64.942 E63.11589
G1 X99.585 Y64.75 E63.20986
G1 X100.526 Y64.685 E63.30398
G1 X139.471 Y64.685 E67.18992
G1 X140.207 Y64.725 E67.26347
G1 X140.935 Y64.844 E67.33707
G1 X141.645 Y65.042 E67.41062
G1 X142.256 Y65.281 E67.47609
G1 X142.657 Y65.461 E67.51994
G1 X143.312 Y65.799 E67.59349
G1 X143.927 Y66.206 E67.66707
G1 X143.999 Y66.266 E67.67643
G1 X144.226 Y66.087 E67.70527
G1 X144.829 Y65.704 E67.77655
G1 X145.481 Y65.36 E67.85011
G1 X146.167 Y65.088 E67.92374
G1 X146.663 Y64.942 E67.97533
G1 X147.585 Y64.75 E68.0693
G1 X148.526 Y64.685 E68.16342
G1 X187.471 Y64.685 E72.04937
G1 X188.207 Y64.725 E72.12291
G1 X188.935 Y64.844 E72.19652
G1 X189.645 Y65.042 E72.27006
G1 X190.256 Y65.281 E72.33553
G1 X190.657 Y65.461 E72.37939
G1 X191.312 Y65.799 E72.45293
G1 X191.927 Y66.206 E72.52652
G1 X192.494 Y66.677 E72.60007
G1 X193.007 Y67.207 E72.67367
G1 X193.412 Y67.722 E72.73904
G1 X193.885 Y68.456 E72.82617
G1 X194.21 Y69.118 E72.89975
G1 X194.539 Y70.09 E73.00214
G1 X194.746 Y71.063 E73.1014
G1 X194.815 Y72.026 E73.19774
G1 X194.815 Y105.973 E76.58498
G1 X194.775 Y106.709 E76.65853
G1 X194.618 Y107.598 E76.74861
G1 X194.355 Y108.499 E76.84226
G1 X194.065 Y109.177 E76.91584
G1 X193.676 Y109.862 E76.99444
G1 X193.111 Y110.662 E77.09217
G1 X192.615 Y111.208 E77.16577
G1 X191.778 Y111.912 E77.2749
G1 X191.634 Y112.012 E77.29239
G1 X191.927 Y112.206 E77.32746
G1 X192.494 Y112.677 E77.40101
G1 X193.007 Y113.207 E77.47461
G1 X193.412 Y113.722 E77.53998
G1 X193.885 Y114.456 E77.62711
G1 X194.21 Y115.118 E77.70069
G1 X194.539 Y116.09 E77.80309
G1 X194.746 Y117.063 E77.90234
G1 X194.815 Y118.026 E77.99868
G1 X194.815 Y151.973 E81.38592
G1 X194.775 Y152.709 E81.45947
G1 X194.618 Y153.598 E81.54955
G1 X194.355 Y154.499 E81.6432
G1 X194.065 Y155.177 E81.71678
G1 X193.676 Y155.862 E81.79538
G1 X193.111 Y156.662 E81.89311
G1 X192.615 Y157.208 E81.96671
G1 X191.778 Y157.912 E82.07584
G1 X191.634 Y158.012 E82.09334
G1 X191.927 Y158.206 E82.1284
G1 X192.494 Y158.677 E82.20195
G1 X193.007 Y159.207 E82.27555
G1 X193.412 Y159.722 E82.34092
G1 X193.885 Y160.456 E82.42805
G1 X194.21 Y161.118 E82.50163
G1 X194.539 Y162.09 E82.60403
G1 X194.746 Y163.063 E82.70329
G1 X194.815 Y164.026 E82.79962
G1 X194.815 Y197.973 E86.18687
G1 X194.775 Y198.709 E86.26041
G1 X194.618 Y199.598 E86.35049
G1 X194.355 Y200.499 E86.44414
G1 X194.065 Y201.177 E86.51772
G1 X193.676 Y201.862 E86.59633
G1 X193.111 Y202.662 E86.69405
G1 X192.615 Y203.208 E86.76765
G1 X191.778 Y203.912 E86.87678
G1 X191.044 Y204.385 E86.96391
G1 X190.382 Y204.71 E87.0375
G1 X189.41 Y205.039 E87.13989
G1 X188.437 Y205.246 E87.23915
G1 X187.474 Y205.315 E87.33548
G1 X148.49 Y205.316 E91.22532
G1 X147.754 Y205.276 E91.29887
G1 X147.026 Y205.157 E91.37247
G1 X146.316 Y204.959 E91.44602
G1 X145.633 Y204.695 E91.51908
G1 X144.966 Y204.38 E91.59269
G1 X144.337 Y203.996 E91.66622
G1 X143.994 Y203.731 E91.70947
G1 X143.667 Y203.991 E91.75115
G1 X143.044 Y204.385 E91.82471
G1 X142.382 Y204.71 E91.89829
G1 X141.41 Y205.039 E92.00068
G1 X140.437 Y205.246 E92.09994
G1 X139.474 Y205.315 E92.19628
G1 X100.49 Y205.316 E96.08612
G1 X99.754 Y205.276 E96.15966
G1 X99.026 Y205.157 E96.23327
G1 X98.316 Y204.959 E96.30681
G1 X97.633 Y204.695 E96.37988
G1 X96.966 Y204.38 E96.45348
G1 X96.337 Y203.996 E96.52701
G1 X95.994 Y203.731 E96.57026
G1 X95.667 Y203.991 E96.61195
G1 X95.044 Y204.385 E96.6855
G1 X94.382 Y204.71 E96.75909
G1 X93.41 Y205.039 E96.86148
G1 X92.437 Y205.246 E96.96074
G1 X91.474 Y205.315 E97.05707
G1 X52.49 Y205.316 E100.94691
G1 X51.754 Y205.276 E101.02046
G1 X51.026 Y205.157 E101.09406
G1 X50.316 Y204.959 E101.16761
G1 X49.633 Y204.695 E101.24067
G1 X48.966 Y204.38 E101.31427
G1 X48.337 Y203.996 E101.38781
G1 X47.753 Y203.545 E101.46143
G1 X47.179 Y202.987 E101.54131
G1 X46.603 Y202.299 E101.63084
G1 X46.2 Y201.682 E101.70437
G1 X45.866 Y201.024 E101.778
G1 X45.624 Y200.391 E101.84562
G1 X45.331 Y199.367 E101.9519
G1 X45.218 Y198.638 E102.02551
G1 X45.185 Y197.966 E102.09264
G1 X45.184 Y164.025 E105.47929
G1 X45.224 Y163.289 E105.55283
G1 X45.412 Y162.281 E105.65515
G1 X45.708 Y161.319 E105.75558
G1 X46.01 Y160.647 E105.82909
G1 X46.568 Y159.746 E105.93484
G1 X47.12 Y159.06 E106.02269
G1 X47.647 Y158.543 E106.09636
G1 X48.226 Y158.087 E106.1699
G1 X48.352 Y158.005 E106.1849
G1 X47.753 Y157.545 E106.26026
G1 X47.179 Y156.987 E106.34013
G1 X46.603 Y156.299 E106.42966
G1 X46.2 Y155.682 E106.5032
G1 X45.866 Y155.024 E106.57683
G1 X45.624 Y154.391 E106.64445
G1 X45.331 Y153.367 E106.75072
G1 X45.218 Y152.638 E106.82433
G1 X45.185 Y151.966 E106.89146
G1 X45.184 Y118.025 E110.27811
G1 X45.224 Y117.289 E110.35166
G1 X45.412 Y116.281 E110.45397
G1 X45.708 Y115.319 E110.5544
G1 X46.01 Y114.647 E110.62791
G1 X46.568 Y113.746 E110.73366
G1 X47.12 Y113.06 E110.82152
G1 X47.647 Y112.543 E110.89518
G1 X48.226 Y112.087 E110.96872
G1 X48.352 Y112.005 E110.98372
G1 X47.753 Y111.545 E111.05908
G1 X47.179 Y110.987 E111.13895
G1 X46.603 Y110.299 E111.22849
G1 X46.2 Y109.682 E111.30202
G1 X45.866 Y109.024 E111.37565
G1 X45.624 Y108.391 E111.44327
G1 X45.331 Y107.367 E111.54954
G1 X45.218 Y106.638 E111.62315
G1 X45.185 Y105.966 E111.69029
G1 X45.184 Y72.025 E115.07693
G1 X45.224 Y71.289 E115.15048
G1 X45.412 Y70.281 E115.25279
G1 X45.708 Y69.319 E115.35322
G1 X46.01 Y68.647 E115.42673
G1 X46.568 Y67.746 E115.53248
G1 X47.12 Y67.06 E115.62034
G1 X47.647 Y66.543 E115.694
G1 X48.226 Y66.087 E115.76754
G0 F3600 X48.239 Y67.089
G1 F1800 X49.051 Y66.504 E115.8674
G1 X49.854 Y66.069 E115.95852
G1 X50.501 Y65.82 E116.0277
G1 X51.057 Y65.668 E116.08521
G1 X51.737 Y65.537 E116.15431
G1 X52.526 Y65.485 E116.23321
G1 X91.471 Y65.485 E120.11915
G1 X92.162 Y65.525 E120.18822
G1 X92.845 Y65.644 E120.2574
G1 X93.508 Y65.842 E120.32644
G1 X94.329 Y66.191 E120.41545
G1 X94.943 Y66.511 E120.48454
G1 X95.517 Y66.899 E120.55367
G1 X96.002 Y67.317 E120.61756
G1 X96.239 Y67.089 E120.65037
G1 X97.051 Y66.504 E120.75023
G1 X97.854 Y66.069 E120.84135
G1 X98.501 Y65.82 E120.91053
G1 X99.057 Y65.668 E120.96804
G1 X99.737 Y65.537 E121.03714
G1 X100.526 Y65.485 E121.11604
G1 X139.471 Y65.485 E125.00198
G1 X140.162 Y65.525 E125.07105
G1 X140.845 Y65.644 E125.14022
G1 X141.508 Y65.842 E125.20927
G1 X142.329 Y66.191 E125.29828
G1 X142.943 Y66.511 E125.36737
G1 X143.517 Y66.899 E125.4365
G1 X144.002 Y67.317 E125.50038
G1 X144.239 Y67.089 E125.5332
G1 X145.051 Y66.504 E125.63306
G1 X145.854 Y66.069 E125.72418
G1 X146.501 Y65.82 E125.79336
G1 X147.057 Y65.668 E125.85087
G1 X147.737 Y65.537 E125.91997
G1 X148.526 Y65.485 E125.99887
G1 X187.471 Y65.485 E129.88481
G1 X188.162 Y65.525 E129.95388
G1 X188.845 Y65.644 E130.02305
G1 X189.508 Y65.842 E130.0921
G1 X190.329 Y66.191 E130.18111
G1 X190.943 Y66.511 E130.2502
G1 X191.517 Y66.899 E130.31933
G1 X192.042 Y67.351 E130.38845
G1 X192.511 Y67.86 E130.45751
G1 X192.839 Y68.297 E130.51203
G1 X193.208 Y68.883 E130.58113
G1 X193.506 Y69.508 E130.65022
G1 X193.764 Y70.288 E130.7322
G1 X193.96 Y71.218 E130.82703
G1 X194.015 Y72.026 E130.90784
G1 X194.015 Y105.973 E134.29508
G1 X193.975 Y106.664 E134.36415
G1 X193.841 Y107.407 E134.43948
G1 X193.589 Y108.264 E134.52861
G1 X193.31 Y108.898 E134.59773
G1 X193.004 Y109.428 E134.65879
G1 X192.463 Y110.19 E134.75204
G1 X191.992 Y110.698 E134.82116
G1 X191.314 Y111.26 E134.90903
G1 X190.617 Y111.708 E134.99171
G1 X189.992 Y112.006 E135.0608
G1 X189.949 Y112.02 E135.06531
G1 X190.329 Y112.191 E135.10689
G1 X190.943 Y112.511 E135.17597
G1 X191.517 Y112.899 E135.24511
G1 X192.042 Y113.351 E135.31423
G1 X192.511 Y113.86 E135.38329
G1 X192.839 Y114.297 E135.43781
G1 X193.208 Y114.883 E135.50691
G1 X193.506 Y115.508 E135.576
G1 X193.764 Y116.288 E135.65797
G1 X193.96 Y117.218 E135.75281
G1 X194.015 Y118.026 E135.83362
G1 X194.015 Y151.973 E139.22086
G1 X193.975 Y152.664 E139.28993
G1 X193.841 Y153.407 E139.36526
G1 X193.589 Y154.264 E139.45439
G1 X193.31 Y154.898 E139.52351
G1 X193.004 Y155.428 E139.58457
G1 X192.463 Y156.19 E139.67782
G1 X191.992 Y156.698 E139.74694
G1 X191.314 Y157.26 E139.83481
G1 X190.617 Y157.708 E139.91749
G1 X189.992 Y158.006 E139.98657
G1 X189.949 Y158.02 E139.99109
G1 X190.329 Y158.191 E140.03267
G1 X190.943 Y158.511 E140.10175
G1 X191.517 Y158.899 E140.17088
G1 X192.042 Y159.351 E140.24001
G1 X192.511 Y159.86 E140.30907
G1 X192.839 Y160.297 E140.36359
G1 X193.208 Y160.883 E140.43269
G1 X193.506 Y161.508 E140.50178
G1 X193.764 Y162.288 E140.58375
G1 X193.96 Y163.218 E140.67859
G1 X194.015 Y164.026 E140.75939
G1 X194.015 Y197.973 E144.14664
G1 X193.975 Y198.664 E144.2157
G1 X193.841 Y199.407 E144.29104
G1 X193.589 Y200.264 E144.38017
G1 X193.31 Y200.898 E144.44928
G1 X193.004 Y201.428 E144.51035
G1 X192.463 Y202.19 E144.6036
G1 X191.992 Y202.698 E144.67272
G1 X191.314 Y203.26 E144.76059
G1 X190.617 Y203.708 E144.84326
G1 X189.992 Y204.006 E144.91235
G1 X189.212 Y204.264 E144.99433
G1 X188.282 Y204.46 E145.08916
G1 X187.474 Y204.515 E145.16997
G1 X148.49 Y204.516 E149.05981
G1 X147.799 Y204.476 E149.12887
