;FLAVOR:Marlin
;TIME:858
;Filament used: 1.63068m
;Layer height: 0.2
;MINX:92.374
;MINY:109.874
;MINZ:0.3
;MAXX:147.626
;MAXY:160.126
;MAXZ:5.9
;Generated with Cura_SteamEngine 4.6.1
M140 S60
M105
M190 S60
M104 S200
M105
M109 S200
M82 ;absolute extrusion mode
G21 ;metric values
G90 ;absolute positioning
M82 ;set extruder to absolute mode
M107 ;start with the fan off
G28 X0 Y0 ;move X/Y to min endstops
G28 Z0 ;move Z to min endstops
G1 Z15.0 F9000 ;move the platform down 15mm
G92 E0 ;zero the extruded length
G1 F200 E6 ;extrude 6 mm of feed stock
G92 E0 ;zero the extruded length again
G1 F9000
;Put printing message on LCD screen
M117 Printing...
G92 E0
G92 E0
G1 F1500 E-6.5
;LAYER_COUNT:29
;LAYER:0
M107
G0 F3600 X95.414 Y111.579 Z0.3
;TYPE:SKIRT
G1 F1500 E0
G1 F1800 X96.043 Y111.119 E0.07775
G1 X96.716 Y110.725 E0.15557
G1 X97.426 Y110.403 E0.23336
G1 X98.165 Y110.155 E0.31114
G1 X98.925 Y109.984 E0.38887
G1 X99.699 Y109.892 E0.46664
G1 X100.209 Y109.875 E0.51756
G1 X139.792 Y109.874 E4.46716
G1 X140.57 Y109.914 E4.5449
G1 X141.341 Y110.033 E4.62274
G1 X142.095 Y110.231 E4.70052
G1 X142.824 Y110.505 E4.77823
G1 X143.522 Y110.852 E4.85601
G1 X144.181 Y111.269 E4.93382
G1 X144.793 Y111.751 E5.01155
G1 X145.166 Y112.1 E5.06252
G1 X145.922 Y112.913 E5.1733
G1 X146.382 Y113.542 E5.25105
G1 X146.776 Y114.215 E5.32886
G1 X147.098 Y114.925 E5.40665
G1 X147.346 Y115.664 E5.48443
G1 X147.517 Y116.424 E5.56216
G1 X147.609 Y117.198 E5.63994
G1 X147.626 Y117.708 E5.69085
G1 X147.625 Y152.291 E9.14156
G1 X147.585 Y153.07 E9.21939
G1 X147.465 Y153.84 E9.29715
G1 X147.268 Y154.594 E9.37491
G1 X146.994 Y155.324 E9.45271
G1 X146.646 Y156.022 E9.53053
G1 X146.229 Y156.68 E9.60826
G1 X145.747 Y157.293 E9.68607
G1 X145.399 Y157.665 E9.7369
G1 X144.586 Y158.421 E9.84767
G1 X143.957 Y158.881 E9.92543
G1 X143.284 Y159.275 E10.00324
G1 X142.574 Y159.597 E10.08103
G1 X141.835 Y159.845 E10.15881
G1 X141.075 Y160.016 E10.23654
G1 X140.301 Y160.108 E10.31431
G1 X139.791 Y160.125 E10.36523
G1 X100.208 Y160.126 E14.31484
G1 X99.43 Y160.086 E14.39257
G1 X98.659 Y159.967 E14.47041
G1 X97.905 Y159.769 E14.5482
G1 X97.176 Y159.495 E14.6259
G1 X96.478 Y159.148 E14.70368
G1 X95.819 Y158.731 E14.7815
G1 X95.207 Y158.249 E14.85923
G1 X94.834 Y157.9 E14.9102
G1 X94.078 Y157.087 E15.02097
G1 X93.618 Y156.458 E15.09872
G1 X93.224 Y155.785 E15.17654
G1 X92.902 Y155.075 E15.25433
G1 X92.654 Y154.336 E15.33211
G1 X92.483 Y153.576 E15.40984
G1 X92.391 Y152.802 E15.48761
G1 X92.374 Y152.292 E15.53853
G1 X92.375 Y117.709 E18.98923
G1 X92.415 Y116.93 E19.06706
G1 X92.535 Y116.16 E19.14482
G1 X92.732 Y115.406 E19.22258
G1 X93.006 Y114.676 E19.30038
G1 X93.354 Y113.978 E19.37821
G1 X93.771 Y113.32 E19.45594
G1 X94.253 Y112.707 E19.53374
G1 X94.601 Y112.335 E19.58457
G1 X95.414 Y111.579 E19.69535
G0 F3600 X95.95 Y112.174
G1 F1800 X96.548 Y111.744 E19.76884
G1 X97.19 Y111.382 E19.84238
G1 X97.868 Y111.091 E19.916
G1 X98.573 Y110.875 E19.98957
G1 X99.297 Y110.736 E20.06313
G1 X100.209 Y110.675 E20.15434
G1 X139.792 Y110.674 E24.10394
G1 X140.528 Y110.714 E24.17749
G1 X141.256 Y110.833 E24.25109
G1 X141.966 Y111.031 E24.32464
G1 X142.651 Y111.304 E24.39822
G1 X143.302 Y111.65 E24.47178
G1 X143.912 Y112.064 E24.54534
G1 X144.6 Y112.666 E24.63656
G1 X145.327 Y113.449 E24.74317
G1 X145.757 Y114.047 E24.81667
G1 X146.119 Y114.689 E24.89021
G1 X146.41 Y115.367 E24.96383
G1 X146.626 Y116.072 E25.0374
G1 X146.765 Y116.796 E25.11096
G1 X146.826 Y117.708 E25.20216
G1 X146.825 Y152.291 E28.65287
G1 X146.785 Y153.027 E28.72641
G1 X146.666 Y153.755 E28.80002
G1 X146.468 Y154.465 E28.87357
G1 X146.195 Y155.15 E28.94714
G1 X145.849 Y155.801 E29.0207
G1 X145.435 Y156.411 E29.09427
G1 X144.833 Y157.099 E29.18548
G1 X144.05 Y157.826 E29.2921
G1 X143.452 Y158.256 E29.36559
G1 X142.81 Y158.618 E29.43913
G1 X142.132 Y158.909 E29.51275
G1 X141.427 Y159.125 E29.58632
G1 X140.703 Y159.264 E29.65988
G1 X139.791 Y159.325 E29.75108
G1 X100.208 Y159.326 E33.70069
G1 X99.472 Y159.286 E33.77424
G1 X98.744 Y159.167 E33.84784
G1 X98.034 Y158.969 E33.92139
G1 X97.349 Y158.696 E33.99497
G1 X96.698 Y158.35 E34.06853
G1 X96.088 Y157.936 E34.14209
G1 X95.4 Y157.334 E34.23331
G1 X94.673 Y156.551 E34.33992
G1 X94.243 Y155.953 E34.41341
G1 X93.881 Y155.311 E34.48695
G1 X93.59 Y154.633 E34.56057
G1 X93.374 Y153.928 E34.63415
G1 X93.235 Y153.204 E34.70771
G1 X93.174 Y152.292 E34.79891
G1 X93.175 Y117.709 E38.24962
G1 X93.215 Y116.973 E38.32316
G1 X93.334 Y116.245 E38.39677
G1 X93.532 Y115.535 E38.47031
G1 X93.805 Y114.85 E38.54389
G1 X94.151 Y114.199 E38.61745
G1 X94.565 Y113.589 E38.69101
G1 X95.167 Y112.901 E38.78223
G1 X95.95 Y112.174 E38.88884
G0 F3600 X96.483 Y112.772
G1 F1800 X97.05 Y112.374 E38.95797
G1 X97.659 Y112.044 E39.02708
G1 X98.302 Y111.786 E39.09621
G1 X98.97 Y111.604 E39.16529
G1 X99.655 Y111.501 E39.23441
G1 X100.209 Y111.475 E39.28975
G1 X139.792 Y111.474 E43.23936
G1 X140.483 Y111.514 E43.30842
G1 X141.165 Y111.633 E43.3775
G1 X141.829 Y111.83 E43.44661
G1 X142.466 Y112.103 E43.51576
G1 X143.067 Y112.447 E43.58486
G1 X143.625 Y112.858 E43.65401
G1 X144.035 Y113.231 E43.70931
G1 X144.269 Y113.465 E43.74233
G1 X144.729 Y113.982 E43.81138
G1 X145.127 Y114.549 E43.88051
G1 X145.457 Y115.158 E43.94962
G1 X145.715 Y115.801 E44.01875
G1 X145.897 Y116.469 E44.08783
G1 X146 Y117.154 E44.15695
G1 X146.026 Y117.708 E44.21229
G1 X146.025 Y152.291 E47.663
G1 X145.985 Y152.983 E47.73216
G1 X145.866 Y153.665 E47.80124
G1 X145.668 Y154.329 E47.87038
G1 X145.396 Y154.965 E47.9394
G1 X145.052 Y155.566 E48.00849
G1 X144.641 Y156.124 E48.07764
G1 X144.268 Y156.534 E48.13295
G1 X144.034 Y156.768 E48.16597
G1 X143.517 Y157.228 E48.23502
G1 X142.95 Y157.626 E48.30414
G1 X142.341 Y157.956 E48.37326
G1 X141.698 Y158.214 E48.44239
G1 X141.03 Y158.396 E48.51147
G1 X140.345 Y158.499 E48.58059
G1 X139.791 Y158.525 E48.63593
G1 X100.208 Y158.526 E52.58553
G1 X99.517 Y158.486 E52.6546
G1 X98.835 Y158.367 E52.72368
G1 X98.171 Y158.17 E52.79279
G1 X97.534 Y157.897 E52.86194
G1 X96.933 Y157.553 E52.93103
G1 X96.375 Y157.142 E53.00018
G1 X95.965 Y156.769 E53.05549
G1 X95.731 Y156.535 E53.08851
G1 X95.271 Y156.018 E53.15756
G1 X94.873 Y155.451 E53.22668
G1 X94.543 Y154.842 E53.2958
G1 X94.285 Y154.199 E53.36493
G1 X94.103 Y153.531 E53.43401
G1 X94 Y152.846 E53.50313
G1 X93.974 Y152.292 E53.55847
G1 X93.975 Y117.709 E57.00917
G1 X94.015 Y117.017 E57.07834
G1 X94.134 Y116.335 E57.14741
G1 X94.332 Y115.671 E57.21655
G1 X94.604 Y115.035 E57.28557
G1 X94.948 Y114.434 E57.35467
G1 X95.359 Y113.876 E57.42382
G1 X95.732 Y113.466 E57.47913
G1 X95.966 Y113.232 E57.51215
G1 X96.483 Y112.772 E57.5812
G0 F3600 X97.015 Y113.371
G1 F1800 X97.548 Y113.008 E57.64554
G1 X98.121 Y112.713 E57.70985
G1 X98.726 Y112.491 E57.77415
G1 X99.354 Y112.346 E57.83846
G1 X100.209 Y112.275 E57.92407
G1 X139.792 Y112.274 E61.87367
G1 X140.435 Y112.314 E61.93796
G1 X141.069 Y112.433 E62.00232
G1 X141.683 Y112.63 E62.06666
G1 X142.268 Y112.901 E62.13099
G1 X142.814 Y113.243 E62.19528
G1 X143.469 Y113.797 E62.28088
G1 X143.703 Y114.031 E62.3139
G1 X144.13 Y114.514 E62.37823
G1 X144.493 Y115.047 E62.44257
G1 X144.788 Y115.62 E62.50688
G1 X145.01 Y116.225 E62.57118
G1 X145.155 Y116.853 E62.63549
G1 X145.226 Y117.708 E62.7211
G1 X145.225 Y152.291 E66.1718
G1 X145.185 Y152.935 E66.23619
G1 X145.066 Y153.568 E66.30045
G1 X144.869 Y154.182 E66.36479
G1 X144.598 Y154.767 E66.42912
G1 X144.256 Y155.314 E66.49349
G1 X143.702 Y155.968 E66.57902
G1 X143.468 Y156.202 E66.61204
G1 X142.985 Y156.629 E66.67636
G1 X142.452 Y156.992 E66.74071
G1 X141.879 Y157.287 E66.80502
G1 X141.274 Y157.509 E66.86932
G1 X140.646 Y157.654 E66.93363
G1 X139.791 Y157.725 E67.01923
G1 X100.208 Y157.726 E70.96884
G1 X99.565 Y157.686 E71.03313
G1 X98.931 Y157.567 E71.09749
G1 X98.317 Y157.37 E71.16183
G1 X97.732 Y157.099 E71.22616
G1 X97.186 Y156.757 E71.29045
G1 X96.531 Y156.203 E71.37605
G1 X96.297 Y155.969 E71.40907
G1 X95.87 Y155.486 E71.47339
G1 X95.507 Y154.953 E71.53774
G1 X95.212 Y154.38 E71.60205
G1 X94.99 Y153.775 E71.66635
G1 X94.845 Y153.147 E71.73066
G1 X94.774 Y152.292 E71.81627
G1 X94.775 Y117.709 E75.26697
G1 X94.815 Y117.065 E75.33135
G1 X94.934 Y116.432 E75.39562
G1 X95.131 Y115.818 E75.45996
G1 X95.402 Y115.233 E75.52429
G1 X95.744 Y114.686 E75.58866
G1 X96.298 Y114.032 E75.67418
G1 X96.532 Y113.798 E75.7072
G1 X97.015 Y113.371 E75.77153
G0 F3600 X97.544 Y113.974
G1 F1800 X98.039 Y113.647 E75.83073
G1 X98.574 Y113.39 E75.88995
G1 X99.138 Y113.207 E75.94911
G1 X99.721 Y113.102 E76.00822
G1 X100.209 Y113.075 E76.05699
G1 X139.792 Y113.074 E80.0066
G1 X140.384 Y113.114 E80.0658
G1 X140.964 Y113.233 E80.12488
G1 X141.524 Y113.429 E80.18408
G1 X142.052 Y113.699 E80.24325
G1 X142.539 Y114.037 E80.3024
G1 X143.137 Y114.597 E80.38415
G1 X143.527 Y115.043 E80.44327
G1 X143.854 Y115.538 E80.50246
G1 X144.111 Y116.073 E80.56168
G1 X144.294 Y116.637 E80.62085
G1 X144.399 Y117.22 E80.67996
G1 X144.426 Y117.708 E80.72872
G1 X144.425 Y152.291 E84.17943
G1 X144.385 Y152.883 E84.23863
G1 X144.266 Y153.464 E84.29781
G1 X144.07 Y154.023 E84.35692
G1 X143.8 Y154.551 E84.41609
G1 X143.462 Y155.038 E84.47524
G1 X142.902 Y155.636 E84.55699
G1 X142.456 Y156.026 E84.6161
G1 X141.961 Y156.353 E84.6753
G1 X141.426 Y156.61 E84.73452
G1 X140.862 Y156.793 E84.79369
G1 X140.279 Y156.898 E84.85279
G1 X139.791 Y156.925 E84.90156
G1 X100.208 Y156.926 E88.85117
G1 X99.616 Y156.886 E88.91037
G1 X99.036 Y156.767 E88.96945
G1 X98.476 Y156.571 E89.02865
G1 X97.948 Y156.301 E89.08782
G1 X97.461 Y155.963 E89.14697
G1 X96.863 Y155.403 E89.22872
G1 X96.473 Y154.957 E89.28784
G1 X96.146 Y154.462 E89.34703
G1 X95.889 Y153.927 E89.40626
G1 X95.706 Y153.363 E89.46542
G1 X95.601 Y152.78 E89.52453
G1 X95.574 Y152.292 E89.5733
G1 X95.575 Y117.709 E93.024
G1 X95.615 Y117.117 E93.08321
G1 X95.734 Y116.536 E93.14238
G1 X95.93 Y115.977 E93.20149
G1 X96.2 Y115.449 E93.26066
G1 X96.538 Y114.962 E93.31981
G1 X97.098 Y114.364 E93.40156
G1 X97.544 Y113.974 E93.46067
G0 F3600 X98.07 Y114.58
G1 F1800 X98.524 Y114.294 E93.51421
G1 X99.015 Y114.079 E93.5677
G1 X99.533 Y113.939 E93.62124
G1 X100.209 Y113.875 E93.68899
G1 X139.792 Y113.874 E97.6386
G1 X140.327 Y113.914 E97.69213
G1 X140.85 Y114.033 E97.74565
G1 X141.349 Y114.228 E97.79911
G1 X141.814 Y114.495 E97.85261
G1 X142.338 Y114.928 E97.92044
G1 X142.572 Y115.162 E97.95346
G1 X142.921 Y115.569 E98.00695
G1 X143.207 Y116.023 E98.06049
G1 X143.422 Y116.514 E98.11397
G1 X143.562 Y117.032 E98.16752
G1 X143.626 Y117.708 E98.23527
G1 X143.625 Y152.291 E101.68597
G1 X143.585 Y152.826 E101.73951
G1 X143.466 Y153.349 E101.79302
G1 X143.271 Y153.848 E101.84648
G1 X143.003 Y154.313 E101.90003
G1 X142.571 Y154.837 E101.9678
G1 X142.337 Y155.071 E102.00082
G1 X141.93 Y155.42 E102.05431
G1 X141.476 Y155.706 E102.10785
G1 X140.985 Y155.921 E102.16134
G1 X140.467 Y156.061 E102.21488
G1 X139.791 Y156.125 E102.28263
G1 X100.208 Y156.126 E106.23224
G1 X99.673 Y156.086 E106.28577
G1 X99.15 Y155.967 E106.33929
G1 X98.651 Y155.772 E106.39275
G1 X98.186 Y155.505 E106.44625
G1 X97.662 Y155.072 E106.51407
G1 X97.428 Y154.838 E106.54709
G1 X97.079 Y154.431 E106.60059
G1 X96.793 Y153.977 E106.65413
G1 X96.578 Y153.486 E106.70761
G1 X96.438 Y152.968 E106.76115
G1 X96.374 Y152.292 E106.82891
G1 X96.375 Y117.709 E110.27961
G1 X96.415 Y117.174 E110.33314
G1 X96.534 Y116.651 E110.38666
G1 X96.729 Y116.152 E110.44012
G1 X96.997 Y115.687 E110.49367
G1 X97.429 Y115.163 E110.56144
G1 X97.663 Y114.929 E110.59446
G1 X98.07 Y114.58 E110.64795
G0 F3600 X98.591 Y115.19
G1 F1800 X98.998 Y114.95 E110.6951
G1 X99.44 Y114.783 E110.74224
G1 X99.904 Y114.692 E110.78942
G1 X100.209 Y114.675 E110.8199
G1 X139.792 Y114.674 E114.76951
G1 X140.263 Y114.714 E114.81668
G1 X140.721 Y114.833 E114.86389
G1 X141.152 Y115.027 E114.91106
G1 X141.545 Y115.29 E114.95824
G1 X142.006 Y115.728 E115.02169
G1 X142.311 Y116.09 E115.06892
G1 X142.551 Y116.497 E115.11607
G1 X142.718 Y116.939 E115.16321
G1 X142.809 Y117.403 E115.21039
G1 X142.826 Y117.708 E115.24087
G1 X142.825 Y152.291 E118.69158
G1 X142.785 Y152.762 E118.73875
G1 X142.666 Y153.22 E118.78596
G1 X142.472 Y153.651 E118.83312
G1 X142.209 Y154.044 E118.88031
G1 X141.771 Y154.505 E118.94376
G1 X141.409 Y154.81 E118.99099
G1 X141.002 Y155.05 E119.03814
G1 X140.56 Y155.217 E119.08528
G1 X140.096 Y155.308 E119.13246
G1 X139.791 Y155.325 E119.16294
G1 X100.208 Y155.326 E123.11255
G1 X99.737 Y155.286 E123.15971
G1 X99.279 Y155.167 E123.20693
G1 X98.848 Y154.973 E123.25409
G1 X98.455 Y154.71 E123.30128
G1 X97.994 Y154.272 E123.36473
G1 X97.689 Y153.91 E123.41196
G1 X97.449 Y153.503 E123.4591
G1 X97.282 Y153.061 E123.50625
G1 X97.191 Y152.597 E123.55343
G1 X97.174 Y152.292 E123.58391
G1 X97.175 Y117.709 E127.03462
G1 X97.215 Y117.238 E127.08178
G1 X97.334 Y116.78 E127.129
G1 X97.528 Y116.349 E127.17616
G1 X97.791 Y115.956 E127.22334
G1 X98.229 Y115.495 E127.28679
G1 X98.591 Y115.19 E127.33403
G0 F3600 X99.104 Y115.808
G1 F1800 X99.457 Y115.622 E127.37384
G1 X99.841 Y115.509 E127.41378
G1 X100.209 Y115.475 E127.45066
G1 X139.792 Y115.474 E131.40026
G1 X140.189 Y115.514 E131.44008
G1 X140.571 Y115.632 E131.47997
G1 X140.922 Y115.824 E131.51989
G1 X141.206 Y116.06 E131.55673
G1 X141.44 Y116.294 E131.58975
G1 X141.693 Y116.603 E131.6296
G1 X141.879 Y116.956 E131.66942
G1 X141.992 Y117.34 E131.70936
G1 X142.026 Y117.708 E131.74623
G1 X142.025 Y152.291 E135.19694
G1 X141.985 Y152.689 E135.23685
G1 X141.867 Y153.07 E135.27665
G1 X141.675 Y153.421 E135.31657
G1 X141.439 Y153.705 E135.35341
G1 X141.205 Y153.939 E135.38643
G1 X140.896 Y154.192 E135.42628
G1 X140.543 Y154.378 E135.46609
G1 X140.159 Y154.491 E135.50603
G1 X139.791 Y154.525 E135.54291
G1 X100.208 Y154.526 E139.49252
G1 X99.811 Y154.486 E139.53233
G1 X99.429 Y154.368 E139.57222
G1 X99.078 Y154.176 E139.61215
G1 X98.794 Y153.94 E139.64899
G1 X98.56 Y153.706 E139.68201
G1 X98.307 Y153.397 E139.72186
G1 X98.121 Y153.044 E139.76167
G1 X98.008 Y152.66 E139.80161
G1 X97.974 Y152.292 E139.83849
G1 X97.975 Y117.709 E143.28919
G1 X98.015 Y117.311 E143.32911
G1 X98.133 Y116.93 E143.3689
G1 X98.325 Y116.579 E143.40882
G1 X98.561 Y116.295 E143.44567
G1 X98.795 Y116.061 E143.47869
G1 X99.104 Y115.808 E143.51854
G0 F3600 X99.36 Y116.626
G1 F1800 X99.605 Y116.438 E143.54935
G1 X99.89 Y116.318 E143.58021
G1 X100.209 Y116.275 E143.61232
G1 X139.792 Y116.274 E147.56193
G1 X140.099 Y116.314 E147.59282
G1 X140.385 Y116.431 E147.62366
G1 X140.641 Y116.625 E147.65571
G1 X140.875 Y116.859 E147.68873
G1 X141.063 Y117.104 E147.71954
G1 X141.183 Y117.389 E147.7504
G1 X141.226 Y117.708 E147.78251
G1 X141.225 Y152.291 E151.23322
G1 X141.185 Y152.598 E151.26411
G1 X141.068 Y152.884 E151.29494
G1 X140.874 Y153.14 E151.32699
G1 X140.64 Y153.374 E151.36001
G1 X140.395 Y153.562 E151.39083
G1 X140.11 Y153.682 E151.42168
G1 X139.791 Y153.725 E151.4538
G1 X100.208 Y153.726 E155.40341
G1 X99.901 Y153.686 E155.4343
G1 X99.615 Y153.569 E155.46513
G1 X99.359 Y153.375 E155.49718
G1 X99.125 Y153.141 E155.5302
G1 X98.937 Y152.896 E155.56102
G1 X98.817 Y152.611 E155.59187
G1 X98.774 Y152.292 E155.62399
G1 X98.775 Y117.709 E159.0747
G1 X98.815 Y117.402 E159.10559
G1 X98.932 Y117.116 E159.13642
G1 X99.126 Y116.86 E159.16847
G1 X99.36 Y116.626 E159.20149
G0 F3600 X99.926 Y117.192
G1 F1800 X100.077 Y117.098 E159.21924
G1 X100.209 Y117.075 E159.23261
G1 X139.792 Y117.074 E163.18221
G1 X139.965 Y117.113 E163.19991
G1 X140.075 Y117.191 E163.21336
G1 X140.309 Y117.425 E163.24638
G1 X140.403 Y117.576 E163.26413
G1 X140.426 Y117.708 E163.2775
G1 X140.425 Y152.291 E166.72821
G1 X140.385 Y152.464 E166.74592
G1 X140.308 Y152.574 E166.75932
G1 X140.074 Y152.808 E166.79234
G1 X139.923 Y152.902 E166.81009
G1 X139.791 Y152.925 E166.82346
G1 X100.208 Y152.926 E170.77307
G1 X100.035 Y152.887 E170.79076
G1 X99.925 Y152.809 E170.80422
G1 X99.691 Y152.575 E170.83724
G1 X99.597 Y152.424 E170.85499
G1 X99.574 Y152.292 E170.86836
G1 X99.575 Y117.709 E174.31906
G1 X99.615 Y117.536 E174.33678
G1 X99.692 Y117.426 E174.35018
G1 X99.926 Y117.192 E174.3832
G1 F1500 E167.8832
