;FLAVOR:Marlin
;TIME:3006
;Filament used: 4.93953m
;Layer height: 0.2
;MINX:90.374
;MINY:107.874
;MINZ:0.3
;MAXX:149.625
;MAXY:208.116
;MAXZ:19.9
;Generated with Cura_SteamEngine 4.6.1
M140 S60
M105
M190 S60
M104 S200
M105
M109 S200
M82 ;absolute extrusion mode
G21 ;metric values
G90 ;absolute positioning
M82 ;set extruder to absolute mode
M107 ;start with the fan off
G28 X0 Y0 ;move X/Y to min endstops
G28 Z0 ;move Z to min endstops
G1 Z15.0 F9000 ;move the platform down 15mm
G92 E0 ;zero the extruded length
G1 F200 E6 ;extrude 6 mm of feed stock
G92 E0 ;zero the extruded length again
G1 F9000
;Put printing message on LCD screen
M117 Printing...
G92 E0
G92 E0
G1 F1500 E-6.5
;LAYER_COUNT:99
;LAYER:0
M107
G0 F3600 X93.418 Y109.583 Z0.3
;TYPE:SKIRT
G1 F1500 E0
G1 F1800 X94.047 Y109.123 E0.07775
G1 X94.72 Y108.729 E0.15557
G1 X95.43 Y108.407 E0.23336
G1 X96.169 Y108.159 E0.31114
G1 X96.929 Y107.988 E0.38887
G1 X97.703 Y107.896 E0.46664
G1 X98.212 Y107.879 E0.51746
G1 X141.791 Y107.874 E4.86579
G1 X142.57 Y107.914 E4.94362
G1 X143.34 Y108.033 E5.02136
G1 X144.094 Y108.231 E5.09915
G1 X144.824 Y108.505 E5.17695
G1 X145.522 Y108.852 E5.25473
G1 X146.18 Y109.269 E5.33246
G1 X146.793 Y109.751 E5.41026
G1 X147.353 Y110.293 E5.48803
G1 X147.854 Y110.89 E5.56579
G1 X148.292 Y111.535 E5.64359
G1 X148.661 Y112.222 E5.7214
G1 X148.958 Y112.942 E5.79911
G1 X149.18 Y113.69 E5.87697
G1 X149.323 Y114.456 E5.95472
G1 X149.392 Y115.428 E6.05195
G1 X149.625 Y154.245 E9.92519
G1 X149.59 Y155.024 E10.003
G1 X149.475 Y155.795 E10.08078
G1 X149.281 Y156.55 E10.15857
G1 X149.012 Y157.282 E10.23638
G1 X148.669 Y157.982 E10.31416
G1 X148.256 Y158.643 E10.39193
G1 X147.777 Y159.258 E10.46971
G1 X147.399 Y159.665 E10.52514
G1 X146.586 Y160.421 E10.63591
G1 X145.957 Y160.881 E10.71367
G1 X145.284 Y161.275 E10.79148
G1 X144.574 Y161.597 E10.86927
G1 X144.339 Y161.676 E10.89401
G1 X144.562 Y162.027 E10.9355
G1 X144.911 Y162.723 E11.01319
G1 X145.187 Y163.452 E11.09097
G1 X145.378 Y164.141 E11.16231
G1 X145.532 Y164.905 E11.24007
G1 X145.615 Y166.026 E11.35223
G1 X145.615 Y199.973 E14.73948
G1 X145.575 Y200.751 E14.81721
G1 X145.395 Y201.79 E14.92243
G1 X145.122 Y202.731 E15.02019
G1 X144.822 Y203.45 E15.09793
G1 X144.348 Y204.297 E15.19478
G1 X143.759 Y205.133 E15.29682
G1 X143.24 Y205.714 E15.37455
G1 X142.665 Y206.24 E15.45231
G1 X142.242 Y206.564 E15.50548
G1 X141.473 Y207.062 E15.59689
G1 X140.777 Y207.411 E15.67458
G1 X140.048 Y207.687 E15.75236
G1 X139.359 Y207.878 E15.8237
G1 X138.595 Y208.032 E15.90147
G1 X137.474 Y208.115 E16.01363
G1 X98.49 Y208.116 E19.90347
G1 X97.712 Y208.076 E19.9812
G1 X96.941 Y207.957 E20.05904
G1 X96.187 Y207.759 E20.13682
G1 X95.626 Y207.556 E20.19635
G1 X94.625 Y207.105 E20.3059
G1 X93.957 Y206.705 E20.38359
G1 X93.333 Y206.237 E20.46142
G1 X92.589 Y205.527 E20.56404
G1 X91.985 Y204.808 E20.65773
G1 X91.553 Y204.159 E20.73553
G1 X91.19 Y203.469 E20.81332
G1 X90.863 Y202.64 E20.90224
G1 X90.557 Y201.575 E21.01281
G1 X90.432 Y200.806 E21.09054
G1 X90.385 Y199.966 E21.17449
G1 X90.384 Y166.025 E24.56114
G1 X90.424 Y165.247 E24.63887
G1 X90.543 Y164.476 E24.71671
G1 X90.707 Y163.816 E24.78457
G1 X90.946 Y163.073 E24.86245
G1 X91.259 Y162.36 E24.94014
G1 X91.643 Y161.682 E25.01789
G1 X92.008 Y161.157 E25.08169
G1 X92.5 Y160.553 E25.15942
G1 X92.999 Y160.055 E25.22977
G1 X92.6 Y159.666 E25.28537
G1 X92.078 Y159.087 E25.36316
G1 X91.618 Y158.458 E25.44091
G1 X91.224 Y157.785 E25.51872
G1 X90.902 Y157.075 E25.59651
G1 X90.654 Y156.336 E25.67429
G1 X90.483 Y155.576 E25.75202
G1 X90.391 Y154.802 E25.82979
G1 X90.374 Y154.291 E25.88081
G1 X90.379 Y115.712 E29.73024
G1 X90.419 Y114.934 E29.80797
G1 X90.539 Y114.163 E29.88583
G1 X90.737 Y113.409 E29.96361
G1 X91.011 Y112.68 E30.04132
G1 X91.358 Y111.982 E30.1191
G1 X91.775 Y111.323 E30.19691
G1 X92.257 Y110.711 E30.27464
G1 X92.605 Y110.339 E30.32547
G1 X93.418 Y109.583 E30.43625
G0 F3600 X93.954 Y110.178
G1 F1800 X94.552 Y109.748 E30.50974
G1 X95.194 Y109.386 E30.58328
G1 X95.872 Y109.095 E30.6569
G1 X96.577 Y108.879 E30.73047
G1 X97.301 Y108.74 E30.80403
G1 X98.212 Y108.679 E30.89514
G1 X141.791 Y108.674 E35.24347
G1 X142.527 Y108.714 E35.31701
G1 X143.255 Y108.833 E35.39062
G1 X143.965 Y109.031 E35.46416
G1 X144.65 Y109.304 E35.53774
G1 X145.301 Y109.65 E35.6113
G1 X145.911 Y110.064 E35.68486
G1 X146.473 Y110.542 E35.75848
G1 X146.979 Y111.077 E35.83196
G1 X147.425 Y111.665 E35.9056
G1 X147.804 Y112.297 E35.97913
G1 X148.113 Y112.967 E36.05275
G1 X148.347 Y113.666 E36.1263
G1 X148.504 Y114.386 E36.19983
G1 X148.592 Y115.433 E36.30467
G1 X148.825 Y154.25 E40.17791
G1 X148.789 Y154.987 E40.25154
G1 X148.674 Y155.715 E40.32508
G1 X148.481 Y156.426 E40.39859
G1 X148.212 Y157.113 E40.47221
G1 X147.87 Y157.766 E40.54576
G1 X147.459 Y158.378 E40.61932
G1 X146.833 Y159.099 E40.71459
G1 X146.05 Y159.826 E40.8212
G1 X145.452 Y160.256 E40.8947
G1 X144.81 Y160.618 E40.96824
G1 X144.132 Y160.909 E41.04186
G1 X143.427 Y161.125 E41.11543
G1 X143.007 Y161.207 E41.15813
G1 X143.412 Y161.722 E41.2235
G1 X143.885 Y162.456 E41.31063
G1 X144.21 Y163.118 E41.38422
G1 X144.539 Y164.09 E41.48661
G1 X144.746 Y165.063 E41.58587
G1 X144.815 Y166.026 E41.6822
G1 X144.815 Y199.973 E45.06945
G1 X144.775 Y200.709 E45.14299
G1 X144.618 Y201.598 E45.23307
G1 X144.355 Y202.499 E45.32673
G1 X144.065 Y203.177 E45.40031
G1 X143.676 Y203.862 E45.47891
G1 X143.111 Y204.662 E45.57663
G1 X142.615 Y205.208 E45.65024
G1 X141.778 Y205.912 E45.75937
G1 X141.044 Y206.385 E45.84649
G1 X140.382 Y206.71 E45.92008
G1 X139.41 Y207.039 E46.02247
G1 X138.437 Y207.246 E46.12173
G1 X137.474 Y207.315 E46.21807
G1 X98.49 Y207.316 E50.1079
G1 X97.754 Y207.276 E50.18145
G1 X97.026 Y207.157 E50.25506
G1 X96.316 Y206.959 E50.3286
G1 X95.633 Y206.695 E50.40167
G1 X94.966 Y206.38 E50.47527
G1 X94.337 Y205.996 E50.5488
G1 X93.753 Y205.545 E50.62243
G1 X93.179 Y204.987 E50.7023
G1 X92.603 Y204.299 E50.79184
G1 X92.2 Y203.682 E50.86537
G1 X91.866 Y203.024 E50.939
G1 X91.624 Y202.391 E51.00662
G1 X91.331 Y201.367 E51.11289
G1 X91.218 Y200.638 E51.1865
G1 X91.185 Y199.966 E51.25363
G1 X91.184 Y166.025 E54.64028
G1 X91.224 Y165.289 E54.71383
G1 X91.412 Y164.281 E54.81614
G1 X91.708 Y163.319 E54.91657
G1 X92.01 Y162.647 E54.99008
G1 X92.568 Y161.746 E55.09583
G1 X93.12 Y161.06 E55.18369
G1 X93.647 Y160.543 E55.25735
G1 X94.226 Y160.087 E55.33089
G1 X94.269 Y160.059 E55.33601
G1 X94.088 Y159.936 E55.35785
G1 X93.4 Y159.334 E55.44906
G1 X92.673 Y158.551 E55.55568
G1 X92.243 Y157.953 E55.62917
G1 X91.881 Y157.311 E55.70271
G1 X91.59 Y156.633 E55.77633
G1 X91.374 Y155.928 E55.8499
G1 X91.235 Y155.204 E55.92346
G1 X91.174 Y154.291 E56.01476
G1 X91.179 Y115.712 E59.86419
G1 X91.219 Y114.976 E59.93774
G1 X91.339 Y114.248 E60.01136
G1 X91.536 Y113.538 E60.08488
G1 X91.81 Y112.853 E60.1585
G1 X92.155 Y112.202 E60.23201
G1 X92.57 Y111.592 E60.30563
G1 X93.171 Y110.905 E60.3967
G1 X93.954 Y110.178 E60.50332
G0 F3600 X94.487 Y110.776
G1 F1800 X95.054 Y110.378 E60.57244
G1 X95.663 Y110.048 E60.64155
G1 X96.306 Y109.79 E60.71068
G1 X96.974 Y109.608 E60.77977
G1 X97.659 Y109.505 E60.84888
G1 X98.212 Y109.479 E60.90412
G1 X141.791 Y109.474 E65.25245
G1 X142.483 Y109.514 E65.32162
G1 X143.165 Y109.633 E65.3907
G1 X143.829 Y109.83 E65.4598
G1 X144.466 Y110.103 E65.52896
G1 X145.067 Y110.446 E65.598
G1 X145.624 Y110.857 E65.66707
G1 X146.131 Y111.33 E65.73626
G1 X146.579 Y111.857 E65.80528
G1 X146.964 Y112.433 E65.87441
G1 X147.28 Y113.049 E65.94349
G1 X147.523 Y113.698 E66.01263
G1 X147.69 Y114.37 E66.08173
G1 X147.777 Y115.057 E66.15082
G1 X147.792 Y115.438 E66.18887
G1 X148.025 Y154.255 E70.06211
G1 X147.989 Y154.947 E70.13126
G1 X147.874 Y155.629 E70.20027
G1 X147.681 Y156.295 E70.26945
G1 X147.412 Y156.933 E70.33854
G1 X147.072 Y157.536 E70.40761
G1 X146.664 Y158.096 E70.47675
G1 X146.268 Y158.534 E70.53567
G1 X146.034 Y158.768 E70.56869
G1 X145.517 Y159.228 E70.63774
G1 X144.95 Y159.626 E70.70686
G1 X144.341 Y159.956 E70.77597
G1 X143.698 Y160.214 E70.8451
G1 X143.03 Y160.396 E70.91419
G1 X142.345 Y160.499 E70.9833
G1 X141.791 Y160.525 E71.03864
G1 X140.964 Y160.525 E71.12116
G1 X141.517 Y160.899 E71.18778
G1 X142.042 Y161.351 E71.2569
G1 X142.511 Y161.86 E71.32596
G1 X142.839 Y162.297 E71.38048
G1 X143.208 Y162.883 E71.44958
G1 X143.506 Y163.508 E71.51867
G1 X143.764 Y164.288 E71.60064
G1 X143.96 Y165.218 E71.69548
G1 X144.015 Y166.026 E71.77629
G1 X144.015 Y199.973 E75.16353
G1 X143.975 Y200.664 E75.2326
G1 X143.841 Y201.407 E75.30793
G1 X143.589 Y202.264 E75.39706
G1 X143.31 Y202.898 E75.46618
G1 X143.004 Y203.428 E75.52724
G1 X142.463 Y204.19 E75.62049
G1 X141.992 Y204.698 E75.68961
G1 X141.314 Y205.26 E75.77748
G1 X140.617 Y205.708 E75.86016
G1 X139.992 Y206.006 E75.92924
G1 X139.212 Y206.264 E76.01122
G1 X138.282 Y206.46 E76.10605
G1 X137.474 Y206.515 E76.18686
G1 X98.49 Y206.516 E80.0767
G1 X97.799 Y206.476 E80.14577
G1 X97.117 Y206.357 E80.21484
G1 X96.229 Y206.074 E80.30784
G1 X95.934 Y205.954 E80.33962
G1 X95.309 Y205.656 E80.40871
G1 X94.722 Y205.289 E80.47778
G1 X94.181 Y204.856 E80.54693
G1 X93.769 Y204.447 E80.60485
G1 X93.224 Y203.792 E80.68987
G1 X92.851 Y203.208 E80.75902
G1 X92.548 Y202.585 E80.82814
G1 X92.282 Y201.83 E80.90801
G1 X92.105 Y201.161 E80.97706
G1 X92.007 Y200.475 E81.04621
G1 X91.985 Y199.966 E81.09704
G1 X91.984 Y166.025 E84.48369
G1 X92.024 Y165.334 E84.55275
G1 X92.185 Y164.486 E84.63888
G1 X92.47 Y163.568 E84.73479
G1 X92.76 Y162.939 E84.8039
G1 X93.213 Y162.219 E84.88878
G1 X93.739 Y161.569 E84.97221
G1 X94.239 Y161.089 E85.04137
G1 X95.051 Y160.504 E85.14123
G1 X95.854 Y160.069 E85.23236
G1 X95.897 Y160.053 E85.23693
G1 X95.534 Y159.897 E85.27636
G1 X94.933 Y159.553 E85.34545
G1 X94.375 Y159.142 E85.4146
G1 X93.965 Y158.769 E85.46991
G1 X93.731 Y158.535 E85.50293
G1 X93.271 Y158.018 E85.57198
G1 X92.873 Y157.451 E85.6411
G1 X92.543 Y156.842 E85.71022
G1 X92.285 Y156.199 E85.77935
G1 X92.103 Y155.531 E85.84843
G1 X92 Y154.846 E85.91755
G1 X91.974 Y154.291 E85.97299
G1 X91.979 Y115.712 E89.82242
G1 X92.019 Y115.021 E89.89148
G1 X92.139 Y114.339 E89.96058
G1 X92.336 Y113.675 E90.02968
G1 X92.608 Y113.038 E90.0988
G1 X92.952 Y112.437 E90.16789
G1 X93.363 Y111.88 E90.23696
G1 X93.736 Y111.47 E90.29227
G1 X93.97 Y111.236 E90.32529
G1 X94.487 Y110.776 E90.39434
G0 F3600 X95.019 Y111.375
G1 F1800 X95.552 Y111.012 E90.45868
G1 X96.125 Y110.717 E90.52299
G1 X96.73 Y110.495 E90.58729
G1 X97.358 Y110.35 E90.6516
G1 X98.212 Y110.279 E90.73711
G1 X141.791 Y110.274 E95.08544
G1 X142.435 Y110.314 E95.14982
G1 X143.068 Y110.433 E95.21409
G1 X143.682 Y110.63 E95.27843
G1 X144.267 Y110.901 E95.34276
G1 X144.814 Y111.242 E95.40708
G1 X145.314 Y111.649 E95.47141
G1 X145.761 Y112.114 E95.53577
G1 X146.146 Y112.631 E95.60009
G1 X146.464 Y113.192 E95.66443
G1 X146.711 Y113.787 E95.72871
G1 X146.882 Y114.409 E95.79308
G1 X146.974 Y115.047 E95.8574
G1 X146.992 Y115.443 E95.89695
G1 X147.225 Y154.26 E99.7702
G1 X147.189 Y154.903 E99.83446
G1 X147.073 Y155.538 E99.89887
G1 X146.88 Y156.153 E99.96318
G1 X146.613 Y156.739 E100.02744
G1 X146.274 Y157.288 E100.09182
G1 X145.702 Y157.968 E100.18048
G1 X145.468 Y158.202 E100.2135
G1 X144.985 Y158.629 E100.27783
G1 X144.452 Y158.992 E100.34217
G1 X143.879 Y159.287 E100.40648
G1 X143.274 Y159.509 E100.47078
G1 X142.646 Y159.654 E100.53509
G1 X141.791 Y159.725 E100.6207
G1 X98.208 Y159.726 E104.96943
G1 X97.565 Y159.686 E105.03371
G1 X96.931 Y159.567 E105.09808
G1 X96.317 Y159.37 E105.16242
G1 X95.732 Y159.099 E105.22675
G1 X95.186 Y158.757 E105.29103
G1 X94.531 Y158.203 E105.37663
G1 X94.297 Y157.969 E105.40965
G1 X93.87 Y157.486 E105.47398
G1 X93.507 Y156.953 E105.53832
G1 X93.212 Y156.38 E105.60263
G1 X92.99 Y155.775 E105.66693
G1 X92.845 Y155.147 E105.73124
G1 X92.774 Y154.291 E105.81695
G1 X92.779 Y115.712 E109.66638
G1 X92.819 Y115.069 E109.73066
G1 X92.938 Y114.435 E109.79503
G1 X93.135 Y113.821 E109.85937
G1 X93.406 Y113.237 E109.92361
G1 X93.748 Y112.69 E109.98798
G1 X94.302 Y112.036 E110.0735
G1 X94.536 Y111.802 E110.10652
G1 X95.019 Y111.375 E110.17085
G0 F3600 X95.548 Y111.978
G1 F1800 X96.043 Y111.651 E110.23004
G1 X96.578 Y111.394 E110.28927
G1 X97.142 Y111.211 E110.34843
G1 X97.725 Y111.106 E110.40754
G1 X98.212 Y111.079 E110.45621
G1 X141.791 Y111.074 E114.80454
G1 X142.383 Y111.114 E114.86374
G1 X142.964 Y111.233 E114.92292
G1 X143.524 Y111.429 E114.98212
G1 X144.052 Y111.699 E115.04129
G1 X144.539 Y112.037 E115.10044
G1 X144.976 Y112.437 E115.15955
G1 X145.355 Y112.893 E115.21872
G1 X145.67 Y113.396 E115.27793
G1 X145.914 Y113.936 E115.33706
G1 X146.084 Y114.504 E115.39622
G1 X146.175 Y115.09 E115.45539
G1 X146.192 Y115.448 E115.49115
G1 X146.425 Y154.265 E119.3644
G1 X146.389 Y154.856 E119.42348
G1 X146.273 Y155.438 E119.48269
G1 X146.08 Y155.999 E119.54189
G1 X145.814 Y156.528 E119.60097
G1 X145.478 Y157.018 E119.66025
G1 X145.136 Y157.402 E119.71156
G1 X144.902 Y157.636 E119.74458
G1 X144.456 Y158.026 E119.8037
G1 X143.961 Y158.353 E119.8629
G1 X143.426 Y158.61 E119.92212
G1 X142.862 Y158.793 E119.98128
G1 X142.279 Y158.898 E120.04039
G1 X141.791 Y158.925 E120.08916
G1 X98.208 Y158.926 E124.43789
G1 X97.616 Y158.886 E124.49709
G1 X97.036 Y158.767 E124.55617
G1 X96.476 Y158.571 E124.61537
G1 X95.948 Y158.301 E124.67454
G1 X95.461 Y157.963 E124.73369
G1 X94.863 Y157.403 E124.81544
G1 X94.473 Y156.957 E124.87456
G1 X94.146 Y156.462 E124.93375
G1 X93.889 Y155.927 E124.99297
G1 X93.706 Y155.363 E125.05214
G1 X93.601 Y154.78 E125.11125
G1 X93.574 Y154.291 E125.16011
G1 X93.579 Y115.712 E129.00954
G1 X93.619 Y115.121 E129.06865
G1 X93.738 Y114.54 E129.12782
G1 X93.934 Y113.98 E129.18702
G1 X94.204 Y113.452 E129.2462
G1 X94.542 Y112.965 E129.30535
G1 X95.102 Y112.368 E129.38702
G1 X95.548 Y111.978 E129.44614
G0 F3600 X96.074 Y112.584
G1 F1800 X96.528 Y112.298 E129.49968
G1 X97.019 Y112.083 E129.55316
G1 X97.537 Y111.943 E129.6067
G1 X98.213 Y111.879 E129.67445
G1 X141.792 Y111.874 E134.02278
G1 X142.326 Y111.914 E134.07622
G1 X142.849 Y112.033 E134.12974
G1 X143.349 Y112.228 E134.18329
G1 X143.814 Y112.495 E134.23679
G1 X144.234 Y112.829 E134.29033
G1 X144.6 Y113.221 E134.34384
G1 X144.903 Y113.663 E134.39731
G1 X145.138 Y114.145 E134.45082
G1 X145.298 Y114.657 E134.50434
G1 X145.392 Y115.452 E134.58422
G1 X145.625 Y154.269 E138.45747
G1 X145.588 Y154.804 E138.51098
G1 X145.472 Y155.328 E138.56453
G1 X145.28 Y155.829 E138.61806
G1 X145.016 Y156.295 E138.67151
G1 X144.571 Y156.837 E138.74148
G1 X144.337 Y157.071 E138.7745
G1 X143.93 Y157.42 E138.828
G1 X143.476 Y157.706 E138.88154
G1 X142.985 Y157.921 E138.93502
G1 X142.467 Y158.061 E138.98856
G1 X141.791 Y158.125 E139.05631
G1 X98.208 Y158.126 E143.40504
G1 X97.673 Y158.086 E143.45857
G1 X97.15 Y157.967 E143.51209
G1 X96.651 Y157.772 E143.56555
G1 X96.186 Y157.505 E143.61905
G1 X95.662 Y157.072 E143.68688
G1 X95.428 Y156.838 E143.7199
G1 X95.079 Y156.431 E143.77339
G1 X94.793 Y155.977 E143.82693
G1 X94.578 Y155.486 E143.88042
G1 X94.438 Y154.968 E143.93396
G1 X94.374 Y154.292 E144.00171
G1 X94.379 Y115.713 E147.85114
G1 X94.419 Y115.178 E147.90467
G1 X94.538 Y114.655 E147.95819
G1 X94.733 Y114.155 E148.01174
G1 X95.001 Y113.691 E148.06521
G1 X95.433 Y113.167 E148.13297
G1 X95.667 Y112.933 E148.16599
G1 X96.074 Y112.584 E148.21949
G0 F3600 X96.595 Y113.194
G1 F1800 X97.002 Y112.954 E148.26663
G1 X97.444 Y112.787 E148.31378
G1 X97.908 Y112.696 E148.36096
G1 X98.213 Y112.679 E148.39144
G1 X141.792 Y112.674 E152.73977
G1 X142.263 Y112.714 E152.78693
G1 X142.721 Y112.832 E152.83412
G1 X143.152 Y113.026 E152.88129
G1 X143.544 Y113.29 E152.92844
G1 X143.887 Y113.616 E152.97566
G1 X144.17 Y113.995 E153.02286
G1 X144.385 Y114.416 E153.07002
G1 X144.526 Y114.868 E153.11727
G1 X144.592 Y115.457 E153.17641
G1 X144.825 Y154.274 E157.04965
G1 X144.788 Y154.746 E157.09689
G1 X144.672 Y155.204 E157.14404
G1 X144.481 Y155.636 E157.19117
G1 X144.219 Y156.03 E157.23838
G1 X143.771 Y156.505 E157.30353
G1 X143.409 Y156.81 E157.35076
G1 X143.002 Y157.05 E157.39791
G1 X142.56 Y157.217 E157.44505
G1 X142.096 Y157.308 E157.49223
